;FLAVOR:Marlin
;TIME:4123
;Filament used: 4.64666m
;Layer height: 0.2
;MINX:106.2
;MINY:118.7
;MINZ:0.2
;MAXX:195.8
;MAXY:183.3
;MAXZ:12.1
;TARGET_MACHINE.NAME:Anycubic Kobra Plus
;Generated with Cura_SteamEngine 5.9.0
M140 S70
M105
M190 S70
M104 S195
M105
M109 S195
M82 ;absolute extrusion mode
G28 ;Home
G1 Z15.0 F6000 ;Move the platform down 15mm
;Prime the extruder
G92 E0
M355 S1; Turn LED on
; Add Custom purge lines
G1 Z2.0 F3000 ; Move Z Axis up little to prevent scratching of Heat Bed
G1 X1.0 Y30 Z0.3 F5000.0 ; Move to start position
G1 X1.0 Y100.0 Z0.3 F1500.0 E15 ; Draw the first line
G1 X1.3 Y100.0 Z0.3 F5000.0 ; Move to side a little
G1 X1.3 Y30 Z0.3 F1500.0 E30 ; Draw the second line
G92 E0 ; Reset Extruder
G1 E-2 F500 ; Retract a little 
G1 X50 F500 ; wipe away from the filament line
G1 X100 F9000 ; Quickly wipe away from the filament line
G1 Z5.0 F3000 ; Move Z Axis up little to prevent scratching of Heat Bed
; End custom purge lines
G92 E0
G92 E0
G1 F1500 E-6.5
;LAYER_COUNT:60
;LAYER:0
M107
G1 F600 Z0.3
G0 F1800 X187.726 Y179.731 Z0.3
;TYPE:SKIRT
G1 F600 Z0.2
G1 F1500 E0
G1 F1200 X187.074 Y179.808 E0.02184
G1 X186.284 Y179.819 E0.04811
G1 X115.65 Y179.82 E2.39741
G1 X114.965 Y179.81 E2.4202
G1 X114.425 Y179.756 E2.43825
G1 X113.563 Y179.582 E2.46749
G1 X112.903 Y179.375 E2.4905
G1 X112.139 Y179.02 E2.51852
G1 X111.708 Y178.755 E2.53535
G1 X111.068 Y178.171 E2.56417
G1 X110.74 Y177.786 E2.58099
G1 X110.486 Y177.373 E2.59711
G1 X110.134 Y176.619 E2.62479
G1 X109.883 Y175.819 E2.65268
G1 X109.746 Y175.093 E2.67725
G1 X109.692 Y174.558 E2.69514
G1 X109.681 Y173.783 E2.72091
G1 X109.68 Y128.119 E4.23971
G1 X109.69 Y127.463 E4.26153
G1 X109.752 Y126.886 E4.28083
G1 X109.902 Y126.134 E4.30633
G1 X110.121 Y125.412 E4.33143
G1 X110.483 Y124.634 E4.35997
G1 X110.748 Y124.204 E4.37677
G1 X111.308 Y123.587 E4.40448
G1 X111.691 Y123.258 E4.42127
G1 X112.289 Y122.913 E4.44424
G1 X112.983 Y122.607 E4.46946
G1 X113.554 Y122.417 E4.48948
G1 X114.39 Y122.247 E4.51785
G1 X114.935 Y122.192 E4.53607
G1 X115.668 Y122.181 E4.56045
G1 X186.35 Y122.181 E6.91135
G1 X187.033 Y122.191 E6.93407
G1 X187.608 Y122.252 E6.9533
G1 X188.315 Y122.392 E6.97727
G1 X188.926 Y122.578 E6.99851
G1 X189.618 Y122.867 E7.02345
G1 X190.068 Y123.098 E7.04028
G1 X190.747 Y123.628 E7.06893
G1 X191.234 Y124.182 E7.09346
G1 X191.505 Y124.612 E7.11037
G1 X191.827 Y125.287 E7.13524
G1 X192.105 Y126.151 E7.16543
G1 X192.247 Y126.859 E7.18944
G1 X192.309 Y127.438 E7.20881
G1 X192.319 Y128.082 E7.23023
G1 X192.319 Y173.848 E8.75242
G1 X192.309 Y174.545 E8.7756
G1 X192.247 Y175.127 E8.79507
G1 X192.103 Y175.846 E8.81946
G1 X191.886 Y176.566 E8.84447
G1 X191.532 Y177.338 E8.87272
G1 X191.27 Y177.771 E8.88955
G1 X190.701 Y178.404 E8.91786
G1 X190.319 Y178.735 E8.93467
G1 X189.721 Y179.082 E8.95767
G1 X189.101 Y179.358 E8.98024
G1 X188.499 Y179.558 E9.00134
G1 X187.726 Y179.731 E9.02768
G1 F1500 E2.52768
G1 F600 Z0.3
;MESH:Case_2-Top Case.stl
G0 F1800 X186.356 Y173.744 Z0.3
;TYPE:WALL-INNER
G1 F600 Z0.2
G1 F1500 E9.02768
G1 F727.3 X186.315 Y173.673 E9.03218
G1 X186.233 Y173.673 E9.03668
G1 X186.192 Y173.744 E9.04118
G1 X186.233 Y173.815 E9.04568
G1 X186.315 Y173.815 E9.05018
G1 X186.356 Y173.744 E9.05468
G1 F1500 E2.55468
G1 F600 Z0.3
G0 F1800 X173.333 Y172.967 Z0.3
G1 F600 Z0.2
G1 F1500 E9.05468
G1 F1200 X173.549 Y172.713 E9.06577
G1 X173.805 Y172.557 E9.07574
G1 X174.105 Y172.483 E9.08602
G1 X180.281 Y172.483 E9.29143
G1 X180.647 Y172.588 E9.3041
G1 X180.906 Y172.779 E9.3148
G1 X181.286 Y173.165 E9.33282
G1 X181.481 Y173.293 E9.34058
G1 X181.867 Y173.436 E9.35427
G1 X182.16 Y173.47 E9.36408
G1 X182.562 Y173.426 E9.37753
G1 X182.847 Y173.324 E9.3876
G1 X183.265 Y173.016 E9.40486
G1 X183.537 Y172.622 E9.42079
G1 X183.658 Y172.278 E9.43292
G1 X183.686 Y172.011 E9.44185
G1 X183.646 Y171.625 E9.45475
G1 X183.552 Y171.358 E9.46417
G1 X183.403 Y171.104 E9.47396
G1 X183.205 Y170.881 E9.48388
G1 X182.982 Y170.711 E9.49321
G1 X182.451 Y170.505 E9.51215
G1 X182.045 Y170.492 E9.52566
G1 X181.506 Y170.651 E9.54435
G1 X181.188 Y170.874 E9.55727
G1 X180.908 Y171.183 E9.57114
G1 X180.648 Y171.373 E9.58185
G1 X180.282 Y171.477 E9.59451
G1 X174.105 Y171.477 E9.79995
G1 X173.805 Y171.403 E9.81023
G1 X173.549 Y171.247 E9.8202
G1 X173.409 Y171.103 E9.82688
G1 X173.25 Y170.817 E9.83777
G1 X173.09 Y170.329 E9.85485
G1 X173.096 Y169.667 E9.87687
G1 X173.171 Y169.329 E9.88838
G1 X173.378 Y168.898 E9.90428
G1 X173.519 Y168.739 E9.91135
G1 X173.832 Y168.546 E9.92358
G1 X174.12 Y168.482 E9.93339
G1 X179.86 Y168.48 E10.12431
G1 X179.99 Y168.398 E10.12942
G1 X180.806 Y167.98 E10.15991
G1 X181.842 Y167.745 E10.19525
G1 X182.646 Y167.744 E10.22199
G1 X183.173 Y167.828 E10.23974
G1 X183.882 Y168.04 E10.26435
G1 X184.615 Y168.429 E10.29195
G1 X185.184 Y168.889 E10.31629
G1 X185.672 Y169.423 E10.34035
G1 X186.117 Y170.153 E10.36878
G1 X186.404 Y171.014 E10.39897
G1 X186.404 Y156.754 E10.87326
G1 F1218.3 X186.414 Y155.829 E10.90356
G1 X186.067 Y156.807 E10.93756
G1 F1200 X185.587 Y157.548 E10.96693
G1 X184.841 Y158.27 E11.00146
G1 X183.944 Y158.79 E11.03594
G1 X183.21 Y159.019 E11.06151
G1 X182.671 Y159.114 E11.07972
G1 X181.686 Y159.091 E11.11249
G1 X181.015 Y158.944 E11.13533
G1 X180.343 Y158.664 E11.15955
G1 X179.889 Y158.38 E11.17736
G1 X174.12 Y158.378 E11.36924
G1 X173.806 Y158.303 E11.37997
G1 X173.469 Y158.072 E11.39356
G1 X173.285 Y157.803 E11.4044
G1 X173.114 Y157.331 E11.4211
G1 X173.078 Y157.119 E11.42825
G1 X173.102 Y156.409 E11.45188
G1 X173.321 Y155.888 E11.47068
G1 X173.429 Y155.733 E11.47696
G1 X173.683 Y155.518 E11.48803
G1 X174.105 Y155.383 E11.50277
G1 X180.192 Y155.38 E11.70522
G1 X180.65 Y155.49 E11.72089
G1 X180.913 Y155.686 E11.7318
G1 X181.249 Y156.034 E11.74789
G1 X181.567 Y156.231 E11.76033
G1 X181.927 Y156.344 E11.77288
G1 X182.322 Y156.367 E11.78604
G1 X182.819 Y156.238 E11.80311
G1 X183.155 Y156.02 E11.81644
G1 X183.416 Y155.727 E11.82949
G1 X183.624 Y155.298 E11.84534
G1 X183.688 Y154.95 E11.85711
G1 X183.631 Y154.461 E11.87349
G1 X183.399 Y153.991 E11.89092
G1 X183.033 Y153.641 E11.90776
G1 X182.665 Y153.463 E11.92136
G1 X182.291 Y153.387 E11.93405
G1 X181.813 Y153.431 E11.95002
G1 X181.275 Y153.702 E11.97006
G1 X180.909 Y154.078 E11.98751
G1 X180.65 Y154.27 E11.99823
G1 X180.192 Y154.38 E12.0139
G1 X174.105 Y154.377 E12.21635
G1 X173.683 Y154.242 E12.23109
G1 X173.429 Y154.027 E12.24216
G1 X173.17 Y153.533 E12.26071
G1 X173.095 Y153.232 E12.27103
G1 X173.094 Y152.514 E12.29491
G1 X173.28 Y151.967 E12.31412
G1 X173.519 Y151.64 E12.32759
G1 X173.762 Y151.476 E12.33734
G1 X174.127 Y151.382 E12.34988
G1 X179.886 Y151.38 E12.54143
G1 X180.345 Y151.091 E12.55947
G1 X181.047 Y150.808 E12.58464
G1 X181.866 Y150.645 E12.61242
G1 X182.708 Y150.644 E12.64042
G1 X183.541 Y150.818 E12.66872
G1 X184.3 Y151.142 E12.69617
G1 X184.843 Y151.49 E12.71762
G1 X185.457 Y152.057 E12.74542
G1 X185.893 Y152.664 E12.77028
G1 X186.152 Y153.131 E12.78804
G1 X186.404 Y153.884 E12.81445
G1 X186.404 Y128.23 E13.6677
G1 X186.311 Y128.113 E13.67268
G1 X115.685 Y128.113 E16.02171
G1 X115.612 Y128.199 E16.02546
G1 X115.612 Y173.812 E17.54255
G1 X115.697 Y173.888 E17.54634
G1 X123.072 Y173.9 E17.79164
G1 X122.917 Y173.409 E17.80876
G1 X122.894 Y173.061 E17.82036
G1 X122.93 Y172.779 E17.82982
G1 X123.027 Y172.519 E17.83905
G1 X123.29 Y172.044 E17.85711
G1 X123.776 Y171.558 E17.87997
G1 X123.005 Y171.557 E17.90561
G1 X122.435 Y171.359 E17.92568
G1 X122.109 Y171.13 E17.93893
G1 X121.845 Y170.831 E17.9522
G1 X121.552 Y170.231 E17.97441
G1 X121.512 Y169.68 E17.99278
G1 X121.588 Y169.296 E18.0058
G1 X121.802 Y168.825 E18.02301
G1 X122.241 Y168.363 E18.0442
G1 X122.967 Y168.06 E18.07037
G1 X123.775 Y168.06 E18.09724
G1 X123.229 Y167.516 E18.12288
G1 X122.987 Y167.025 E18.14109
G1 X122.891 Y166.53 E18.15786
G1 X122.943 Y166.044 E18.17411
G1 X123.184 Y165.478 E18.19457
G1 X123.638 Y165.017 E18.21609
G1 X123.855 Y164.892 E18.22442
G1 X124.363 Y164.722 E18.24224
G1 X124.985 Y164.724 E18.26293
G1 X125.477 Y164.913 E18.28046
G1 X125.827 Y165.163 E18.29476
G1 X126.248 Y165.582 E18.31452
G1 X126.251 Y164.882 E18.3378
G1 X126.368 Y164.42 E18.35365
G1 X126.626 Y163.973 E18.37082
G1 X127.177 Y163.495 E18.39508
G1 X127.853 Y163.315 E18.41835
G1 X128.047 Y163.31 E18.4248
G1 X128.511 Y163.388 E18.44045
G1 X129.073 Y163.656 E18.46116
G1 X129.539 Y164.201 E18.48501
G1 X129.748 Y164.839 E18.50734
G1 X129.749 Y165.583 E18.53208
G1 X130.274 Y165.059 E18.55676
G1 X130.834 Y164.789 E18.57743
G1 X131.119 Y164.716 E18.58722
G1 X131.702 Y164.732 E18.60662
G1 X132.159 Y164.894 E18.62274
G1 X132.662 Y165.27 E18.64363
G1 X132.968 Y165.762 E18.6629
G1 X133.107 Y166.374 E18.68377
G1 X133.023 Y166.98 E18.70412
G1 X132.847 Y167.37 E18.71835
G1 X132.657 Y167.627 E18.72898
G1 X132.223 Y168.06 E18.74937
G1 X132.964 Y168.06 E18.77402
G1 X133.417 Y168.197 E18.78976
G1 X133.668 Y168.321 E18.79907
G1 X133.983 Y168.567 E18.81237
G1 X134.152 Y168.785 E18.82154
G1 X134.426 Y169.313 E18.84133
G1 X134.489 Y169.941 E18.86232
G1 X134.469 Y170.139 E18.86894
G1 X134.274 Y170.643 E18.88691
G1 X134.081 Y170.934 E18.89852
G1 X133.72 Y171.263 E18.91477
G1 X133.207 Y171.486 E18.93337
G1 X132.935 Y171.56 E18.94275
G1 X132.222 Y171.56 E18.96646
G1 X132.711 Y172.048 E18.98944
G1 X133.021 Y172.627 E19.01129
G1 X133.103 Y173.064 E19.02607
G1 X133.044 Y173.613 E19.04444
G1 X132.937 Y173.908 E19.05488
G1 X141.553 Y173.907 E19.34145
G1 X141.217 Y173.616 E19.35623
G1 X140.985 Y173.3 E19.36927
G1 X140.747 Y172.749 E19.38923
G1 X140.692 Y172.419 E19.40036
G1 X140.698 Y159.163 E19.84126
G1 X140.812 Y158.608 E19.8601
G1 X141.093 Y158.076 E19.88011
G1 X141.509 Y157.665 E19.89956
G1 X141.797 Y157.491 E19.91075
G1 X142.279 Y157.316 E19.92781
G1 X142.493 Y157.281 E19.93502
G1 X166.821 Y157.283 E20.74417
G1 X167.248 Y157.359 E20.7586
G1 X167.806 Y157.616 E20.77903
G1 X167.968 Y157.737 E20.78576
G1 X168.393 Y158.223 E20.80723
G1 X168.512 Y158.46 E20.81605
G1 X168.692 Y159.001 E20.83501
G1 X168.692 Y172.324 E21.27814
G1 X168.632 Y172.746 E21.29232
G1 X168.526 Y173.049 E21.30299
G1 X168.317 Y173.428 E21.31739
G1 X168.032 Y173.755 E21.33181
G1 X167.824 Y173.907 E21.34038
G1 X173.072 Y173.907 E21.51493
G1 X173.119 Y173.535 E21.5274
G1 X173.333 Y172.967 E21.54759
G0 F1800 X173.806 Y173.02
G1 F1200 X173.96 Y172.926 E21.55359
G1 X174.139 Y172.882 E21.55972
G1 X180.245 Y172.882 E21.76281
G1 X180.525 Y172.962 E21.77249
G1 X181.031 Y173.477 E21.79651
G1 X181.3 Y173.652 E21.80718
G1 X181.773 Y173.828 E21.82397
G1 X182.159 Y173.872 E21.83689
G1 X182.652 Y173.819 E21.85338
G1 X183.02 Y173.687 E21.86638
G1 X183.31 Y173.511 E21.87767
G1 X183.567 Y173.283 E21.88909
G1 X183.896 Y172.805 E21.90839
G1 X184.05 Y172.366 E21.92387
G1 X184.088 Y172.011 E21.93574
G1 X184.038 Y171.537 E21.9516
G1 X183.917 Y171.189 E21.96385
G1 X183.728 Y170.867 E21.97627
G1 X183.478 Y170.587 E21.98875
G1 X183.189 Y170.366 E22.00085
G1 X182.744 Y170.163 E22.01712
G1 X182.504 Y170.107 E22.02532
G1 X182.013 Y170.091 E22.04166
G1 X181.662 Y170.159 E22.05355
G1 X181.315 Y170.296 E22.06596
G1 X180.921 Y170.573 E22.08198
G1 X180.623 Y170.902 E22.09674
G1 X180.468 Y171.016 E22.10314
G1 X180.248 Y171.078 E22.11074
G1 X174.139 Y171.078 E22.31393
G1 X173.96 Y171.034 E22.32006
G1 X173.806 Y170.94 E22.32606
G1 X173.676 Y170.788 E22.33271
G1 X173.482 Y170.247 E22.35183
G1 X173.496 Y169.685 E22.37053
G1 X173.541 Y169.482 E22.37744
G1 X173.703 Y169.131 E22.3903
G1 X173.976 Y168.92 E22.40177
G1 X174.149 Y168.881 E22.40767
G1 X179.992 Y168.88 E22.60201
G1 X180.173 Y168.754 E22.60935
G1 X180.942 Y168.359 E22.6381
G1 X181.861 Y168.149 E22.66946
G1 X182.655 Y168.149 E22.69586
G1 X183.059 Y168.212 E22.70946
G1 X183.722 Y168.408 E22.73246
G1 X184.396 Y168.767 E22.75786
G1 X184.976 Y169.236 E22.78267
G1 X185.352 Y169.669 E22.80174
G1 F1142.9 X185.742 Y170.304 E22.82776
G1 F1043.5 X186.064 Y171.134 E22.86182
G1 F909.1 X186.14 Y171.266 E22.8685
G1 F857.1 X186.19 Y171.895 E22.89788
G1 F866.4 X186.161 Y172.558 E22.92846
G1 F879.1 X186.127 Y172.616 E22.93151
G1 F1036.7 X185.804 Y173.501 E22.96778
G1 F1200 X185.542 Y174.007 E22.98673
G1 X185.339 Y174.293 E22.99839
G1 X186.379 Y174.284 E23.03299
G1 X186.576 Y174.203 E23.04007
G1 X186.72 Y174.051 E23.04703
G1 F1111.1 X186.827 Y173.794 E23.05703
G1 F971.7 X186.742 Y172.698 E23.10219
G1 F879.1 X186.722 Y172.606 E23.10646
G1 F866.4 X186.733 Y171.964 E23.13604
G1 F857.1 X186.716 Y171.237 E23.1699
G1 F909.1 X186.764 Y171.021 E23.17962
G1 F1090.9 X186.804 Y170.221 E23.20892
G1 F1200 X186.804 Y155.77 E23.68957
G1 F991.7 X186.721 Y155.352 E23.70672
G1 F866.4 X186.733 Y154.792 E23.73252
G1 F851.1 X186.711 Y154.033 E23.76813
G1 F973.6 X186.804 Y153.837 E23.77702
G1 F1200 X186.804 Y128.148 E24.63144
G1 X186.695 Y127.894 E24.64063
G1 X186.558 Y127.779 E24.64658
G1 X186.386 Y127.712 E24.65272
G1 X115.61 Y127.712 E27.00674
G1 X115.438 Y127.779 E27.01288
G1 X115.31 Y127.888 E27.01847
G1 X115.212 Y128.118 E27.02679
G1 X115.212 Y173.892 E28.54924
G1 X115.272 Y174.048 E28.5548
G1 X115.391 Y174.192 E28.56101
G1 X115.615 Y174.288 E28.56912
G1 X123.955 Y174.303 E28.84651
G1 X123.63 Y174.057 E28.86006
G1 X123.384 Y173.643 E28.87608
G1 X123.291 Y173.105 E28.89424
G1 X123.321 Y172.864 E28.90232
G1 X123.608 Y172.291 E28.92363
G1 X124.74 Y171.16 E28.97685
G1 X123.081 Y171.151 E29.03203
G1 X122.618 Y171.003 E29.0482
G1 X122.35 Y170.811 E29.05917
G1 X122.191 Y170.632 E29.06713
G1 X121.942 Y170.144 E29.08535
G1 X121.912 Y169.68 E29.10082
G1 X121.957 Y169.449 E29.10864
G1 X122.137 Y169.044 E29.12338
G1 X122.466 Y168.699 E29.13924
G1 X123.075 Y168.46 E29.161
G1 X124.742 Y168.46 E29.21644
G1 X123.551 Y167.272 E29.27239
G1 X123.365 Y166.894 E29.28641
G1 X123.288 Y166.412 E29.30264
G1 X123.381 Y165.972 E29.3176
G1 X123.512 Y165.708 E29.3274
G1 X123.878 Y165.336 E29.34476
G1 X124.309 Y165.14 E29.36051
G1 X124.875 Y165.122 E29.37934
G1 X125.283 Y165.263 E29.3937
G1 X125.564 Y165.464 E29.40519
G1 X126.648 Y166.549 E29.4562
G1 X126.65 Y164.918 E29.51045
G1 X126.737 Y164.573 E29.52228
G1 X126.977 Y164.174 E29.53777
G1 X127.37 Y163.862 E29.55446
G1 X127.859 Y163.719 E29.5714
G1 X128.066 Y163.714 E29.57829
G1 X128.516 Y163.811 E29.5936
G1 X128.867 Y164.03 E29.60736
G1 X129.152 Y164.36 E29.62186
G1 X129.349 Y164.899 E29.64095
G1 X129.349 Y166.548 E29.6958
G1 X130.565 Y165.334 E29.75295
G1 X131.159 Y165.114 E29.77402
G1 X131.51 Y165.108 E29.78569
G1 X131.958 Y165.24 E29.80122
G1 X132.386 Y165.576 E29.81932
G1 X132.598 Y165.916 E29.83265
G1 X132.707 Y166.4 E29.84915
G1 X132.64 Y166.867 E29.86484
G1 X132.437 Y167.28 E29.88015
G1 X131.256 Y168.46 E29.93568
G1 X132.914 Y168.46 E29.99082
G1 X133.442 Y168.652 E30.00951
G1 X133.736 Y168.888 E30.02205
G1 X134.043 Y169.429 E30.04274
G1 X134.096 Y170.014 E30.06227
G1 X133.907 Y170.483 E30.07909
G1 X133.791 Y170.658 E30.08607
G1 X133.512 Y170.921 E30.09883
G1 X132.947 Y171.155 E30.11917
G1 X131.255 Y171.158 E30.17544
G1 X132.394 Y172.297 E30.22902
G1 X132.665 Y172.82 E30.24861
G1 X132.705 Y173.107 E30.25825
G1 X132.65 Y173.539 E30.27273
G1 X132.59 Y173.711 E30.27879
G1 X132.389 Y174.033 E30.29141
G1 X132.062 Y174.307 E30.3056
G1 F1176.5 X142.648 Y174.3 E30.66474
G1 F1148.3 X166.977 Y174.298 E31.51034
G1 F1170.7 X167.415 Y174.307 E31.52527
G1 F1200 X173.502 Y174.308 E31.72773
G1 X173.469 Y173.895 E31.74151
G1 X173.498 Y173.662 E31.74932
G1 X173.676 Y173.172 E31.76666
G1 X173.806 Y173.02 E31.77331
G1 F1500 E25.27331
G1 F600 Z0.3
G0 F1800 X166.941 Y173.882 Z0.3
G1 F600 Z0.2
G1 F1500 E31.77331
G1 F1140.1 X142.549 Y173.879 E32.62718
G1 F1111.1 X142.303 Y173.848 E32.63609
G1 F1142.9 X141.731 Y173.549 E32.65863
G1 F1200 X141.54 Y173.38 E32.66711
G1 X141.308 Y173.064 E32.68015
G1 X141.125 Y172.617 E32.69621
G1 X141.092 Y172.419 E32.70289
G1 X141.097 Y159.19 E33.14289
G1 X141.162 Y158.814 E33.15558
G1 X141.361 Y158.395 E33.17101
G1 X141.719 Y158.008 E33.18854
G1 X142.041 Y157.818 E33.20098
G1 X142.515 Y157.68 E33.2174
G1 X166.789 Y157.681 E34.02475
G1 X167.189 Y157.759 E34.03831
G1 X167.696 Y158.031 E34.05745
G1 X168.09 Y158.484 E34.07741
G1 X168.29 Y159.022 E34.0965
