;FLAVOR:Marlin
;TIME:2380
;Filament used: 1.99519m
;Layer height: 0.2
;MINX:116.41
;MINY:139.921
;MINZ:0.2
;MAXX:185.6
;MAXY:162.1
;MAXZ:20.1
;TARGET_MACHINE.NAME:Anycubic Kobra Plus
;Generated with Cura_SteamEngine 5.9.0
M140 S70
M105
M190 S70
M104 S195
M105
M109 S195
M82 ;absolute extrusion mode
G28 ;Home
G1 Z15.0 F6000 ;Move the platform down 15mm
;Prime the extruder
G92 E0
M355 S1; Turn LED on
; Add Custom purge lines
G1 Z2.0 F3000 ; Move Z Axis up little to prevent scratching of Heat Bed
G1 X1.0 Y30 Z0.3 F5000.0 ; Move to start position
G1 X1.0 Y100.0 Z0.3 F1500.0 E15 ; Draw the first line
G1 X1.3 Y100.0 Z0.3 F5000.0 ; Move to side a little
G1 X1.3 Y30 Z0.3 F1500.0 E30 ; Draw the second line
G92 E0 ; Reset Extruder
G1 E-2 F500 ; Retract a little 
G1 X50 F500 ; wipe away from the filament line
G1 X100 F9000 ; Quickly wipe away from the filament line
G1 Z5.0 F3000 ; Move Z Axis up little to prevent scratching of Heat Bed
; End custom purge lines
G92 E0
G92 E0
G1 F1500 E-6.5
;LAYER_COUNT:100
;LAYER:0
M107
G1 F600 Z0.3
G0 F1800 X183.057 Y161.929 Z0.3
;TYPE:SKIRT
G1 F600 Z0.2
G1 F1500 E0
G1 F1200 X182.449 Y162.061 E0.02069
G1 X182.005 Y162.098 E0.03551
G1 X172.656 Y162.1 E0.34646
G1 X171.952 Y162.09 E0.36988
G1 X171.288 Y162.024 E0.39207
G1 X168.3 Y161.246 E0.49477
G1 X165.615 Y160.629 E0.5864
G1 X162.935 Y160.093 E0.6773
G1 X160.272 Y159.637 E0.76716
G1 X157.583 Y159.255 E0.8575
G1 X154.869 Y158.948 E0.94834
G1 X152.126 Y158.715 E1.0399
G1 X149.433 Y158.564 E1.12961
G1 X146.683 Y158.488 E1.22111
G1 X143.019 Y158.485 E1.34298
G1 X139.468 Y158.37 E1.46114
G1 X138.463 Y158.321 E1.49461
G1 X134.941 Y158.04 E1.61213
G1 X133.875 Y157.937 E1.64775
G1 X130.333 Y157.482 E1.76652
G1 X129.391 Y157.347 E1.79817
G1 X125.792 Y156.713 E1.91972
G1 X124.868 Y156.532 E1.95104
G1 X121.18 Y155.699 E2.07679
G1 X120.468 Y155.522 E2.10119
G1 X119.852 Y155.301 E2.12296
G1 X119.413 Y155.093 E2.13911
G1 X118.728 Y154.664 E2.166
G1 X118.305 Y154.325 E2.18403
G1 X117.8 Y153.823 E2.20771
G1 X117.496 Y153.443 E2.2239
G1 X117.09 Y152.795 E2.24933
G1 X116.877 Y152.355 E2.26559
G1 X116.575 Y151.521 E2.29509
G1 X116.415 Y150.57 E2.32716
G1 X116.41 Y149.78 E2.35344
G1 X116.542 Y148.958 E2.38113
G1 X116.801 Y148.073 E2.4118
G1 X117.163 Y147.345 E2.43884
G1 X117.652 Y146.61 E2.4682
G1 X118.387 Y145.877 E2.50273
G1 X119.128 Y145.328 E2.5334
G1 X119.948 Y144.949 E2.56345
G1 X120.79 Y144.687 E2.59278
G1 X121.631 Y144.553 E2.6211
G1 X122.437 Y144.574 E2.64792
G1 X123.115 Y144.665 E2.67067
G1 X124.272 Y144.897 E2.70992
G1 X126.953 Y145.395 E2.80062
G1 X129.634 Y145.815 E2.89087
G1 X132.359 Y146.163 E2.98224
G1 X135.052 Y146.43 E3.07225
G1 X137.779 Y146.622 E3.16318
G1 X140.496 Y146.736 E3.25362
G1 X143.232 Y146.774 E3.34463
G1 X145.966 Y146.734 E3.43558
G1 X148.687 Y146.618 E3.52616
G1 X151.406 Y146.425 E3.61682
G1 X154.11 Y146.155 E3.7072
G1 X156.827 Y145.808 E3.7983
G1 X159.51 Y145.387 E3.88863
G1 X162.184 Y144.888 E3.97911
G1 X164.88 Y144.306 E4.07084
G1 X167.465 Y143.672 E4.15937
G1 X170.141 Y142.935 E4.25169
G1 X172.737 Y142.139 E4.342
G1 X175.325 Y141.265 E4.43285
G1 X178.203 Y140.201 E4.5349
G1 X179.077 Y139.97 E4.56497
G1 X180.093 Y139.921 E4.5988
G1 X180.628 Y139.956 E4.61664
G1 X181.551 Y140.116 E4.64779
G1 X182.453 Y140.458 E4.67988
G1 X183.22 Y140.941 E4.71002
G1 X183.845 Y141.449 E4.73681
G1 X184.514 Y142.187 E4.76994
G1 X185.052 Y143.084 E4.80473
G1 X185.361 Y143.941 E4.83503
G1 X185.481 Y144.415 E4.8513
G1 X185.591 Y145.24 E4.87898
G1 X185.6 Y145.849 E4.89924
G1 X185.593 Y155.936 E5.23473
G1 X185.6 Y157.814 E5.29719
G1 X185.59 Y158.541 E5.32138
G1 X185.53 Y159.138 E5.34133
G1 X185.384 Y159.687 E5.36023
G1 X185.153 Y160.207 E5.37915
G1 X184.844 Y160.683 E5.39803
G1 X184.462 Y161.107 E5.41701
G1 X184.071 Y161.427 E5.43381
G1 X183.528 Y161.745 E5.45474
G1 X183.057 Y161.929 E5.47156
G0 F1800 X182.911 Y161.556
G1 F1200 X182.416 Y161.662 E5.4884
G1 X181.972 Y161.699 E5.50322
G1 X172.662 Y161.7 E5.81287
G1 X171.958 Y161.69 E5.83629
G1 X171.389 Y161.637 E5.85529
G1 X168.39 Y160.856 E5.95837
G1 X165.705 Y160.239 E6.05
G1 X163.003 Y159.699 E6.14164
G1 X160.328 Y159.241 E6.23191
G1 X157.639 Y158.859 E6.32224
G1 X154.903 Y158.549 E6.41383
G1 X152.16 Y158.317 E6.50538
G1 X149.444 Y158.164 E6.59586
G1 X146.694 Y158.088 E6.68736
G1 X143.032 Y158.085 E6.80916
G1 X139.487 Y157.97 E6.92713
G1 X138.495 Y157.922 E6.96016
G1 X134.98 Y157.642 E7.07744
G1 X133.926 Y157.54 E7.11266
G1 X130.39 Y157.086 E7.23124
G1 X129.46 Y156.953 E7.26248
G1 X125.869 Y156.32 E7.38376
G1 X124.956 Y156.142 E7.4147
G1 X121.276 Y155.311 E7.54018
G1 X120.603 Y155.145 E7.56323
G1 X119.987 Y154.924 E7.585
G1 X119.586 Y154.732 E7.59979
G1 X118.977 Y154.351 E7.62368
G1 X118.587 Y154.041 E7.64025
G1 X118.082 Y153.539 E7.66393
G1 X117.834 Y153.23 E7.67711
G1 X117.45 Y152.621 E7.70106
G1 X117.237 Y152.181 E7.71732
G1 X116.969 Y151.453 E7.74312
G1 X116.815 Y150.564 E7.77313
G1 X116.805 Y149.843 E7.79711
G1 X116.937 Y149.021 E7.8248
G1 X117.16 Y148.25 E7.85149
G1 X117.496 Y147.567 E7.87681
G1 X117.965 Y146.862 E7.90497
G1 X118.625 Y146.199 E7.93609
G1 X119.337 Y145.672 E7.96555
G1 X120.069 Y145.33 E7.99242
G1 X120.853 Y145.082 E8.01977
G1 X121.657 Y144.954 E8.04685
G1 X122.427 Y144.974 E8.07247
G1 X123.036 Y145.057 E8.09291
G1 X124.193 Y145.289 E8.13216
G1 X126.891 Y145.79 E8.22343
G1 X129.583 Y146.212 E8.31406
G1 X132.308 Y146.56 E8.40543
G1 X135.021 Y146.829 E8.49611
G1 X137.762 Y147.022 E8.5875
G1 X140.479 Y147.136 E8.67795
G1 X143.232 Y147.174 E8.76952
G1 X145.983 Y147.134 E8.86103
G1 X148.704 Y147.018 E8.95161
G1 X151.441 Y146.824 E9.04287
G1 X154.161 Y146.552 E9.13379
G1 X156.878 Y146.205 E9.22489
G1 X159.572 Y145.782 E9.31559
G1 X162.27 Y145.279 E9.40688
G1 X164.964 Y144.697 E9.49855
G1 X167.571 Y144.058 E9.58782
G1 X170.247 Y143.32 E9.68015
G1 X172.865 Y142.518 E9.77122
G1 X175.453 Y141.644 E9.86207
G1 X178.305 Y140.588 E9.96322
G1 X179.142 Y140.367 E9.99202
G1 X180.069 Y140.32 E10.02289
G1 X180.56 Y140.35 E10.03925
G1 X181.444 Y140.503 E10.06909
G1 X182.275 Y140.818 E10.09865
G1 X182.97 Y141.253 E10.12592
G1 X183.549 Y141.718 E10.15062
G1 X184.191 Y142.426 E10.1824
G1 X184.69 Y143.258 E10.21467
G1 X184.973 Y144.039 E10.2423
G1 X185.093 Y144.513 E10.25856
G1 X185.191 Y145.246 E10.28316
G1 X185.2 Y145.849 E10.30322
G1 X185.193 Y155.936 E10.63871
G1 X185.2 Y157.808 E10.70098
G1 X185.19 Y158.535 E10.72516
G1 X185.143 Y159.038 E10.74196
G1 X185.017 Y159.528 E10.75879
G1 X184.816 Y159.992 E10.77561
G1 X184.544 Y160.418 E10.79242
G1 X184.209 Y160.797 E10.80924
G1 X183.818 Y161.117 E10.82605
G1 X183.382 Y161.372 E10.84285
G1 X182.911 Y161.556 E10.85967
G1 F1500 E4.35967
G1 F600 Z0.3
;MESH:Case_2-Clip.stl
G0 F1800 X181 Y157.5 Z0.3
;TYPE:WALL-INNER
G1 F600 Z0.2
G1 F1500 E10.85967
G1 F1200 X174.5 Y157.5 E11.07586
G1 F1500 E4.57586
G1 F600 Z0.3
G0 F1800 X173.57 Y157.029 Z0.3
G1 F600 Z0.2
G1 F1500 E11.07586
G1 F965.8 X173.475 Y156.638 E11.09248
G1 F1057.3 X173.475 Y154.5 E11.17319
G1 F1126.8 X173.699 Y153.899 E11.19591
G1 F1200 X174.115 Y153.576 E11.21343
G1 X174.5 Y153.5 E11.22648
G1 X180.999 Y153.5 E11.44264
G1 X180.996 Y145.404 E11.71192
G1 X180.934 Y145.159 E11.72032
G1 X180.773 Y144.872 E11.73127
G1 X180.638 Y144.74 E11.73755
G1 X180.343 Y144.567 E11.74892
G1 X179.917 Y144.508 E11.76322
G1 X179.692 Y144.545 E11.77081
G1 X175.746 Y146.155 E11.91256
G1 X171.799 Y147.556 E12.05186
G1 X167.765 Y148.77 E12.19197
G1 X163.709 Y149.785 E12.33104
G1 X159.653 Y150.601 E12.46864
G1 X155.447 Y151.243 E12.61016
G1 X151.301 Y151.671 E12.74879
G1 X147.101 Y151.908 E12.8887
G1 X142.937 Y151.944 E13.0272
G1 X138.805 Y151.784 E13.16473
G1 X134.611 Y151.429 E13.30473
G1 X130.38 Y150.86 E13.44672
G1 X126.344 Y150.125 E13.58316
G1 X122.255 Y149.178 E13.72276
G1 X121.876 Y149.158 E13.73539
G1 X121.414 Y149.34 E13.7519
G1 X121.179 Y149.58 E13.76307
G1 X121.042 Y149.883 E13.77413
G1 X121.006 Y150.136 E13.78263
G1 X121.049 Y150.44 E13.79284
G1 X121.277 Y150.825 E13.80773
G1 X121.488 Y150.991 E13.81666
G1 X121.714 Y151.102 E13.82503
G1 X126.039 Y152.083 E13.97253
G1 X130.363 Y152.851 E14.1186
G1 X134.672 Y153.401 E14.26308
G1 X139.002 Y153.749 E14.40756
G1 X143.384 Y153.896 E14.55339
G1 X147.752 Y153.832 E14.69869
G1 X152.107 Y153.558 E14.84382
G1 X156.405 Y153.085 E14.98764
G1 X160.744 Y152.4 E15.13374
G1 X165.044 Y151.509 E15.2798
G1 X165.51 Y151.522 E15.2953
G1 X165.755 Y151.626 E15.30415
G1 X166.135 Y152.027 E15.32253
G1 X166.248 Y152.488 E15.33832
G1 X166.248 Y152 E15.35455
G1 X166.4 Y151.468 E15.37295
G1 X166.571 Y151.263 E15.38183
G1 X166.874 Y151.065 E15.39387
G1 X169.299 Y150.41 E15.47741
G1 X170.556 Y150.043 E15.52097
G1 X171.1 Y150.004 E15.53911
G1 X171.389 Y150.046 E15.54882
G1 X171.803 Y150.172 E15.56321
G1 X172.128 Y150.36 E15.5757
G1 X172.601 Y150.799 E15.59716
G1 X172.874 Y151.305 E15.61629
G1 X172.996 Y151.951 E15.63815
G1 X172.997 Y153.665 E15.69516
G1 F1126.8 X173.023 Y154.5 E15.72475
G1 F1052.6 X173.028 Y156.718 E15.80885
G1 F1032.3 X173.069 Y157.415 E15.83585
G1 F1106 X174.5 Y157.5 E15.88758
G1 F1023.5 X173.57 Y157.029 E15.92823
G1 F1500 E9.42823
G1 F600 Z0.3
G0 F1800 X166.248 Y155.748 Z0.3
G1 F600 Z0.2
G1 F1500 E15.92823
G1 F1200 X166.248 Y152.488 E16.03666
G1 F1500 E9.53666
G1 F600 Z0.3
G0 F1800 X173.978 Y156.797 Z0.3
G1 F600 Z0.2
G1 F1500 E16.03666
G1 F1200 X173.9 Y156.579 E16.04436
G1 X173.9 Y154.5 E16.11351
G1 X174.019 Y154.139 E16.12615
G1 X174.269 Y153.946 E16.13666
G1 X174.5 Y153.9 E16.14449
G1 X181.399 Y153.9 E16.37395
G1 X181.396 Y145.354 E16.65819
G1 X181.312 Y145.022 E16.66958
G1 X181.078 Y144.612 E16.68529
G1 X180.883 Y144.42 E16.69439
G1 X180.501 Y144.196 E16.70912
G1 X180.263 Y144.128 E16.71735
G1 X179.896 Y144.107 E16.72958
G1 X179.584 Y144.158 E16.74009
G1 X175.569 Y145.794 E16.88429
G1 X171.665 Y147.178 E17.02206
G1 X167.661 Y148.384 E17.16114
G1 X163.631 Y149.393 E17.29931
G1 X159.547 Y150.214 E17.43787
G1 X155.406 Y150.845 E17.57719
G1 X151.279 Y151.272 E17.71518
G1 X147.098 Y151.508 E17.85447
G1 X142.952 Y151.544 E17.99237
G1 X138.793 Y151.382 E18.1308
G1 X134.616 Y151.027 E18.27023
G1 X130.452 Y150.467 E18.40997
G1 X126.388 Y149.725 E18.54738
G1 X122.311 Y148.781 E18.68656
G1 X121.846 Y148.756 E18.70205
G1 X121.605 Y148.806 E18.71024
G1 X121.196 Y149.001 E18.72531
G1 X120.835 Y149.369 E18.74246
G1 X120.654 Y149.77 E18.75709
G1 X120.604 Y150.122 E18.76891
G1 X120.671 Y150.577 E18.78421
G1 X120.831 Y150.909 E18.79647
G1 X120.994 Y151.111 E18.8051
G1 X121.274 Y151.332 E18.81697
G1 X121.58 Y151.482 E18.8283
G1 X125.96 Y152.475 E18.97768
G1 X130.303 Y153.246 E19.12438
G1 X134.631 Y153.799 E19.2695
G1 X138.979 Y154.148 E19.41458
G1 X143.358 Y154.296 E19.56031
G1 X147.777 Y154.231 E19.70731
G1 X152.12 Y153.958 E19.85204
G1 X156.436 Y153.485 E19.99645
G1 X160.848 Y152.787 E20.14502
G1 X165.126 Y151.9 E20.29033
G1 X165.405 Y151.908 E20.29962
G1 X165.552 Y151.97 E20.30492
G1 X165.781 Y152.211 E20.31598
G1 X165.848 Y152.488 E20.32546
G1 X165.848 Y156.148 E20.44719
G1 X166.648 Y156.148 E20.4738
G1 X166.648 Y152 E20.61176
G1 X166.739 Y151.68 E20.62283
G1 X167.021 Y151.439 E20.63516
G1 X169.411 Y150.794 E20.7175
G1 X170.668 Y150.427 E20.76105
G1 X171.1 Y150.404 E20.77544
G1 X171.671 Y150.549 E20.79504
G1 X171.866 Y150.662 E20.80253
G1 X172.282 Y151.041 E20.82125
G1 X172.507 Y151.465 E20.83721
G1 X172.596 Y151.951 E20.85365
G1 X172.6 Y157.9 E21.05151
G1 X181.4 Y157.9 E21.3442
G1 X181.4 Y157.1 E21.37081
G1 X174.5 Y157.1 E21.6003
G1 X173.978 Y156.797 E21.62038
G0 F1800 X174.5 Y156.7
;TYPE:WALL-OUTER
G1 F1200 X174.303 Y156.586 E21.62795
G1 X174.3 Y154.5 E21.69733
G1 X174.339 Y154.379 E21.70156
G1 X174.443 Y154.3 E21.7059
G1 X181.799 Y154.3 E21.95056
G1 X181.796 Y145.305 E22.24974
G1 X181.69 Y144.885 E22.26415
G1 X181.535 Y144.563 E22.27603
G1 X181.129 Y144.1 E22.29651
G1 X180.66 Y143.826 E22.31458
G1 X180.33 Y143.731 E22.326
G1 X179.875 Y143.705 E22.34116
G1 X179.475 Y143.77 E22.35464
G1 X175.435 Y145.417 E22.49975
G1 X171.522 Y146.804 E22.63783
G1 X167.557 Y147.998 E22.77555
G1 X163.552 Y149.001 E22.91287
G1 X159.487 Y149.818 E23.05078
G1 X155.365 Y150.447 E23.18946
G1 X151.256 Y150.872 E23.32686
G1 X147.094 Y151.108 E23.46551
G1 X142.968 Y151.144 E23.60275
G1 X138.827 Y150.984 E23.74058
G1 X134.669 Y150.631 E23.87937
G1 X130.524 Y150.073 E24.01848
G1 X126.478 Y149.335 E24.15527
G1 X122.367 Y148.383 E24.29562
G1 X121.816 Y148.354 E24.31397
G1 X121.477 Y148.424 E24.32549
G1 X120.978 Y148.662 E24.34387
G1 X120.712 Y148.885 E24.35542
G1 X120.492 Y149.158 E24.36708
G1 X120.266 Y149.657 E24.3853
G1 X120.202 Y150.108 E24.40045
G1 X120.227 Y150.451 E24.41189
G1 X120.293 Y150.715 E24.42094
G1 X120.491 Y151.124 E24.43605
G1 X120.71 Y151.397 E24.44769
G1 X121.06 Y151.673 E24.46252
G1 X121.447 Y151.862 E24.47684
G1 X125.88 Y152.867 E24.62803
G1 X130.243 Y153.642 E24.77541
G1 X134.589 Y154.197 E24.92114
G1 X138.956 Y154.548 E25.06685
G1 X143.354 Y154.696 E25.21321
G1 X147.76 Y154.632 E25.35977
G1 X152.194 Y154.353 E25.50754
G1 X156.446 Y153.887 E25.64981
G1 X160.888 Y153.187 E25.79937
G1 X165.207 Y152.292 E25.94608
G1 X165.35 Y152.315 E25.95089
G1 X165.448 Y152.418 E25.95562
G1 X165.448 Y156.136 E26.07928
G1 X165.32 Y156.324 E26.08685
G1 X165.06 Y156.336 E26.0955
G1 X165.32 Y156.548 E26.10666
G1 X167.048 Y156.548 E26.16414
G1 X167.048 Y152 E26.3154
G1 X167.078 Y151.893 E26.3191
G1 X167.166 Y151.817 E26.32297
G1 X169.523 Y151.178 E26.40419
G1 X170.78 Y150.811 E26.44774
G1 X171.158 Y150.812 E26.46032
G1 X171.539 Y150.927 E26.47355
G1 X171.936 Y151.252 E26.49062
G1 X172.14 Y151.624 E26.50473
G1 X172.194 Y151.92 E26.51474
G1 X172.2 Y158.3 E26.72694
G1 X181.8 Y158.3 E27.04623
G1 X181.8 Y156.7 E27.09945
G1 X174.5 Y156.7 E27.34225
G0 F1800 X174.328 Y156.6
G1 F1500 E20.84225
G1 F600 Z0.3
G0 F1800 X174.466 Y153.123 Z0.3
;TYPE:SKIN
G1 F600 Z0.2
G1 F1500 E27.34225
G1 F1200 X173.921 Y153.25 E27.36086
G1 X173.379 Y153.68 E27.38387
G1 X173.375 Y151.918 E27.44248
G1 X173.313 Y151.456 E27.45798
G1 X173.224 Y151.156 E27.46839
G1 X172.904 Y150.566 E27.49071
G1 X172.341 Y150.046 E27.5162
G1 X171.961 Y149.826 E27.53081
G1 X171.503 Y149.68 E27.54679
G1 X171.128 Y149.625 E27.5594
G1 X170.444 Y149.679 E27.58222
G1 X169.194 Y150.042 E27.62551
G1 X166.722 Y150.713 E27.71071
G1 X166.313 Y150.984 E27.72703
G1 X166.095 Y151.238 E27.73816
G1 X166.035 Y151.382 E27.74335
G1 X165.918 Y151.283 E27.74845
G1 X165.609 Y151.154 E27.75958
G1 X164.963 Y151.136 E27.78108
G1 X160.686 Y152.024 E27.92637
G1 X156.31 Y152.712 E28.0737
G1 X152.079 Y153.176 E28.21527
G1 X147.741 Y153.451 E28.35984
G1 X143.396 Y153.516 E28.50437
G1 X139.024 Y153.368 E28.64987
G1 X134.713 Y153.021 E28.79371
G1 X130.471 Y152.482 E28.93594
G1 X126.149 Y151.713 E29.08195
G1 X121.834 Y150.737 E29.22909
G1 X121.699 Y150.673 E29.23406
G1 X121.493 Y150.476 E29.24354
G1 X121.414 Y150.313 E29.24956
G1 X121.411 Y149.984 E29.26051
G1 X121.5 Y149.787 E29.2677
G1 X121.622 Y149.663 E29.27348
G1 X121.922 Y149.542 E29.28424
G1 X122.2 Y149.556 E29.2935
G1 X126.272 Y150.498 E29.43251
G1 X130.308 Y151.233 E29.56896
G1 X134.565 Y151.807 E29.71183
G1 X138.783 Y152.164 E29.85262
G1 X142.92 Y152.324 E29.99032
G1 X147.098 Y152.288 E30.12929
G1 X151.32 Y152.048 E30.26994
G1 X155.489 Y151.619 E30.40933
G1 X159.667 Y150.982 E30.5499
G1 X163.84 Y150.144 E30.69146
G1 X167.857 Y149.139 E30.82919
G1 X171.886 Y147.924 E30.96915
G1 X175.831 Y146.529 E31.10833
G1 X179.803 Y144.911 E31.25098
G1 X180.203 Y144.926 E31.26429
G1 X180.398 Y145.037 E31.27175
G1 X180.512 Y145.171 E31.2776
G1 X180.616 Y145.456 E31.28769
G1 X180.616 Y153.12 E31.5426
G1 X174.466 Y153.123 E31.74715
G1 F1500 E25.24715
G1 F600 Z0.3
G0 F1800 X179.684 Y145.177 Z0.3
G1 F600 Z0.2
G1 F1500 E31.74715
G1 F1200 X180.416 Y145.909 E31.78158
G0 F1800 X180.416 Y146.475
G1 F1200 X179.282 Y145.341 E31.83492
G0 F1800 X178.88 Y145.504
G1 F1200 X180.416 Y147.041 E31.90719
G0 F1800 X180.416 Y147.606
G1 F1200 X178.478 Y145.668 E31.99835
G0 F1800 X178.076 Y145.832
G1 F1200 X180.416 Y148.172 E32.10842
G0 F1800 X180.416 Y148.738
G1 F1200 X177.674 Y145.996 E32.23739
G0 F1800 X177.272 Y146.159
G1 F1200 X180.416 Y149.303 E32.38528
