;FLAVOR:Marlin
;TIME:2416
;Filament used: 1.9951m
;Layer height: 0.2
;MINX:116.395
;MINY:139.9
;MINZ:0.2
;MAXX:185.601
;MAXY:162.085
;MAXZ:20.1
;TARGET_MACHINE.NAME:Anycubic Kobra Plus
;Generated with Cura_SteamEngine 5.9.0
M140 S70
M105
M190 S70
M104 S195
M105
M109 S195
M82 ;absolute extrusion mode
G28 ;Home
G1 Z15.0 F6000 ;Move the platform down 15mm
;Prime the extruder
G92 E0
M355 S1; Turn LED on
; Add Custom purge lines
G1 Z2.0 F3000 ; Move Z Axis up little to prevent scratching of Heat Bed
G1 X1.0 Y30 Z0.3 F5000.0 ; Move to start position
G1 X1.0 Y100.0 Z0.3 F1500.0 E15 ; Draw the first line
G1 X1.3 Y100.0 Z0.3 F5000.0 ; Move to side a little
G1 X1.3 Y30 Z0.3 F1500.0 E30 ; Draw the second line
G92 E0 ; Reset Extruder
G1 E-2 F500 ; Retract a little 
G1 X50 F500 ; wipe away from the filament line
G1 X100 F9000 ; Quickly wipe away from the filament line
G1 Z5.0 F3000 ; Move Z Axis up little to prevent scratching of Heat Bed
; End custom purge lines
G92 E0
G92 E0
G1 F1500 E-6.5
;LAYER_COUNT:100
;LAYER:0
M107
G1 F600 Z0.3
G0 F1800 X181.494 Y161.892 Z0.3
;TYPE:SKIRT
G1 F600 Z0.2
G1 F1500 E0
G1 F1200 X180.465 Y162.077 E0.03477
G1 X179.579 Y162.085 E0.06424
G1 X178.72 Y161.93 E0.09327
G1 X178.131 Y161.767 E0.1136
G1 X175.861 Y160.921 E0.19417
G1 X173.276 Y160.031 E0.28511
G1 X170.678 Y159.218 E0.37565
G1 X168.055 Y158.478 E0.46629
G1 X165.36 Y157.802 E0.55871
G1 X162.716 Y157.216 E0.64878
G1 X160.059 Y156.705 E0.73877
G1 X157.385 Y156.269 E0.82888
G1 X154.647 Y155.902 E0.92077
G1 X151.98 Y155.621 E1.00996
G1 X149.217 Y155.408 E1.10213
G1 X146.502 Y155.276 E1.19254
G1 X143.799 Y155.221 E1.28246
G1 X141.062 Y155.244 E1.3735
G1 X138.316 Y155.343 E1.46489
G1 X135.613 Y155.518 E1.55498
G1 X132.928 Y155.769 E1.64467
G1 X130.168 Y156.105 E1.73715
G1 X127.515 Y156.505 E1.82638
G1 X124.774 Y156.997 E1.91901
G1 X123.035 Y157.351 E1.97803
G1 X122.216 Y157.43 E2.0054
G1 X121.652 Y157.434 E2.02416
G1 X120.95 Y157.339 E2.04772
G1 X120.11 Y157.129 E2.07652
G1 X119.283 Y156.739 E2.10693
G1 X118.521 Y156.228 E2.13744
G1 X117.875 Y155.652 E2.16623
G1 X117.198 Y154.746 E2.20385
G1 X116.775 Y153.865 E2.23635
G1 X116.495 Y152.856 E2.27118
G1 X116.395 Y151.889 E2.30351
G1 X116.508 Y150.794 E2.34013
G1 X116.729 Y150.02 E2.3669
G1 X117.041 Y149.283 E2.39352
G1 X117.377 Y148.731 E2.41501
G1 X117.735 Y148.258 E2.43474
G1 X118.238 Y147.73 E2.459
G1 X118.604 Y147.425 E2.47484
G1 X119.256 Y147 E2.50073
G1 X119.824 Y146.717 E2.52184
G1 X120.528 Y146.459 E2.54677
G1 X121.026 Y146.335 E2.56384
G1 X124.869 Y145.47 E2.69486
G1 X126.278 Y145.202 E2.74256
G1 X128.879 Y144.741 E2.83042
G1 X129.927 Y144.571 E2.86573
G1 X133.378 Y144.124 E2.98147
G1 X134.497 Y143.999 E3.01892
G1 X137.976 Y143.716 E3.13502
G1 X139.051 Y143.646 E3.17085
G1 X142.55 Y143.528 E3.28729
G1 X143.572 Y143.509 E3.32129
G1 X146.588 Y143.513 E3.4216
G1 X149.339 Y143.438 E3.51313
G1 X152.031 Y143.288 E3.60281
G1 X154.779 Y143.058 E3.69453
G1 X157.484 Y142.753 E3.78507
G1 X160.148 Y142.377 E3.87455
G1 X162.858 Y141.915 E3.96598
G1 X165.517 Y141.386 E4.05616
G1 X168.189 Y140.773 E4.14734
G1 X169.746 Y140.37 E4.20083
G1 X169.84 Y140.353 E4.20401
G1 X171.135 Y140.018 E4.2485
G1 X171.976 Y139.901 E4.27674
G1 X181.345 Y139.9 E4.58835
G1 X182.043 Y139.91 E4.61157
G1 X182.64 Y139.97 E4.63153
G1 X183.19 Y140.116 E4.65045
G1 X183.654 Y140.318 E4.66728
G1 X184.135 Y140.62 E4.68617
G1 X184.608 Y141.039 E4.70719
G1 X184.963 Y141.481 E4.72605
G1 X185.246 Y141.975 E4.74498
G1 X185.447 Y142.506 E4.76387
G1 X185.562 Y143.052 E4.78242
G1 X185.601 Y143.552 E4.7991
G1 X185.593 Y146.927 E4.91136
G1 X185.6 Y147.852 E4.94212
G1 X185.597 Y156.109 E5.21675
G1 X185.586 Y156.784 E5.23921
G1 X185.476 Y157.609 E5.26689
G1 X185.363 Y158.055 E5.28219
G1 X185.046 Y158.92 E5.31283
G1 X184.561 Y159.741 E5.34455
G1 X183.92 Y160.493 E5.37741
G1 X183.072 Y161.184 E5.4138
G1 X182.223 Y161.627 E5.44565
G1 X181.494 Y161.892 E5.47145
G0 F1800 X181.421 Y161.499
G1 F1200 X180.461 Y161.677 E5.50392
G1 X179.614 Y161.685 E5.53209
G1 X178.826 Y161.544 E5.55872
G1 X178.271 Y161.392 E5.57786
G1 X176.001 Y160.546 E5.65843
G1 X173.395 Y159.649 E5.7501
G1 X170.787 Y158.833 E5.84099
G1 X168.164 Y158.093 E5.93163
G1 X165.447 Y157.411 E6.0248
G1 X162.803 Y156.825 E6.11488
G1 X160.135 Y156.312 E6.20524
G1 X157.449 Y155.874 E6.29576
G1 X154.689 Y155.504 E6.38838
G1 X152.017 Y155.222 E6.47774
G1 X149.236 Y155.008 E6.57051
G1 X146.521 Y154.876 E6.66092
G1 X143.804 Y154.821 E6.75131
G1 X141.048 Y154.844 E6.84297
G1 X138.302 Y154.943 E6.93437
G1 X135.587 Y155.119 E7.02486
G1 X132.88 Y155.372 E7.11528
G1 X130.108 Y155.709 E7.20816
G1 X127.455 Y156.109 E7.2974
G1 X124.703 Y156.603 E7.39039
G1 X122.955 Y156.959 E7.44972
G1 X122.21 Y157.03 E7.47462
G1 X121.704 Y157.037 E7.49145
G1 X121.047 Y156.951 E7.51348
G1 X120.247 Y156.751 E7.54091
G1 X119.454 Y156.377 E7.57007
G1 X118.787 Y155.929 E7.5968
G1 X118.168 Y155.377 E7.62438
G1 X117.544 Y154.542 E7.65905
G1 X117.136 Y153.692 E7.69041
G1 X116.893 Y152.815 E7.72068
G1 X116.797 Y151.888 E7.75168
G1 X116.893 Y150.902 E7.78463
G1 X117.098 Y150.174 E7.80978
G1 X117.383 Y149.491 E7.8344
G1 X117.719 Y148.939 E7.85589
G1 X118.025 Y148.534 E7.87277
G1 X118.528 Y148.006 E7.89703
G1 X118.824 Y147.759 E7.90985
G1 X119.436 Y147.357 E7.9342
G1 X119.963 Y147.092 E7.95382
G1 X120.625 Y146.847 E7.9773
G1 X121.114 Y146.725 E7.99406
G1 X124.944 Y145.863 E8.12464
G1 X126.348 Y145.596 E8.17217
G1 X128.943 Y145.136 E8.25983
G1 X129.978 Y144.968 E8.2947
G1 X133.423 Y144.522 E8.41024
G1 X134.529 Y144.398 E8.44726
G1 X138.002 Y144.115 E8.56315
G1 X139.065 Y144.046 E8.59858
G1 X142.558 Y143.928 E8.71482
G1 X143.571 Y143.909 E8.74852
G1 X146.598 Y143.913 E8.8492
G1 X149.35 Y143.838 E8.94077
G1 X152.065 Y143.687 E9.03121
G1 X154.813 Y143.456 E9.12293
G1 X157.54 Y143.149 E9.2142
G1 X160.204 Y142.773 E9.30369
G1 X162.932 Y142.308 E9.39573
G1 X165.606 Y141.776 E9.48641
G1 X168.278 Y141.163 E9.57759
G1 X169.816 Y140.764 E9.63044
G1 X169.923 Y140.745 E9.63405
G1 X171.192 Y140.414 E9.67767
G1 X171.976 Y140.301 E9.70402
G1 X181.339 Y140.3 E10.01543
G1 X182.037 Y140.31 E10.03865
G1 X182.54 Y140.357 E10.05545
G1 X183.03 Y140.483 E10.07228
G1 X183.494 Y140.685 E10.08911
G1 X183.92 Y140.957 E10.10592
G1 X184.298 Y141.292 E10.12272
G1 X184.618 Y141.683 E10.13952
G1 X184.873 Y142.12 E10.15635
G1 X185.056 Y142.591 E10.17316
G1 X185.163 Y143.085 E10.18997
G1 X185.201 Y143.551 E10.20552
G1 X185.193 Y146.926 E10.31777
G1 X185.2 Y147.852 E10.34857
G1 X185.197 Y156.102 E10.62297
G1 X185.186 Y156.777 E10.64542
G1 X185.088 Y157.511 E10.67005
G1 X184.975 Y157.957 E10.68536
G1 X184.7 Y158.719 E10.7123
G1 X184.255 Y159.484 E10.74174
G1 X183.667 Y160.183 E10.77212
G1 X182.85 Y160.849 E10.80718
G1 X182.083 Y161.252 E10.83599
G1 X181.421 Y161.499 E10.85949
G1 F1500 E4.35949
G1 F600 Z0.3
;MESH:Case_1-Clip.stl
G0 F1800 X181 Y144.5 Z0.3
;TYPE:WALL-INNER
G1 F600 Z0.2
G1 F1500 E10.85949
G1 F1200 X174.5 Y144.5 E11.07568
G1 F1176.5 X174.326 Y144.507 E11.08159
G1 F1500 E4.58159
G1 F600 Z0.3
G0 F1800 X166.248 Y146.248 Z0.3
G1 F600 Z0.2
G1 F1500 E11.08159
G1 F1200 X166.248 Y149.512 E11.19015
G1 F1179.4 X166.241 Y149.686 E11.19605
G1 F1500 E4.69605
G1 F600 Z0.3
G0 F1800 X166.571 Y150.737 Z0.3
G1 F600 Z0.2
G1 F1500 E11.19605
G1 F1200 X166.401 Y150.532 E11.2049
G1 F1197 X166.247 Y150 E11.22337
G1 F1176.5 X166.241 Y149.686 E11.23403
G1 X166.136 Y149.973 E11.24439
G1 F1197 X165.756 Y150.374 E11.26281
G1 F1200 X165.51 Y150.478 E11.2717
G1 X165.148 Y150.513 E11.28379
G1 X160.743 Y149.596 E11.43345
G1 X156.36 Y148.901 E11.58105
G1 X152.086 Y148.437 E11.72403
G1 X147.729 Y148.164 E11.86923
G1 X143.339 Y148.101 E12.01526
G1 X138.979 Y148.248 E12.16036
G1 X134.649 Y148.599 E12.30485
G1 X130.363 Y149.149 E12.44857
G1 X126.038 Y149.917 E12.59467
G1 X121.723 Y150.893 E12.74181
G1 X121.435 Y151.038 E12.75254
G1 X121.133 Y151.368 E12.76741
G1 X121.01 Y151.731 E12.78016
G1 X121.006 Y151.931 E12.78681
G1 X121.083 Y152.251 E12.79776
G1 X121.186 Y152.431 E12.80466
G1 X121.458 Y152.685 E12.81704
G1 X121.777 Y152.821 E12.82857
G1 X122.246 Y152.821 E12.84417
G1 X126.278 Y151.889 E12.98181
G1 X130.36 Y151.144 E13.11982
G1 X134.634 Y150.567 E13.26327
G1 X138.785 Y150.212 E13.40183
G1 X142.917 Y150.052 E13.53937
G1 X147.148 Y150.093 E13.6801
G1 X151.328 Y150.329 E13.81934
G1 X155.495 Y150.763 E13.95869
G1 X159.634 Y151.391 E14.09793
G1 X163.676 Y152.204 E14.23506
G1 X167.751 Y153.223 E14.37477
G1 X171.816 Y154.451 E14.516
G1 X175.729 Y155.837 E14.65407
G1 X179.666 Y157.436 E14.79541
G1 X180.152 Y157.481 E14.81164
G1 X180.476 Y157.369 E14.82304
G1 X180.622 Y157.272 E14.82887
G1 X180.845 Y157.023 E14.83999
G1 X180.996 Y156.592 E14.85518
G1 X180.999 Y148.501 E15.12429
G1 X174.5 Y148.5 E15.34045
G1 X174.114 Y148.423 E15.35354
G1 X173.699 Y148.101 E15.37101
G1 F1121.5 X173.475 Y147.66 E15.38861
G1 F1057.3 X173.475 Y145.5 E15.47015
G1 F971.7 X173.57 Y144.971 E15.49223
G1 F1006.3 X174.326 Y144.507 E15.52741
G1 F1100.9 X173.086 Y144.585 E15.57245
G1 F1059.6 X173.024 Y145.5 E15.607
G1 F1052.6 X173.027 Y147.717 E15.69106
G1 F1113.7 X172.997 Y148.335 E15.71323
G1 F1200 X172.996 Y150.141 E15.7733
G1 X172.948 Y150.449 E15.78367
G1 X172.833 Y150.795 E15.79579
G1 X172.617 Y151.168 E15.81013
G1 X172.415 Y151.399 E15.82034
G1 X172.119 Y151.647 E15.83318
G1 X171.813 Y151.822 E15.84491
G1 X171.242 Y151.98 E15.86461
G1 X170.686 Y151.991 E15.88311
G1 X169.285 Y151.585 E15.93162
G1 X168.141 Y151.269 E15.9711
G1 X166.994 Y150.968 E16.01054
G1 X166.571 Y150.737 E16.02657
G0 F1800 X166.841 Y150.442
G1 F1200 X166.739 Y150.319 E16.03188
G1 X166.648 Y150 E16.04292
G1 X166.648 Y145.848 E16.18101
G1 X165.848 Y145.848 E16.20762
G1 X165.848 Y149.593 E16.33218
G1 X165.781 Y149.789 E16.33907
G1 X165.553 Y150.03 E16.3501
G1 X165.405 Y150.092 E16.35544
G1 X165.205 Y150.111 E16.36212
G1 X160.815 Y149.203 E16.51122
G1 X156.436 Y148.507 E16.6587
G1 X152.12 Y148.039 E16.80309
G1 X147.744 Y147.764 E16.94892
G1 X143.326 Y147.701 E17.09588
G1 X138.947 Y147.85 E17.24161
G1 X134.607 Y148.201 E17.38643
G1 X130.27 Y148.759 E17.53187
G1 X125.991 Y149.518 E17.67641
G1 X121.588 Y150.514 E17.82656
G1 X121.213 Y150.701 E17.84049
G1 X121.006 Y150.877 E17.84953
G1 X120.787 Y151.162 E17.86149
G1 X120.675 Y151.411 E17.87057
G1 X120.611 Y151.681 E17.8798
G1 X120.605 Y151.961 E17.88911
G1 X120.719 Y152.419 E17.90481
G1 X120.859 Y152.665 E17.91422
G1 X121.049 Y152.88 E17.92377
G1 X121.258 Y153.035 E17.93242
G1 X121.668 Y153.209 E17.94723
G1 X121.928 Y153.248 E17.95598
G1 X122.307 Y153.217 E17.96863
G1 X126.396 Y152.273 E18.1082
G1 X130.459 Y151.533 E18.24556
G1 X134.643 Y150.968 E18.38599
G1 X138.8 Y150.612 E18.52476
G1 X142.932 Y150.452 E18.66229
G1 X147.126 Y150.492 E18.80179
G1 X151.286 Y150.727 E18.94037
G1 X155.435 Y151.158 E19.07911
G1 X159.555 Y151.783 E19.21771
G1 X163.618 Y152.601 E19.35556
G1 X167.658 Y153.613 E19.49408
G1 X171.682 Y154.828 E19.63389
G1 X175.553 Y156.198 E19.77046
G1 X179.557 Y157.823 E19.91419
G1 X179.99 Y157.896 E19.92879
G1 X180.235 Y157.876 E19.93697
G1 X180.655 Y157.73 E19.95176
G1 X180.876 Y157.584 E19.96056
G1 X181.19 Y157.228 E19.97635
G1 X181.312 Y156.974 E19.98573
G1 X181.396 Y156.641 E19.99715
G1 X181.399 Y148.101 E20.28119
G1 X174.5 Y148.1 E20.51065
G1 X174.268 Y148.054 E20.51852
G1 X174.019 Y147.861 E20.529
G1 X173.9 Y147.583 E20.53905
G1 X173.9 Y145.5 E20.60833
G1 X173.978 Y145.203 E20.61855
G1 X174.407 Y144.9 E20.63602
G1 X181.4 Y144.9 E20.8686
G1 X181.4 Y144.1 E20.89521
G1 X172.6 Y144.1 E21.1879
G1 X172.596 Y150.141 E21.38883
G1 X172.462 Y150.647 E21.40624
G1 X172.279 Y150.954 E21.41812
G1 X171.862 Y151.34 E21.43702
G1 X171.678 Y151.445 E21.44407
G1 X171.224 Y151.58 E21.45982
G1 X170.749 Y151.593 E21.47563
G1 X169.392 Y151.2 E21.52262
G1 X168.243 Y150.882 E21.56227
G1 X167.095 Y150.581 E21.60174
G1 X166.841 Y150.442 E21.61137
G1 F1500 E15.11137
G1 F600 Z0.3
G0 F1800 X165.446 Y149.547 Z0.3
;TYPE:WALL-OUTER
G1 F600 Z0.2
G1 F1500 E21.61137
G1 F1200 X165.35 Y149.685 E21.61696
G1 X165.233 Y149.712 E21.62096
G1 X160.887 Y148.809 E21.76859
G1 X156.489 Y148.111 E21.9167
G1 X152.154 Y147.64 E22.06173
G1 X147.76 Y147.364 E22.20817
G1 X143.313 Y147.301 E22.35609
G1 X138.956 Y147.448 E22.50109
G1 X134.565 Y147.803 E22.64761
G1 X130.243 Y148.358 E22.79254
G1 X125.921 Y149.124 E22.93853
G1 X121.452 Y150.134 E23.09092
G1 X120.991 Y150.365 E23.10807
G1 X120.714 Y150.599 E23.12013
G1 X120.441 Y150.956 E23.13507
G1 X120.295 Y151.281 E23.14692
G1 X120.212 Y151.63 E23.15886
G1 X120.205 Y151.992 E23.1709
G1 X120.266 Y152.344 E23.18278
G1 X120.532 Y152.899 E23.20325
G1 X120.777 Y153.176 E23.21555
G1 X121.057 Y153.385 E23.22717
G1 X121.559 Y153.597 E23.2453
G1 X121.915 Y153.65 E23.25727
G1 X122.369 Y153.613 E23.27242
G1 X126.468 Y152.667 E23.41233
G1 X130.513 Y151.929 E23.54909
G1 X134.702 Y151.364 E23.68968
G1 X138.816 Y151.012 E23.82701
G1 X142.958 Y150.852 E23.96488
G1 X147.104 Y150.892 E24.10278
G1 X151.245 Y151.125 E24.24073
G1 X155.375 Y151.554 E24.37883
G1 X159.476 Y152.175 E24.51679
G1 X163.521 Y152.989 E24.65402
G1 X167.542 Y153.996 E24.79189
G1 X171.548 Y155.205 E24.93107
G1 X175.428 Y156.578 E25.06796
G1 X179.447 Y158.21 E25.21223
G1 X179.973 Y158.298 E25.22997
G1 X180.318 Y158.27 E25.24148
G1 X180.834 Y158.091 E25.25965
G1 X181.129 Y157.896 E25.27141
G1 X181.535 Y157.433 E25.29189
G1 X181.69 Y157.111 E25.30378
G1 X181.796 Y156.691 E25.31818
G1 X181.799 Y147.701 E25.61719
G1 X174.441 Y147.7 E25.86192
G1 X174.339 Y147.621 E25.86621
G1 X174.303 Y147.535 E25.86931
G1 X174.3 Y145.42 E25.93966
G1 X174.465 Y145.302 E25.9464
G1 X181.8 Y145.3 E26.19037
G1 X181.8 Y143.7 E26.24358
G1 X172.2 Y143.7 E26.56288
G1 X172.196 Y150.175 E26.77824
G1 X172.09 Y150.499 E26.78958
G1 X171.901 Y150.786 E26.80101
G1 X171.544 Y151.069 E26.81616
G1 X171.206 Y151.18 E26.82799
G1 X170.824 Y151.195 E26.84071
G1 X169.499 Y150.814 E26.88656
G1 X168.345 Y150.495 E26.92639
G1 X167.197 Y150.194 E26.96586
G1 X167.078 Y150.107 E26.97076
G1 X167.048 Y150 E26.97446
G1 X167.048 Y145.448 E27.12586
G1 X165.32 Y145.448 E27.18333
G1 X165.06 Y145.66 E27.19449
G1 X165.32 Y145.672 E27.20315
G1 X165.448 Y145.86 E27.21071
G1 X165.446 Y149.547 E27.33334
G0 F1800 X165.35 Y149.685
G0 X165.319 Y149.692
G1 F1500 E20.83334
G1 F600 Z0.3
G0 F1800 X171.945 Y152.179 Z0.3
;TYPE:SKIN
G1 F600 Z0.2
G1 F1500 E27.33334
G1 F1200 X172.361 Y151.938 E27.34933
G1 X172.657 Y151.69 E27.36218
G1 X172.942 Y151.361 E27.37665
G1 X173.186 Y150.935 E27.39298
G1 X173.314 Y150.54 E27.40679
G1 X173.374 Y150.168 E27.41932
G1 X173.381 Y148.33 E27.48046
G1 X173.921 Y148.747 E27.50315
G1 X174.464 Y148.877 E27.52172
G1 X180.616 Y148.88 E27.72634
G1 X180.616 Y156.537 E27.98101
G1 X180.516 Y156.814 E27.9908
G1 X180.29 Y157.024 E28.00106
G1 X180.005 Y157.106 E28.01093
G1 X179.776 Y157.066 E28.01866
G1 X175.819 Y155.466 E28.16062
G1 X171.891 Y154.075 E28.29922
G1 X167.854 Y152.856 E28.43948
G1 X163.761 Y151.834 E28.57979
G1 X159.66 Y151.008 E28.71893
G1 X155.554 Y150.386 E28.85705
G1 X151.317 Y149.945 E28.99874
G1 X147.164 Y149.712 E29.13708
G1 X142.91 Y149.672 E29.27858
G1 X138.772 Y149.832 E29.41631
G1 X134.546 Y150.192 E29.55738
G1 X130.317 Y150.765 E29.69932
G1 X126.196 Y151.515 E29.83864
G1 X122.192 Y152.44 E29.97532
G1 X121.864 Y152.443 E29.98623
G1 X121.66 Y152.357 E29.99359
G1 X121.437 Y152.106 E30.00476
G1 X121.393 Y151.773 E30.01593
G1 X121.465 Y151.564 E30.02328
G1 X121.656 Y151.35 E30.03282
G1 X121.848 Y151.254 E30.03996
G1 X126.082 Y150.296 E30.18435
G1 X130.451 Y149.522 E30.33192
G1 X134.66 Y148.981 E30.47307
G1 X138.995 Y148.629 E30.61772
G1 X143.333 Y148.481 E30.76209
G1 X147.708 Y148.544 E30.90762
G1 X152.018 Y148.815 E31.05125
G1 X156.281 Y149.271 E31.19385
G1 X160.638 Y149.964 E31.34059
G1 X165.113 Y150.892 E31.49259
G1 X165.609 Y150.842 E31.50917
G1 X165.917 Y150.718 E31.52022
G1 X166.035 Y150.617 E31.52538
G1 X166.095 Y150.758 E31.53048
G1 X166.313 Y151.012 E31.54161
G1 X166.855 Y151.316 E31.56228
G1 X169.183 Y151.952 E31.64255
G1 X170.628 Y152.367 E31.69255
G1 X171.3 Y152.35 E31.71491
G1 X171.945 Y152.179 E31.7371
G1 F1500 E25.2371
G1 F600 Z0.3
