;FLAVOR:Marlin
;TIME:4341
;Filament used: 4.4169m
;Layer height: 0.2
;MINX:106.2
;MINY:118.7
;MINZ:0.2
;MAXX:195.8
;MAXY:183.3
;MAXZ:12.1
;TARGET_MACHINE.NAME:Anycubic Kobra Plus
;Generated with Cura_SteamEngine 5.9.0
M140 S70
M105
M190 S70
M104 S195
M105
M109 S195
M82 ;absolute extrusion mode
G28 ;Home
G1 Z15.0 F6000 ;Move the platform down 15mm
;Prime the extruder
G92 E0
M355 S1; Turn LED on
; Add Custom purge lines
G1 Z2.0 F3000 ; Move Z Axis up little to prevent scratching of Heat Bed
G1 X1.0 Y30 Z0.3 F5000.0 ; Move to start position
G1 X1.0 Y100.0 Z0.3 F1500.0 E15 ; Draw the first line
G1 X1.3 Y100.0 Z0.3 F5000.0 ; Move to side a little
G1 X1.3 Y30 Z0.3 F1500.0 E30 ; Draw the second line
G92 E0 ; Reset Extruder
G1 E-2 F500 ; Retract a little 
G1 X50 F500 ; wipe away from the filament line
G1 X100 F9000 ; Quickly wipe away from the filament line
G1 Z5.0 F3000 ; Move Z Axis up little to prevent scratching of Heat Bed
; End custom purge lines
G92 E0
G92 E0
G1 F1500 E-6.5
;LAYER_COUNT:60
;LAYER:0
M107
G1 F600 Z0.3
G0 F1800 X187.726 Y179.731 Z0.3
;TYPE:SKIRT
G1 F600 Z0.2
G1 F1500 E0
G1 F1200 X187.074 Y179.808 E0.02184
G1 X186.284 Y179.819 E0.04811
G1 X115.65 Y179.82 E2.39741
G1 X114.965 Y179.81 E2.4202
G1 X114.425 Y179.756 E2.43825
G1 X113.563 Y179.582 E2.46749
G1 X112.903 Y179.375 E2.4905
G1 X112.139 Y179.02 E2.51852
G1 X111.708 Y178.755 E2.53535
G1 X111.068 Y178.171 E2.56417
G1 X110.74 Y177.786 E2.58099
G1 X110.486 Y177.373 E2.59711
G1 X110.134 Y176.619 E2.62479
G1 X109.883 Y175.819 E2.65268
G1 X109.746 Y175.093 E2.67725
G1 X109.692 Y174.558 E2.69514
G1 X109.681 Y173.779 E2.72105
G1 X109.678 Y162.511 E3.09582
G1 X109.69 Y161.723 E3.12203
G1 X109.805 Y160.559 E3.16094
G1 X110.037 Y157.818 E3.25243
G1 X110.191 Y155.1 E3.34298
G1 X110.268 Y152.35 E3.43448
G1 X110.268 Y149.631 E3.52491
G1 X110.189 Y146.877 E3.61655
G1 X110.033 Y144.131 E3.70803
G1 X109.802 Y141.415 E3.79869
G1 X109.693 Y140.295 E3.83612
G1 X109.68 Y139.563 E3.86047
G1 X109.679 Y128.153 E4.23996
G1 X109.689 Y127.476 E4.26248
G1 X109.751 Y126.899 E4.28178
G1 X109.904 Y126.13 E4.30786
G1 X110.121 Y125.411 E4.33284
G1 X110.485 Y124.632 E4.36144
G1 X110.75 Y124.202 E4.37824
G1 X111.309 Y123.587 E4.40588
G1 X111.692 Y123.258 E4.42268
G1 X112.288 Y122.914 E4.44556
G1 X112.981 Y122.608 E4.47076
G1 X113.554 Y122.417 E4.49085
G1 X114.39 Y122.247 E4.51922
G1 X114.935 Y122.192 E4.53744
G1 X115.668 Y122.181 E4.56183
G1 X186.35 Y122.181 E6.91272
G1 X187.033 Y122.191 E6.93544
G1 X187.608 Y122.252 E6.95467
G1 X188.315 Y122.392 E6.97864
G1 X188.926 Y122.578 E6.99988
G1 X189.618 Y122.867 E7.02483
G1 X190.068 Y123.098 E7.04165
G1 X190.747 Y123.628 E7.0703
G1 X191.234 Y124.182 E7.09483
G1 X191.505 Y124.612 E7.11174
G1 X191.827 Y125.287 E7.13661
G1 X192.105 Y126.152 E7.16683
G1 X192.247 Y126.861 E7.19088
G1 X192.309 Y127.439 E7.21022
G1 X192.319 Y128.085 E7.2317
G1 X192.319 Y173.848 E8.75379
G1 X192.309 Y174.545 E8.77697
G1 X192.247 Y175.127 E8.79644
G1 X192.103 Y175.846 E8.82083
G1 X191.886 Y176.566 E8.84584
G1 X191.532 Y177.338 E8.87409
G1 X191.27 Y177.771 E8.89092
G1 X190.701 Y178.404 E8.91923
G1 X190.319 Y178.735 E8.93604
G1 X189.721 Y179.082 E8.95904
G1 X189.101 Y179.358 E8.98161
G1 X188.499 Y179.558 E9.00271
G1 X187.726 Y179.731 E9.02905
G1 F1500 E2.52905
G1 F600 Z0.3
;MESH:Case_1-Top Case.stl
G0 F1800 X186.356 Y173.744 Z0.3
;TYPE:WALL-INNER
G1 F600 Z0.2
G1 F1500 E9.02905
G1 F727.3 X186.315 Y173.673 E9.03355
G1 X186.233 Y173.673 E9.03805
G1 X186.192 Y173.744 E9.04255
G1 X186.233 Y173.815 E9.04705
G1 X186.315 Y173.815 E9.05155
G1 X186.356 Y173.744 E9.05605
G1 F1500 E2.55605
G1 F600 Z0.3
G0 F1800 X173.333 Y172.967 Z0.3
G1 F600 Z0.2
G1 F1500 E9.05605
G1 F1200 X173.549 Y172.713 E9.06714
G1 X173.805 Y172.557 E9.07711
G1 X174.105 Y172.483 E9.08739
G1 X180.281 Y172.483 E9.2928
G1 X180.647 Y172.588 E9.30547
G1 X180.906 Y172.779 E9.31617
G1 X181.286 Y173.165 E9.33419
G1 X181.481 Y173.293 E9.34194
G1 X181.867 Y173.436 E9.35564
G1 X182.16 Y173.47 E9.36545
G1 X182.562 Y173.426 E9.3789
G1 X182.847 Y173.324 E9.38896
G1 X183.265 Y173.016 E9.40623
G1 X183.537 Y172.622 E9.42216
G1 X183.658 Y172.278 E9.43429
G1 X183.686 Y172.011 E9.44322
G1 X183.646 Y171.625 E9.45612
G1 X183.552 Y171.358 E9.46554
G1 X183.403 Y171.104 E9.47533
G1 X183.205 Y170.881 E9.48525
G1 X182.982 Y170.711 E9.49458
G1 X182.451 Y170.505 E9.51352
G1 X182.045 Y170.492 E9.52703
G1 X181.506 Y170.651 E9.54572
G1 X181.188 Y170.874 E9.55864
G1 X180.908 Y171.183 E9.57251
G1 X180.648 Y171.373 E9.58322
G1 X180.282 Y171.477 E9.59588
G1 X174.105 Y171.477 E9.80132
G1 X173.805 Y171.403 E9.8116
G1 X173.549 Y171.247 E9.82157
G1 X173.409 Y171.103 E9.82825
G1 X173.25 Y170.817 E9.83913
G1 X173.09 Y170.329 E9.85622
G1 X173.096 Y169.667 E9.87824
G1 X173.171 Y169.329 E9.88975
G1 X173.378 Y168.898 E9.90565
G1 X173.519 Y168.739 E9.91272
G1 X173.832 Y168.546 E9.92495
G1 X174.12 Y168.482 E9.93476
G1 X179.86 Y168.48 E10.12568
G1 X179.99 Y168.398 E10.13079
G1 X180.806 Y167.98 E10.16128
G1 X181.842 Y167.745 E10.19662
G1 X182.646 Y167.744 E10.22336
G1 X183.173 Y167.828 E10.24111
G1 X183.882 Y168.04 E10.26572
G1 X184.615 Y168.429 E10.29332
G1 X185.184 Y168.889 E10.31766
G1 X185.672 Y169.423 E10.34172
G1 X186.117 Y170.153 E10.37015
G1 X186.404 Y171.014 E10.40034
G1 X186.404 Y156.754 E10.87463
G1 F1218.3 X186.414 Y155.829 E10.90493
G1 X186.067 Y156.807 E10.93893
G1 F1200 X185.587 Y157.548 E10.9683
G1 X184.841 Y158.27 E11.00283
G1 X183.944 Y158.79 E11.03731
G1 X183.21 Y159.019 E11.06288
G1 X182.671 Y159.114 E11.08109
G1 X181.686 Y159.091 E11.11386
G1 X181.015 Y158.944 E11.1367
G1 X180.343 Y158.664 E11.16092
G1 X179.889 Y158.38 E11.17873
G1 X174.12 Y158.378 E11.37061
G1 X173.806 Y158.303 E11.38134
G1 X173.469 Y158.072 E11.39493
G1 X173.285 Y157.803 E11.40577
G1 X173.114 Y157.331 E11.42247
G1 X173.078 Y157.119 E11.42962
G1 X173.102 Y156.409 E11.45325
G1 X173.321 Y155.888 E11.47205
G1 X173.429 Y155.733 E11.47833
G1 X173.683 Y155.518 E11.4894
G1 X174.105 Y155.383 E11.50414
G1 X180.192 Y155.38 E11.70659
G1 X180.65 Y155.49 E11.72226
G1 X180.913 Y155.686 E11.73317
G1 X181.249 Y156.034 E11.74925
G1 X181.567 Y156.231 E11.7617
G1 X181.927 Y156.344 E11.77425
G1 X182.322 Y156.367 E11.78741
G1 X182.819 Y156.238 E11.80448
G1 X183.155 Y156.02 E11.81781
G1 X183.416 Y155.727 E11.83086
G1 X183.624 Y155.298 E11.84671
G1 X183.688 Y154.95 E11.85848
G1 X183.631 Y154.461 E11.87486
G1 X183.399 Y153.991 E11.89229
G1 X183.033 Y153.641 E11.90913
G1 X182.665 Y153.463 E11.92273
G1 X182.291 Y153.387 E11.93542
G1 X181.813 Y153.431 E11.95139
G1 X181.275 Y153.702 E11.97142
G1 X180.909 Y154.078 E11.98888
G1 X180.65 Y154.27 E11.9996
G1 X180.192 Y154.38 E12.01527
G1 X174.105 Y154.377 E12.21772
G1 X173.683 Y154.242 E12.23246
G1 X173.429 Y154.027 E12.24353
G1 X173.17 Y153.533 E12.26208
G1 X173.095 Y153.232 E12.2724
G1 X173.077 Y152.533 E12.29565
G1 X173.29 Y151.947 E12.31639
G1 X173.474 Y151.683 E12.32709
G1 X173.645 Y151.542 E12.33446
G1 X173.857 Y151.437 E12.34233
G1 X174.098 Y151.384 E12.35054
G1 X179.886 Y151.38 E12.54305
G1 X180.345 Y151.091 E12.56109
G1 X181.042 Y150.809 E12.5861
G1 X181.883 Y150.639 E12.61464
G1 X182.712 Y150.645 E12.64221
G1 X183.541 Y150.818 E12.67038
G1 X184.3 Y151.142 E12.69782
G1 X184.843 Y151.49 E12.71927
G1 X185.457 Y152.057 E12.74707
G1 X185.893 Y152.664 E12.77193
G1 X186.152 Y153.131 E12.78969
G1 X186.404 Y153.884 E12.8161
G1 X186.404 Y128.23 E13.66936
G1 X186.311 Y128.113 E13.67433
G1 X115.685 Y128.113 E16.02336
G1 X115.612 Y128.199 E16.02711
G1 X115.591 Y139.186 E16.39254
G1 X116.468 Y139.436 E16.42287
G1 X117.306 Y139.831 E16.45368
G1 X117.885 Y140.179 E16.47615
G1 X118.377 Y140.537 E16.49639
G1 X118.936 Y141.033 E16.52125
G1 X119.411 Y141.561 E16.54487
G1 X119.824 Y142.118 E16.56793
G1 X120.182 Y142.718 E16.59117
G1 X120.475 Y143.341 E16.61407
G1 X120.701 Y143.99 E16.63692
G1 X120.864 Y144.639 E16.65918
G1 X120.998 Y145.513 E16.68859
G1 X120.998 Y156.463 E17.05279
G1 X120.869 Y157.328 E17.08188
G1 X120.699 Y158.027 E17.1058
G1 X120.443 Y158.735 E17.13084
G1 X120.145 Y159.349 E17.15354
G1 X119.789 Y159.931 E17.17623
G1 X119.406 Y160.447 E17.19761
G1 X118.933 Y160.966 E17.22096
G1 X118.385 Y161.451 E17.2453
G1 X117.874 Y161.829 E17.26644
G1 X117.234 Y162.206 E17.29115
G1 X116.621 Y162.489 E17.31361
G1 X116.113 Y162.673 E17.33158
G1 X115.59 Y162.805 E17.34952
G1 X115.612 Y173.811 E17.71558
G1 X115.697 Y173.888 E17.71939
G1 X123.072 Y173.9 E17.96469
G1 X122.917 Y173.409 E17.98181
G1 X122.894 Y173.061 E17.99341
G1 X122.93 Y172.779 E18.00287
G1 X123.027 Y172.519 E18.0121
G1 X123.29 Y172.044 E18.03016
G1 X123.776 Y171.558 E18.05302
G1 X123.005 Y171.557 E18.07866
G1 X122.435 Y171.359 E18.09873
G1 X122.109 Y171.13 E18.11198
G1 X121.845 Y170.831 E18.12525
G1 X121.551 Y170.23 E18.1475
G1 X121.512 Y169.683 E18.16574
G1 X121.588 Y169.296 E18.17886
G1 X121.802 Y168.825 E18.19606
G1 X122.241 Y168.363 E18.21726
G1 X122.967 Y168.06 E18.24342
G1 X123.775 Y168.06 E18.2703
G1 X123.229 Y167.516 E18.29593
G1 X122.987 Y167.025 E18.31414
G1 X122.891 Y166.53 E18.33091
G1 X122.947 Y166.024 E18.34784
G1 X123.016 Y165.807 E18.35542
G1 X123.219 Y165.431 E18.36963
G1 X123.701 Y164.973 E18.39174
G1 X124.218 Y164.75 E18.41047
G1 X124.42 Y164.717 E18.41728
G1 X125.034 Y164.743 E18.43772
G1 X125.477 Y164.913 E18.4535
G1 X125.827 Y165.163 E18.46781
G1 X126.248 Y165.582 E18.48756
G1 X126.251 Y164.882 E18.51084
G1 X126.368 Y164.42 E18.52669
G1 X126.626 Y163.973 E18.54386
G1 X127.04 Y163.592 E18.56257
G1 X127.252 Y163.472 E18.57068
G1 X127.817 Y163.32 E18.59014
G1 X128.15 Y163.322 E18.60121
G1 X128.658 Y163.436 E18.61853
G1 X129.08 Y163.665 E18.6345
G1 X129.539 Y164.201 E18.65797
G1 X129.748 Y164.839 E18.6803
G1 X129.749 Y165.583 E18.70504
G1 X130.274 Y165.059 E18.72971
G1 X130.834 Y164.789 E18.75039
G1 X131.119 Y164.716 E18.76018
G1 X131.702 Y164.732 E18.77958
G1 X132.159 Y164.894 E18.7957
G1 X132.662 Y165.27 E18.81659
G1 X132.968 Y165.762 E18.83586
G1 X133.107 Y166.374 E18.85673
G1 X133.023 Y166.98 E18.87708
G1 X132.847 Y167.37 E18.89131
G1 X132.657 Y167.627 E18.90194
G1 X132.223 Y168.06 E18.92233
G1 X132.964 Y168.06 E18.94698
G1 X133.417 Y168.197 E18.96272
G1 X133.668 Y168.321 E18.97203
G1 X133.983 Y168.567 E18.98533
G1 X134.152 Y168.785 E18.9945
G1 X134.426 Y169.313 E19.01428
G1 X134.489 Y169.941 E19.03528
G1 X134.469 Y170.139 E19.0419
G1 X134.274 Y170.643 E19.05987
G1 X134.081 Y170.934 E19.07148
G1 X133.72 Y171.263 E19.08773
G1 X133.207 Y171.486 E19.10633
G1 X132.935 Y171.56 E19.11571
G1 X132.222 Y171.56 E19.13942
G1 X132.711 Y172.048 E19.1624
G1 X133.021 Y172.627 E19.18425
G1 X133.103 Y173.064 E19.19903
G1 X133.044 Y173.613 E19.2174
G1 X132.937 Y173.908 E19.22784
G1 X141.553 Y173.907 E19.51441
G1 X141.217 Y173.616 E19.52919
G1 X140.985 Y173.3 E19.54223
G1 X140.747 Y172.749 E19.56219
G1 X140.692 Y172.419 E19.57332
G1 X140.698 Y159.163 E20.01421
G1 X140.757 Y158.784 E20.02697
G1 X141.029 Y158.17 E20.04931
G1 X141.452 Y157.71 E20.07009
G1 X141.833 Y157.473 E20.08502
G1 X142.398 Y157.28 E20.10487
G1 X166.83 Y157.284 E20.91749
G1 X167.248 Y157.359 E20.93161
G1 X167.806 Y157.616 E20.95204
G1 X167.968 Y157.737 E20.95877
G1 X168.393 Y158.223 E20.98024
G1 X168.512 Y158.46 E20.98906
G1 X168.692 Y159.001 E21.00803
G1 X168.692 Y172.324 E21.45115
G1 X168.632 Y172.746 E21.46533
G1 X168.526 Y173.049 E21.47601
G1 X168.317 Y173.428 E21.4904
G1 X168.032 Y173.755 E21.50483
G1 X167.824 Y173.907 E21.5134
G1 X173.072 Y173.907 E21.68795
G1 X173.119 Y173.535 E21.70042
G1 X173.333 Y172.967 E21.7206
G0 F1800 X173.806 Y173.02
G1 F1200 X173.96 Y172.926 E21.72661
G1 X174.139 Y172.882 E21.73274
G1 X180.245 Y172.882 E21.93582
G1 X180.525 Y172.962 E21.94551
G1 X181.031 Y173.477 E21.96952
G1 X181.3 Y173.652 E21.98019
G1 X181.773 Y173.828 E21.99698
G1 X182.159 Y173.872 E22.0099
G1 X182.652 Y173.819 E22.02639
G1 X183.02 Y173.687 E22.0394
G1 X183.31 Y173.511 E22.05068
G1 X183.567 Y173.283 E22.06211
G1 X183.896 Y172.805 E22.08141
G1 X184.05 Y172.366 E22.09688
G1 X184.088 Y172.011 E22.10876
G1 X184.038 Y171.537 E22.12461
G1 X183.917 Y171.189 E22.13686
G1 X183.728 Y170.867 E22.14928
G1 X183.478 Y170.587 E22.16177
G1 X183.189 Y170.366 E22.17387
G1 X182.744 Y170.163 E22.19013
G1 X182.504 Y170.107 E22.19833
G1 X182.013 Y170.091 E22.21467
G1 X181.662 Y170.159 E22.22656
G1 X181.315 Y170.296 E22.23897
G1 X180.921 Y170.573 E22.25499
G1 X180.623 Y170.902 E22.26975
G1 X180.468 Y171.016 E22.27615
G1 X180.248 Y171.078 E22.28375
G1 X174.139 Y171.078 E22.48694
G1 X173.96 Y171.034 E22.49307
G1 X173.806 Y170.94 E22.49907
G1 X173.676 Y170.788 E22.50573
G1 X173.482 Y170.247 E22.52484
G1 X173.496 Y169.685 E22.54354
G1 X173.541 Y169.482 E22.55045
G1 X173.703 Y169.131 E22.56331
G1 X173.976 Y168.92 E22.57479
G1 X174.149 Y168.881 E22.58069
G1 X179.992 Y168.88 E22.77503
G1 X180.173 Y168.754 E22.78236
G1 X180.942 Y168.359 E22.81111
G1 X181.861 Y168.149 E22.84247
G1 X182.655 Y168.149 E22.86888
G1 X183.059 Y168.212 E22.88248
G1 X183.722 Y168.408 E22.90547
G1 X184.396 Y168.767 E22.93087
G1 X184.976 Y169.236 E22.95568
G1 X185.352 Y169.669 E22.97475
G1 F1142.9 X185.742 Y170.304 E23.00078
G1 F1043.5 X186.064 Y171.134 E23.03483
G1 F909.1 X186.14 Y171.266 E23.04152
G1 F857.1 X186.19 Y171.895 E23.0709
G1 F866.4 X186.161 Y172.558 E23.10147
G1 F879.1 X186.127 Y172.616 E23.10452
G1 F1036.7 X185.804 Y173.501 E23.14079
G1 F1200 X185.542 Y174.007 E23.15974
G1 X185.337 Y174.296 E23.17153
G1 X186.378 Y174.285 E23.20615
G1 X186.576 Y174.203 E23.21328
G1 X186.72 Y174.051 E23.22024
G1 F1111.1 X186.827 Y173.794 E23.23024
G1 F971.7 X186.742 Y172.698 E23.2754
G1 F879.1 X186.722 Y172.606 E23.27967
G1 F866.4 X186.733 Y171.964 E23.30925
G1 F857.1 X186.716 Y171.237 E23.34311
G1 F909.1 X186.764 Y171.021 E23.35283
G1 F1090.9 X186.804 Y170.221 E23.38213
G1 F1200 X186.804 Y155.77 E23.86278
G1 F991.7 X186.721 Y155.352 E23.87993
G1 F866.4 X186.733 Y154.792 E23.90573
G1 F851.1 X186.711 Y154.033 E23.94134
G1 F973.6 X186.804 Y153.837 E23.95023
G1 F1200 X186.804 Y128.148 E24.80465
G1 X186.695 Y127.894 E24.81384
G1 X186.558 Y127.779 E24.81979
G1 X186.386 Y127.712 E24.82593
G1 X115.61 Y127.712 E27.17995
G1 X115.438 Y127.779 E27.18609
G1 X115.31 Y127.888 E27.19168
G1 X115.212 Y128.118 E27.2
G1 X115.19 Y139.516 E27.5791
G1 X115.453 Y139.563 E27.58798
G1 X116.331 Y139.813 E27.61835
G1 X117.102 Y140.175 E27.64668
G1 X117.649 Y140.502 E27.66787
G1 X118.139 Y140.858 E27.68802
G1 X118.655 Y141.317 E27.71099
G1 X119.092 Y141.802 E27.7327
G1 X119.448 Y142.274 E27.75236
G1 X119.794 Y142.841 E27.77446
G1 X120.086 Y143.445 E27.79677
G1 X120.314 Y144.09 E27.81952
G1 X120.464 Y144.677 E27.83968
G1 X120.599 Y145.545 E27.86889
G1 X120.599 Y156.435 E28.2311
G1 X120.463 Y157.321 E28.26091
G1 X120.315 Y157.913 E28.2812
G1 X120.082 Y158.563 E28.30417
G1 X119.802 Y159.143 E28.32559
G1 X119.467 Y159.693 E28.34701
G1 X119.096 Y160.193 E28.36772
G1 X118.628 Y160.705 E28.39079
G1 X118.147 Y161.13 E28.41214
G1 X117.653 Y161.496 E28.43259
G1 X117.064 Y161.844 E28.45534
G1 X116.485 Y162.113 E28.47658
G1 X115.977 Y162.297 E28.49455
G1 X115.189 Y162.49 E28.52153
G1 X115.212 Y173.891 E28.90073
G1 X115.272 Y174.048 E28.90632
G1 X115.391 Y174.192 E28.91253
G1 X115.615 Y174.288 E28.92064
G1 X123.955 Y174.303 E29.19803
G1 X123.63 Y174.057 E29.21159
G1 X123.384 Y173.643 E29.2276
G1 X123.291 Y173.105 E29.24576
G1 X123.321 Y172.864 E29.25384
G1 X123.608 Y172.291 E29.27515
G1 X124.74 Y171.16 E29.32838
G1 X123.081 Y171.151 E29.38356
G1 X122.618 Y171.003 E29.39972
G1 X122.35 Y170.811 E29.41069
G1 X122.191 Y170.632 E29.41865
G1 X121.942 Y170.143 E29.4369
G1 X121.912 Y169.682 E29.45227
G1 X121.957 Y169.449 E29.46016
G1 X122.137 Y169.044 E29.4749
G1 X122.466 Y168.699 E29.49076
G1 X123.075 Y168.46 E29.51252
G1 X124.742 Y168.46 E29.56796
G1 X123.551 Y167.272 E29.62391
G1 X123.365 Y166.894 E29.63792
G1 X123.288 Y166.411 E29.65419
G1 X123.376 Y165.982 E29.66876
G1 X123.533 Y165.679 E29.68011
G1 X123.916 Y165.31 E29.6978
G1 X124.323 Y165.136 E29.71252
G1 X124.875 Y165.122 E29.73088
G1 X125.283 Y165.263 E29.74524
G1 X125.564 Y165.464 E29.75673
G1 X126.648 Y166.549 E29.80774
G1 X126.65 Y164.918 E29.86199
