;FLAVOR:Marlin
;TIME:7989
;Filament used: 7.24874m
;Layer height: 0.15
;MINX:106.2
;MINY:93.886
;MINZ:0.3
;MAXX:196.664
;MAXY:183.3
;MAXZ:19.95
;TARGET_MACHINE.NAME:Unknown
;Generated with Cura_SteamEngine 5.7.2
M140 S70
M105
M190 S70
M104 S215
M105
M109 S215
M82 ;absolute extrusion mode
; Script based on an original created by tjjfvi (https://github.com/tjjfvi)
; An up-to-date version of the tjjfvi's original script can be found
; here:  https://csi.t6.fyi/
; Note - This script will only work in Cura V4.2 and above!
; --- Global Settings
; layer_height = 0.15
; smooth_spiralized_contours = True
; magic_mesh_surface_mode = normal
; machine_extruder_count = 1
; --- Single Extruder Settings
; speed_z_hop = 10
; retraction_amount = 6.5
; retraction_hop = 1
; retraction_hop_enabled = False
; retraction_enable = True
; retraction_speed = 25
; retraction_retract_speed = 25
; retraction_prime_speed = 25
; speed_travel = 120

G28 ;Home
G1 Z15.0 F6000 ;Move the platform down 15mm
;Prime the extruder
G92 E0
G1 F200 E3
G92 E0
G92 E0
G92 E0
G1 F1500 E-6.5
;LAYER_COUNT:132
;LAYER:0
M107
G0 F3600 X118.093 Y100.277 Z0.3
;TYPE:SKIRT
G1 F1500 E0
G1 F1800 X118.78 Y99.631 E0.04705
G1 X119.504 Y99.15 E0.09041
G1 X120.286 Y98.825 E0.13266
G1 X120.767 Y98.669 E0.15789
G1 X121.45 Y98.556 E0.19243
G1 X122.155 Y98.531 E0.22762
G1 X122.949 Y98.614 E0.26745
G1 X125.803 Y99.179 E0.4126
G1 X128.527 Y99.636 E0.5504
G1 X131.198 Y100.008 E0.68494
G1 X133.964 Y100.311 E0.82377
G1 X136.671 Y100.532 E0.95927
G1 X139.391 Y100.678 E1.09517
G1 X142.14 Y100.746 E1.23236
G1 X144.892 Y100.737 E1.36965
G1 X147.613 Y100.651 E1.50547
G1 X150.353 Y100.486 E1.64242
G1 X153.07 Y100.245 E1.7785
G1 X155.77 Y99.929 E1.91413
G1 X158.525 Y99.528 E2.05302
G1 X161.205 Y99.059 E2.18876
G1 X163.857 Y98.517 E2.3238
G1 X166.539 Y97.893 E2.46118
G1 X169.197 Y97.19 E2.59835
G1 X171.825 Y96.417 E2.73502
G1 X174.416 Y95.574 E2.87095
G1 X177.002 Y94.651 E3.00794
G1 X178.177 Y94.206 E3.07062
G1 X178.663 Y94.054 E3.09603
G1 X179.419 Y93.901 E3.13451
G1 X180.473 Y93.886 E3.1871
G1 X181.24 Y94.017 E3.22592
G1 X181.959 Y94.261 E3.2638
G1 X182.681 Y94.61 E3.30381
G1 X183.395 Y95.131 E3.34791
G1 X183.932 Y95.681 E3.38625
G1 X184.328 Y96.208 E3.41914
G1 X184.741 Y96.972 E3.46247
G1 X184.985 Y97.6 E3.49608
G1 X185.125 Y98.286 E3.53101
G1 X185.252 Y99.389 E3.58641
G1 X185.608 Y102.12 E3.72381
G1 X186.031 Y104.787 E3.85853
G1 X186.546 Y107.526 E3.99757
G1 X187.115 Y110.152 E4.13163
G1 X187.782 Y112.843 E4.26994
G1 X188.51 Y115.469 E4.4059
G1 X189.313 Y118.076 E4.54199
G1 X190.198 Y120.678 E4.67911
G1 X191.564 Y124.296 E4.87205
G1 X191.954 Y125.268 E4.9243
G1 X192.116 Y125.759 E4.95009
G1 X192.298 Y126.565 E4.99132
G1 X192.376 Y127.21 E5.02373
G1 X192.394 Y128.175 E5.07188
G1 X192.394 Y174.039 E7.36005
G1 X192.385 Y174.696 E7.39283
G1 X192.304 Y175.366 E7.4265
G1 X192.108 Y176.222 E7.47031
G1 X191.919 Y176.828 E7.50198
G1 X191.515 Y177.544 E7.54299
G1 X191.233 Y177.963 E7.56819
G1 X190.739 Y178.487 E7.60412
G1 X190.293 Y178.867 E7.63335
G1 X189.646 Y179.25 E7.67086
G1 X189.051 Y179.542 E7.70393
G1 X187.943 Y179.796 E7.76064
G1 X187.288 Y179.876 E7.79356
G1 X186.305 Y179.894 E7.84261
G1 X115.461 Y179.894 E11.37703
G1 X114.804 Y179.885 E11.40982
G1 X114.133 Y179.804 E11.44353
G1 X113.274 Y179.607 E11.4875
G1 X112.668 Y179.416 E11.5192
G1 X111.968 Y179.022 E11.55928
G1 X111.548 Y178.74 E11.58452
G1 X111.043 Y178.269 E11.61897
G1 X110.711 Y177.888 E11.64418
G1 X110.298 Y177.228 E11.68302
G1 X110.016 Y176.664 E11.71448
G1 X109.724 Y175.533 E11.77276
G1 X109.623 Y174.792 E11.81007
G1 X109.604 Y173.752 E11.86196
G1 X109.603 Y127.968 E14.14614
G1 X109.612 Y127.317 E14.17862
G1 X109.688 Y126.669 E14.21117
G1 X109.881 Y125.798 E14.25568
G1 X110.052 Y125.257 E14.28398
G1 X110.375 Y124.485 E14.32573
G1 X110.931 Y123.2 E14.39559
G1 X111.959 Y120.625 E14.53391
G1 X112.894 Y118.076 E14.66937
G1 X113.762 Y115.483 E14.80579
G1 X114.564 Y112.844 E14.9434
G1 X115.279 Y110.226 E15.07879
G1 X115.944 Y107.488 E15.21936
G1 X116.208 Y106.269 E15.28159
G1 X116.626 Y104.238 E15.38504
G1 X116.952 Y102.509 E15.47282
G1 X117.224 Y101.639 E15.5183
G1 X117.669 Y100.848 E15.56358
G1 X118.093 Y100.277 E15.59906
G1 F1500 E9.09906
;MESH:Case_1-Clip.stl
G0 F3600 X151.167 Y103.58
G0 X151.261 Y104.66
G0 X165.462 Y105.092
G0 X165.553 Y105.534
;TYPE:WALL-INNER
G1 F1500 E15.59906
G1 F1800 X165.781 Y105.775 E15.61561
G1 X165.848 Y106.052 E15.62983
G1 X165.848 Y109.716 E15.81263
G1 X166.648 Y109.716 E15.85254
G1 X166.648 Y105.564 E16.05968
G1 X166.739 Y105.245 E16.07623
G1 X166.842 Y105.122 E16.08424
G1 X167.026 Y105.001 E16.09522
G1 X168.261 Y104.678 E16.15891
G1 X170.645 Y104.006 E16.28248
G1 X171.071 Y103.968 E16.30382
G1 X171.51 Y104.048 E16.32608
G1 X171.818 Y104.196 E16.34313
G1 X172.134 Y104.443 E16.36314
G1 X172.493 Y104.994 E16.39595
G1 X172.596 Y105.515 E16.42245
G1 X172.6 Y111.464 E16.71924
G1 X181.4 Y111.464 E17.15828
G1 X181.4 Y110.664 E17.19819
G1 X174 Y110.664 E17.56738
G1 X173.575 Y110.488 E17.59033
G1 X173.4 Y110.154 E17.60914
G1 X173.4 Y108.064 E17.71341
G1 X173.52 Y107.704 E17.73234
G1 X173.769 Y107.51 E17.74809
G1 X174 Y107.464 E17.75984
G1 X181.4 Y107.464 E18.12903
G1 X181.4 Y99.09 E18.54681
G1 X181.321 Y98.606 E18.57127
G1 X181.076 Y98.174 E18.59605
G1 X180.882 Y97.983 E18.60963
G1 X180.643 Y97.828 E18.62384
G1 X180.131 Y97.676 E18.65049
G1 X179.614 Y97.711 E18.67634
G1 X175.569 Y99.358 E18.89424
G1 X171.638 Y100.751 E19.1023
G1 X167.65 Y101.955 E19.31014
G1 X163.642 Y102.957 E19.51625
G1 X159.527 Y103.782 E19.72563
G1 X155.406 Y104.409 E19.9336
G1 X151.258 Y104.84 E20.14166
G1 X147.098 Y105.072 E20.34952
G1 X142.933 Y105.108 E20.55732
G1 X138.772 Y104.95 E20.76506
G1 X134.616 Y104.591 E20.97318
G1 X130.451 Y104.035 E21.18282
G1 X126.415 Y103.295 E21.38753
G1 X122.309 Y102.344 E21.5978
G1 X121.93 Y102.316 E21.61676
G1 X121.663 Y102.355 E21.63022
G1 X121.267 Y102.521 E21.65165
G1 X120.993 Y102.74 E21.66915
G1 X120.831 Y102.939 E21.68195
G1 X120.674 Y103.272 E21.70031
G1 X120.612 Y103.536 E21.71384
G1 X120.606 Y103.804 E21.72722
G1 X120.679 Y104.157 E21.7452
G1 X120.791 Y104.407 E21.75887
G1 X120.944 Y104.62 E21.77195
G1 X121.288 Y104.907 E21.7943
G1 X121.575 Y105.045 E21.81019
G1 X125.971 Y106.043 E22.03509
G1 X130.303 Y106.814 E22.25461
G1 X134.607 Y107.362 E22.47107
G1 X138.978 Y107.716 E22.68986
G1 X143.358 Y107.86 E22.90849
G1 X147.777 Y107.795 E23.12898
G1 X152.12 Y107.526 E23.34607
G1 X156.466 Y107.045 E23.56422
G1 X160.848 Y106.355 E23.78553
G1 X165.125 Y105.464 E24.00349
G1 X165.406 Y105.472 E24.01751
G1 X165.553 Y105.534 E24.02547
G0 F3600 X165.448 Y105.982
;TYPE:WALL-OUTER
G1 F1800 X165.448 Y109.704 E24.21117
G1 X165.32 Y109.892 E24.22251
G1 X165.06 Y109.904 E24.2355
G1 X165.32 Y110.116 E24.25223
G1 X167.048 Y110.116 E24.33845
G1 X167.048 Y105.564 E24.56555
G1 X167.078 Y105.457 E24.57109
G1 X167.166 Y105.381 E24.57689
G1 X168.369 Y105.063 E24.63897
G1 X170.753 Y104.391 E24.76254
G1 X171.146 Y104.372 E24.78217
G1 X171.365 Y104.421 E24.79337
G1 X171.688 Y104.585 E24.81144
G1 X171.912 Y104.792 E24.82666
G1 X172.125 Y105.15 E24.84744
G1 X172.193 Y105.477 E24.8641
G1 X172.2 Y111.864 E25.18275
G1 X181.8 Y111.864 E25.6617
G1 X181.8 Y110.264 E25.74152
G1 X174 Y110.264 E26.13067
G1 X173.858 Y110.206 E26.13832
G1 X173.802 Y110.099 E26.14434
G1 X173.8 Y108.064 E26.24587
G1 X173.84 Y107.944 E26.25218
G1 X173.942 Y107.864 E26.25865
G1 X181.8 Y107.864 E26.65069
G1 X181.8 Y99.07 E27.08942
G1 X181.696 Y98.464 E27.1201
G1 X181.382 Y97.914 E27.15169
G1 X181.134 Y97.669 E27.16909
G1 X180.827 Y97.471 E27.18731
G1 X180.491 Y97.337 E27.20536
G1 X180.155 Y97.274 E27.22241
G1 X179.522 Y97.317 E27.25407
G1 X175.435 Y98.981 E27.47422
G1 X171.522 Y100.368 E27.68134
G1 X167.553 Y101.567 E27.88819
G1 X163.564 Y102.565 E28.09334
G1 X159.467 Y103.386 E28.3018
G1 X155.365 Y104.011 E28.50881
G1 X151.236 Y104.44 E28.71592
G1 X147.094 Y104.672 E28.92289
G1 X142.948 Y104.708 E29.12974
G1 X138.806 Y104.552 E29.33653
G1 X134.669 Y104.195 E29.5437
G1 X130.523 Y103.641 E29.75238
G1 X126.478 Y102.899 E29.95755
G1 X122.369 Y101.947 E30.16798
G1 X121.916 Y101.914 E30.19064
G1 X121.555 Y101.967 E30.20885
G1 X121.06 Y102.174 E30.23561
G1 X120.71 Y102.455 E30.25801
G1 X120.491 Y102.724 E30.27531
G1 X120.294 Y103.139 E30.29823
G1 X120.212 Y103.486 E30.31602
G1 X120.205 Y103.841 E30.33373
G1 X120.296 Y104.281 E30.35615
G1 X120.443 Y104.607 E30.37399
G1 X120.648 Y104.894 E30.39159
G1 X121.07 Y105.246 E30.419
G1 X121.443 Y105.425 E30.43964
G1 X125.892 Y106.435 E30.66725
G1 X130.243 Y107.21 E30.88774
G1 X134.565 Y107.76 E31.10511
G1 X138.956 Y108.116 E31.32489
G1 X143.354 Y108.26 E31.54443
G1 X147.76 Y108.196 E31.76427
G1 X152.154 Y107.924 E31.98391
G1 X156.528 Y107.44 E32.20346
G1 X160.888 Y106.755 E32.42365
G1 X165.207 Y105.856 E32.64374
G1 X165.35 Y105.879 E32.65097
G1 X165.448 Y105.982 E32.65806
G0 F3600 X165.448 Y106.182
G0 X166.15 Y106.182
G0 X166.419 Y104.925
G0 X170.676 Y103.75
G0 X171.561 Y103.809
G0 X172.393 Y104.351
G0 X172.838 Y105.435
G0 X173.172 Y110.894
G0 X181 Y111.064
;TYPE:SKIN
G1 F1636.4 X174 Y111.064 E33.04221
G0 F3600 X173.32 Y110.769
G1 F1726.6 X173.966 Y111.065 E33.07917
G1 F1710.2 X172.962 Y111.098 E33.13192
G1 F1726.6 X173 Y110.232 E33.177
G1 F1739.1 X173.32 Y110.769 E33.20928
G0 F3600 X173.32 Y110.966
G0 X173.172 Y107.238
G0 X173.66 Y107.147
G1 F1800 X173.253 Y107.438 E33.23424
G1 F1686.2 X173.005 Y107.992 E33.26657
G1 X172.978 Y107.499 E33.29287
G1 F1800 X172.973 Y105.476 E33.39379
G1 X172.841 Y104.842 E33.4261
G1 X172.581 Y104.395 E33.4519
G1 X172.402 Y104.175 E33.46605
G1 X172.019 Y103.873 E33.49039
G1 X171.645 Y103.691 E33.51114
G1 X171.062 Y103.586 E33.54069
G1 X170.573 Y103.632 E33.56519
G1 X168.167 Y104.309 E33.68989
G1 X166.874 Y104.649 E33.75659
G1 X166.58 Y104.84 E33.77408
G1 X166.395 Y105.089 E33.78956
G1 X166.276 Y105.507 E33.81124
G1 F1702.1 X166.245 Y105.994 E33.83699
G1 X166.119 Y105.603 E33.85866
G1 F1800 X165.786 Y105.238 E33.88331
G1 X165.505 Y105.102 E33.89889
G1 X165.043 Y105.092 E33.92194
G1 X160.771 Y105.983 E34.13966
G1 X156.355 Y106.674 E34.36265
G1 X152.105 Y107.142 E34.57597
G1 X147.773 Y107.411 E34.79251
G1 X143.408 Y107.48 E35.01031
G1 X139.004 Y107.336 E35.23014
G1 X134.649 Y106.981 E35.44813
G1 X130.411 Y106.446 E35.66125
G1 X126.07 Y105.671 E35.88124
G1 X121.703 Y104.681 E36.10464
G1 X121.497 Y104.582 E36.11605
G1 X121.229 Y104.361 E36.13338
G1 X121.042 Y104.029 E36.15239
G1 X120.991 Y103.779 E36.16512
G1 X121.039 Y103.388 E36.18477
G1 X121.151 Y103.144 E36.19816
G1 X121.459 Y102.854 E36.21927
G1 X121.771 Y102.723 E36.23615
G1 X122.25 Y102.719 E36.26005
G1 X126.298 Y103.659 E36.46738
G1 X130.375 Y104.409 E36.67419
G1 X134.601 Y104.971 E36.88689
G1 X138.742 Y105.328 E37.09425
G1 X142.916 Y105.488 E37.30264
G1 X147.094 Y105.452 E37.51109
G1 X151.276 Y105.216 E37.72006
G1 X155.445 Y104.787 E37.92916
G1 X159.623 Y104.15 E38.14001
G1 X163.72 Y103.329 E38.34847
G1 X167.741 Y102.323 E38.55526
G1 X171.714 Y101.124 E38.7623
G1 X175.695 Y99.713 E38.97302
G1 X179.702 Y98.086 E39.18878
G1 X180.097 Y98.059 E39.20854
G1 X180.47 Y98.172 E39.22798
G1 X180.632 Y98.277 E39.23761
G1 X180.859 Y98.532 E39.25464
G1 X180.992 Y98.854 E39.27203
G1 X181.02 Y99.104 E39.28458
G1 X181.02 Y107.084 E39.6827
G1 X173.96 Y107.087 E40.03493
G1 X173.66 Y107.147 E40.05019
G0 F3600 X173.005 Y107.992
G1 F1603.6 X173.001 Y110.214 E40.17462
G0 F3600 X172.838 Y105.435
G0 X172.393 Y104.351
G0 X171.561 Y103.809
G0 X170.676 Y103.75
G0 X166.419 Y104.925
G0 X166.248 Y109.316
G1 F1625.3 X166.245 Y105.994 E40.35818
G0 F3600 X166.419 Y104.925
G0 X180.377 Y98.353
G1 F1800 X180.703 Y98.679 E40.38118
G0 F3600 X180.82 Y99.361
G1 F1800 X179.744 Y98.286 E40.45706
G0 F3600 X179.342 Y98.449
G1 F1800 X180.82 Y99.927 E40.56134
G0 F3600 X180.82 Y100.493
G1 F1800 X178.94 Y98.612 E40.69402
G0 F3600 X178.537 Y98.775
G1 F1800 X180.82 Y101.058 E40.8551
G0 F3600 X180.82 Y101.624
G1 F1800 X178.134 Y98.938 E41.04461
G0 F3600 X177.732 Y99.102
G1 F1800 X180.82 Y102.19 E41.26249
G0 F3600 X180.82 Y102.755
G1 F1800 X177.33 Y99.265 E41.50872
G0 F3600 X176.927 Y99.428
G1 F1800 X180.82 Y103.321 E41.7834
G0 F3600 X180.82 Y103.887
G1 F1800 X176.525 Y99.592 E42.08643
G0 F3600 X176.123 Y99.755
G1 F1800 X180.82 Y104.452 E42.41783
G0 F3600 X180.82 Y105.018
G1 F1800 X175.718 Y99.916 E42.7778
G0 F3600 X175.301 Y100.065
G1 F1800 X180.82 Y105.584 E43.1672
G0 F3600 X180.82 Y106.149
G1 F1800 X174.883 Y100.213 E43.58605
G0 F3600 X174.466 Y100.361
G1 F1800 X180.82 Y106.715 E44.03436
G0 F3600 X180.423 Y106.883
G1 F1800 X174.048 Y100.509 E44.48412
G0 F3600 X173.631 Y100.657
G1 F1800 X179.857 Y106.883 E44.92339
G0 F3600 X179.291 Y106.883
G1 F1800 X173.213 Y100.805 E45.35223
G0 F3600 X172.795 Y100.953
G1 F1800 X178.725 Y106.883 E45.77062
G0 F3600 X178.16 Y106.883
G1 F1800 X172.378 Y101.101 E46.17857
G0 F3600 X171.96 Y101.249
G1 F1800 X177.594 Y106.883 E46.57608
G0 F3600 X177.028 Y106.883
G1 F1800 X171.533 Y101.388 E46.96378
G0 F3600 X171.099 Y101.519
G1 F1800 X176.463 Y106.883 E47.34224
G0 F3600 X175.897 Y106.883
G1 F1800 X170.664 Y101.65 E47.71146
G0 F3600 X170.23 Y101.782
G1 F1800 X172.253 Y103.805 E47.85419
G0 F3600 X172.772 Y104.324
G1 F1800 X175.331 Y106.883 E48.03475
G0 F3600 X174.766 Y106.883
G1 F1800 X173.131 Y105.249 E48.15007
G0 F3600 X173.176 Y105.86
G1 F1800 X174.2 Y106.883 E48.22228
G0 F3600 X173.689 Y106.938
G1 F1800 X173.177 Y106.426 E48.25841
G0 F3600 X173.178 Y106.992
G1 F1800 X173.318 Y107.133 E48.26832
G0 F3600 X172.737 Y104.924
G0 X171.31 Y103.428
G1 F1800 X169.795 Y101.912 E48.37525
G0 F3600 X169.361 Y102.044
G1 F1800 X170.736 Y103.419 E48.47226
G0 F3600 X170.26 Y103.509
G1 F1800 X168.926 Y102.175 E48.56638
G0 F3600 X168.491 Y102.306
G1 F1800 X169.819 Y103.634 E48.66008
G0 F3600 X169.378 Y103.758
G1 F1800 X168.057 Y102.437 E48.75328
G0 F3600 X167.615 Y102.561
G1 F1800 X168.936 Y103.882 E48.84649
G0 F3600 X168.496 Y104.008
G1 F1800 X167.162 Y102.674 E48.94061
G0 F3600 X166.71 Y102.787
G1 F1800 X168.054 Y104.131 E49.03543
G0 F3600 X167.606 Y104.249
G1 F1800 X166.257 Y102.9 E49.13061
G0 F3600 X165.805 Y103.013
G1 F1800 X167.159 Y104.368 E49.22618
G0 F3600 X166.731 Y104.505
G1 F1800 X165.352 Y103.127 E49.32344
G0 F3600 X164.899 Y103.24
G1 F1800 X166.403 Y104.743 E49.42952
G0 F3600 X166.199 Y105.105
G1 F1800 X164.447 Y103.353 E49.55313
G0 F3600 X163.994 Y103.466
G1 F1800 X165.434 Y104.906 E49.65473
G0 F3600 X164.883 Y104.921
G1 F1800 X163.533 Y103.571 E49.74998
G0 F3600 X163.062 Y103.665
G1 F1800 X164.415 Y105.018 E49.84544
G0 F3600 X163.947 Y105.116
G1 F1800 X162.591 Y103.759 E49.94115
G0 F3600 X162.119 Y103.853
G1 F1800 X163.479 Y105.213 E50.03711
G0 F3600 X163.011 Y105.311
G1 F1800 X161.648 Y103.948 E50.13327
G0 F3600 X161.177 Y104.043
G1 F1800 X162.543 Y105.408 E50.22962
G0 F3600 X162.075 Y105.506
G1 F1800 X160.706 Y104.137 E50.32621
G0 F3600 X160.235 Y104.232
G1 F1800 X161.606 Y105.604 E50.42298
G0 F3600 X161.138 Y105.701
G1 F1800 X159.763 Y104.326 E50.51999
G0 F3600 X159.277 Y104.406
G1 F1800 X160.667 Y105.795 E50.61803
G0 F3600 X160.177 Y105.872
G1 F1800 X158.786 Y104.48 E50.7162
G0 F3600 X158.295 Y104.555
G1 F1800 X159.689 Y105.949 E50.81456
G0 F3600 X159.199 Y106.025
G1 F1800 X157.804 Y104.63 E50.91298
G0 F3600 X157.314 Y104.705
G1 F1800 X158.711 Y106.102 E51.01155
G0 F3600 X158.222 Y106.178
G1 F1800 X156.822 Y104.779 E51.11029
G0 F3600 X156.331 Y104.854
G1 F1800 X157.732 Y106.255 E51.20914
G0 F3600 X157.244 Y106.332
G1 F1800 X155.841 Y104.929 E51.30813
G0 F3600 X155.344 Y104.998
G1 F1800 X156.754 Y106.408 E51.40761
G0 F3600 X156.264 Y106.483
G1 F1800 X154.832 Y105.051 E51.50865
G0 F3600 X154.318 Y105.104
G1 F1800 X155.754 Y106.539 E51.60993
G0 F3600 X155.245 Y106.596
G1 F1800 X153.806 Y105.157 E51.71146
G0 F3600 X153.293 Y105.21
G1 F1800 X154.735 Y106.652 E51.8132
G0 F3600 X154.225 Y106.707
G1 F1800 X152.78 Y105.262 E51.91515
G0 F3600 X152.267 Y105.315
G1 F1800 X153.715 Y106.763 E52.01732
G0 F3600 X153.205 Y106.819
G1 F1800 X151.754 Y105.368 E52.11969
G0 F3600 X151.239 Y105.418
G1 F1800 X152.695 Y106.875 E52.22246
