;FLAVOR:Marlin
;TIME:3908
;Filament used: 4.4254m
;Layer height: 0.2
;MINX:106.2
;MINY:118.7
;MINZ:0.2
;MAXX:195.8
;MAXY:183.3
;MAXZ:12
;TARGET_MACHINE.NAME:Unknown
;Generated with Cura_SteamEngine 5.8.0
M140 S60
M105
M190 S60
M104 S195
M105
M109 S195
M82 ;absolute extrusion mode
G28 ;Home
G1 Z15.0 F6000 ;Move the platform down 15mm
;Prime the extruder
G92 E0
G1 F200 E3
G92 E0
G92 E0
G92 E0
G1 F2400 E-6
;LAYER_COUNT:60
;LAYER:0
M107
M204 S3000
M205 X10 Y10
G1 F1200 Z0.275
G0 F6000 X110.418 Y122.001 Z0.275
M204 S300
M205 X8 Y8
;TYPE:SKIRT
G1 F1200 Z0.2
G1 F2400 E0
G1 X111.754 Y121.089 E0.08587
G1 X113.285 Y120.451 E0.17391
G1 X114.825 Y120.112 E0.25762
G1 X187.022 Y120.112 E4.09006
G1 X188.283 Y120.326 E4.15796
G1 X189.769 Y120.898 E4.24248
G1 X191.053 Y121.564 E4.31926
G1 X192.431 Y122.856 E4.41954
G1 X193.367 Y124.171 E4.50522
G1 X194.19 Y126.103 E4.61669
G1 X194.371 Y127.422 E4.68736
G1 X194.365 Y174.62 E7.19278
G1 X194.203 Y175.835 E7.25785
G1 X193.394 Y177.828 E7.37203
G1 X192.267 Y179.283 E7.46972
G1 X191.362 Y180.209 E7.53846
G1 X190.081 Y180.953 E7.61709
G1 X188.727 Y181.555 E7.69575
G1 X187.19 Y181.877 E7.77911
G1 X183.313 Y181.904 E7.98492
G1 X182.26 Y181.756 E8.04137
G1 X182.007 Y181.809 E8.05509
G1 X181.006 Y181.906 E8.10847
G1 X168.2 Y181.863 E8.78826
G1 X166.903 Y181.671 E8.85786
G1 X165.034 Y180.808 E8.96714
G1 X163.87 Y179.827 E9.04794
G1 X163.141 Y178.973 E9.10755
G1 X162.424 Y177.664 E9.18677
G1 X162.012 Y176.494 E9.25262
G1 X161.871 Y174.91 E9.33704
G1 X161.903 Y174.102 E9.37996
G1 X162.248 Y172.439 E9.47012
G1 X162.694 Y171.667 E9.51745
G1 X162.693 Y163.282 E9.96255
G1 X146.697 Y163.282 E10.81167
G1 X146.7 Y171.649 E11.25581
G1 X146.853 Y171.929 E11.27275
G1 X147.27 Y172.968 E11.33218
G1 X147.579 Y174.716 E11.42641
G1 X147.33 Y176.625 E11.5286
G1 X146.796 Y178.061 E11.60993
G1 X146.102 Y179.112 E11.67679
G1 X145.561 Y179.734 E11.72055
G1 X144.503 Y180.712 E11.79703
G1 X142.875 Y181.543 E11.89405
G1 X141.096 Y181.912 E11.9905
G1 X114.682 Y181.834 E13.39264
G1 X113.488 Y181.653 E13.45675
G1 X111.773 Y180.873 E13.55676
G1 X110.515 Y180.112 E13.63481
G1 X109.293 Y178.789 E13.73041
G1 X108.396 Y177.383 E13.81894
G1 X107.851 Y175.787 E13.90846
G1 X107.612 Y174.674 E13.96889
G1 X107.613 Y161.614 E14.66216
G1 X107.763 Y160.422 E14.72593
G1 X108.107 Y159.32 E14.78721
G1 X108.894 Y157.878 E14.87442
G1 X109.938 Y156.734 E14.95663
G1 X111.104 Y155.891 E15.03301
G1 X112.537 Y155.254 E15.11625
G1 X113 Y155.156 E15.14138
G1 X113 Y146.824 E15.58366
G1 X111.602 Y146.41 E15.66106
G1 X110.004 Y145.335 E15.7633
G1 X109.029 Y144.258 E15.84041
G1 X108.254 Y143.007 E15.91853
G1 X107.861 Y142.028 E15.97453
G1 X107.59 Y140.605 E16.05143
G1 X107.666 Y127.18 E16.76408
G1 X107.846 Y125.988 E16.82807
G1 X108.523 Y124.467 E16.91645
G1 X109.281 Y123.197 E16.99496
G1 X110.418 Y122.001 E17.08256
M204 S3000
M205 X10 Y10
G0 F6000 X110.785 Y122.428
M204 S300
M205 X8 Y8
G1 F2400 X112.021 Y121.584 E17.162
G1 X113.453 Y120.988 E17.24434
G1 X114.887 Y120.672 E17.32229
G1 X186.975 Y120.672 E21.14895
G1 X188.134 Y120.869 E21.21135
G1 X189.511 Y121.395 E21.2896
G1 X190.725 Y122.025 E21.3622
G1 X192.008 Y123.228 E21.45557
G1 X192.877 Y124.448 E21.53508
G1 X193.646 Y126.254 E21.63927
G1 X193.811 Y127.422 E21.70189
G1 X193.81 Y174.546 E24.20338
G1 X193.657 Y175.691 E24.2647
G1 X192.905 Y177.545 E24.37091
G1 X191.824 Y178.94 E24.46459
G1 X191.015 Y179.763 E24.52585
G1 X189.853 Y180.441 E24.59726
G1 X188.551 Y181.02 E24.6729
G1 X187.131 Y181.317 E24.74991
G1 X183.39 Y181.349 E24.9485
G1 X182.388 Y181.21 E25.0022
G1 X182.263 Y181.181 E25.00901
G1 X181.951 Y181.252 E25.026
G1 X181.008 Y181.346 E25.07631
G1 X168.282 Y181.309 E25.75184
G1 X167.067 Y181.129 E25.81704
G1 X165.335 Y180.33 E25.9183
G1 X164.268 Y179.43 E25.99239
G1 X163.603 Y178.651 E26.04676
G1 X162.937 Y177.435 E26.12036
G1 X162.564 Y176.376 E26.17996
G1 X162.431 Y174.932 E26.25694
G1 X162.461 Y174.166 E26.29763
G1 X162.778 Y172.642 E26.38026
G1 X163.254 Y171.817 E26.43082
G1 X163.253 Y162.722 E26.91361
G1 X146.137 Y162.722 E27.82218
G1 X146.14 Y171.798 E28.30397
G1 X146.333 Y172.137 E28.32467
G1 X146.729 Y173.125 E28.38118
G1 X147.013 Y174.728 E28.46759
G1 X146.783 Y176.488 E28.56181
G1 X146.293 Y177.807 E28.63651
G1 X145.679 Y178.744 E28.69597
G1 X145.138 Y179.366 E28.73973
G1 X144.181 Y180.247 E28.80878
G1 X142.685 Y181.011 E28.89795
G1 X141.041 Y181.352 E28.98708
G1 X114.766 Y181.28 E30.38184
G1 X113.649 Y181.111 E30.44181
G1 X112.005 Y180.363 E30.53769
G1 X110.873 Y179.674 E30.60803
G1 X109.738 Y178.446 E30.6968
G1 X108.905 Y177.141 E30.77898
G1 X108.399 Y175.669 E30.86161
G1 X108.172 Y174.612 E30.919
G1 X108.169 Y161.684 E31.60526
G1 X108.313 Y160.542 E31.66636
G1 X108.626 Y159.539 E31.72213
G1 X109.353 Y158.207 E31.80268
G1 X110.315 Y157.153 E31.87843
G1 X111.385 Y156.379 E31.94854
G1 X112.764 Y155.766 E32.02864
G1 X113.56 Y155.627 E32.07154
G1 X113.56 Y146.377 E32.56256
G1 X113.285 Y146.324 E32.57742
G1 X111.845 Y145.898 E32.65714
G1 X110.372 Y144.907 E32.75138
G1 X109.478 Y143.92 E32.82207
G1 X108.756 Y142.754 E32.89487
G1 X108.401 Y141.869 E32.94549
G1 X108.15 Y140.554 E33.01655
G1 X108.22 Y127.263 E33.72209
G1 X108.388 Y126.148 E33.78194
G1 X109.035 Y124.695 E33.86638
G1 X109.729 Y123.539 E33.93795
G1 X110.785 Y122.428 E34.01931
M204 S3000
M205 X10 Y10
G0 F6000 X111.152 Y122.855
M204 S300
M205 X8 Y8
G1 F2400 X112.288 Y122.079 E34.09234
G1 X113.622 Y121.524 E34.16904
G1 X114.948 Y121.232 E34.24112
G1 X186.928 Y121.232 E38.06204
G1 X187.985 Y121.412 E38.11896
G1 X189.253 Y121.892 E38.19093
G1 X190.4 Y122.487 E38.25952
G1 X191.583 Y123.597 E38.34563
G1 X192.387 Y124.725 E38.41916
G1 X193.101 Y126.402 E38.51592
G1 X193.256 Y127.5 E38.57478
G1 X193.255 Y174.472 E41.0682
G1 X193.112 Y175.545 E41.12567
G1 X192.414 Y177.265 E41.2242
G1 X191.425 Y178.547 E41.31015
G1 X190.667 Y179.318 E41.36754
G1 X189.626 Y179.929 E41.43162
G1 X188.377 Y180.484 E41.50417
G1 X187.071 Y180.757 E41.575
G1 X183.467 Y180.794 E41.76632
G1 X182.465 Y180.655 E41.82002
G1 X182.265 Y180.603 E41.83099
G1 X181.894 Y180.695 E41.85128
G1 X181.009 Y180.786 E41.8985
G1 X168.364 Y180.755 E42.56974
G1 X167.227 Y180.587 E42.63075
G1 X165.639 Y179.854 E42.72359
G1 X164.666 Y179.033 E42.79117
G1 X164.065 Y178.329 E42.84031
G1 X163.45 Y177.206 E42.90828
G1 X163.115 Y176.254 E42.96185
G1 X162.991 Y174.954 E43.03117
G1 X163.019 Y174.23 E43.06963
G1 X163.308 Y172.845 E43.14474
G1 X163.814 Y171.967 E43.19853
G1 X163.813 Y162.162 E43.71901
G1 X145.577 Y162.162 E44.68703
G1 X145.58 Y171.951 E45.20667
G1 X145.813 Y172.346 E45.23101
G1 X146.189 Y173.283 E45.2846
G1 X146.447 Y174.741 E45.3632
G1 X146.237 Y176.351 E45.44939
G1 X145.79 Y177.552 E45.51741
G1 X145.256 Y178.376 E45.56954
G1 X144.715 Y178.998 E45.6133
G1 X143.86 Y179.782 E45.67487
G1 X142.495 Y180.479 E45.75623
G1 X140.986 Y180.792 E45.83804
G1 X114.85 Y180.726 E47.22543
G1 X113.81 Y180.569 E47.28126
G1 X112.237 Y179.853 E47.373
G1 X111.231 Y179.236 E47.43565
G1 X110.183 Y178.103 E47.51757
G1 X109.413 Y176.896 E47.59357
G1 X108.947 Y175.551 E47.66913
G1 X108.732 Y174.55 E47.72348
G1 X108.725 Y161.754 E48.40273
G1 X108.863 Y160.662 E48.46116
G1 X109.145 Y159.758 E48.51143
G1 X109.812 Y158.536 E48.58533
G1 X110.692 Y157.572 E48.65462
G1 X111.666 Y156.867 E48.71844
G1 X112.928 Y156.306 E48.79176
G1 X114.02 Y156.115 E48.8506
G1 X114.12 Y155.947 E48.86098
G1 X114.12 Y146.089 E49.38428
G1 X114.034 Y145.894 E49.39559
G1 X113.444 Y145.787 E49.42742
G1 X112.086 Y145.385 E49.5026
G1 X110.741 Y144.481 E49.58862
G1 X109.927 Y143.582 E49.653
G1 X109.259 Y142.503 E49.72036
G1 X108.94 Y141.708 E49.76584
G1 X108.71 Y140.503 E49.83096
G1 X108.774 Y127.347 E50.52933
G1 X108.931 Y126.307 E50.58516
G1 X109.547 Y124.923 E50.66557
G1 X110.177 Y123.881 E50.73021
G1 X111.152 Y122.855 E50.80534
M204 S3000
M205 X10 Y10
G0 F6000 X111.516 Y123.285
M204 S300
M205 X8 Y8
G1 F2400 X112.559 Y122.573 E50.87238
G1 X113.79 Y122.061 E50.94315
G1 X115.01 Y121.792 E51.00947
G1 X186.881 Y121.792 E54.82461
G1 X187.836 Y121.955 E54.87604
G1 X189.055 Y122.416 E54.94522
G1 X190.073 Y122.948 E55.00619
G1 X191.158 Y123.966 E55.08517
G1 X191.897 Y125.002 E55.15272
G1 X192.556 Y126.55 E55.24203
G1 X192.701 Y127.578 E55.29714
G1 X192.7 Y174.398 E57.78249
G1 X192.566 Y175.401 E57.83621
G1 X191.924 Y176.984 E57.92689
G1 X191.026 Y178.154 E58.00518
G1 X190.319 Y178.873 E58.05871
G1 X189.398 Y179.417 E58.11549
G1 X188.202 Y179.949 E58.18497
G1 X187.011 Y180.198 E58.24956
G1 X183.461 Y180.234 E58.43802
G1 X182.545 Y180.101 E58.48715
G1 X182.273 Y180.022 E58.50219
G1 X181.835 Y180.138 E58.52624
G1 X181.01 Y180.226 E58.57028
G1 X168.446 Y180.201 E59.23722
G1 X167.387 Y180.045 E59.29404
G1 X165.943 Y179.378 E59.37847
G1 X165.064 Y178.636 E59.43954
G1 X164.527 Y178.007 E59.48344
G1 X163.963 Y176.977 E59.54577
G1 X163.666 Y176.132 E59.59332
G1 X163.551 Y174.975 E59.65504
G1 X163.577 Y174.294 E59.69122
G1 X163.837 Y173.048 E59.75878
G1 X164.374 Y172.117 E59.81583
G1 X164.373 Y161.602 E60.374
G1 X145.017 Y161.602 E61.40148
G1 X145.02 Y172.109 E61.95923
G1 X145.293 Y172.554 E61.98694
G1 X145.648 Y173.44 E62.03761
G1 X145.881 Y174.754 E62.10845
G1 X145.691 Y176.212 E62.1865
G1 X145.286 Y177.299 E62.24807
G1 X144.833 Y178.008 E62.29273
G1 X144.292 Y178.63 E62.33649
G1 X143.539 Y179.317 E62.3906
G1 X142.305 Y179.947 E62.46415
G1 X140.931 Y180.232 E62.53864
G1 X114.933 Y180.172 E63.9187
G1 X113.97 Y180.027 E63.97039
G1 X112.53 Y179.376 E64.05428
G1 X111.589 Y178.799 E64.11288
G1 X110.628 Y177.76 E64.188
G1 X109.922 Y176.653 E64.2577
G1 X109.495 Y175.433 E64.32631
G1 X109.292 Y174.488 E64.37762
G1 X109.281 Y161.824 E65.04987
G1 X109.413 Y160.782 E65.10562
G1 X109.664 Y159.977 E65.15038
G1 X110.272 Y158.862 E65.2178
G1 X111.067 Y157.992 E65.28036
G1 X111.946 Y157.355 E65.33798
G1 X113.092 Y156.846 E65.40455
G1 X114.094 Y156.671 E65.45854
G1 X114.367 Y156.558 E65.47422
G1 X114.545 Y156.359 E65.4884
G1 X114.68 Y156.072 E65.50523
G1 X114.68 Y145.993 E66.04026
G1 X114.554 Y145.632 E66.06056
G1 X114.383 Y145.448 E66.07389
G1 X114.237 Y145.362 E66.08288
G1 X113.603 Y145.25 E66.11706
G1 X112.327 Y144.872 E66.1877
G1 X111.11 Y144.054 E66.26554
G1 X110.376 Y143.244 E66.32357
G1 X109.762 Y142.252 E66.3855
G1 X109.479 Y141.547 E66.42582
G1 X109.27 Y140.452 E66.485
G1 X109.328 Y127.431 E67.1762
G1 X109.474 Y126.466 E67.22801
G1 X110.059 Y125.151 E67.30441
G1 X110.623 Y124.225 E67.36196
G1 X111.516 Y123.285 E67.43079
M204 S3000
M205 X10 Y10
G0 F6000 X111.883 Y123.712
M204 S300
M205 X8 Y8
G1 F2400 X112.826 Y123.068 E67.49141
G1 X113.959 Y122.597 E67.55654
G1 X115.071 Y122.352 E67.61698
G1 X186.834 Y122.352 E71.42639
G1 X187.687 Y122.498 E71.47233
G1 X188.857 Y122.94 E71.53872
G1 X189.747 Y123.41 E71.59215
G1 X190.733 Y124.335 E71.66392
G1 X191.407 Y125.279 E71.72549
G1 X192.011 Y126.698 E71.80735
G1 X192.146 Y127.656 E71.85871
G1 X192.145 Y174.324 E74.33599
G1 X192.02 Y175.257 E74.38596
G1 X191.434 Y176.703 E74.46879
G1 X190.627 Y177.761 E74.53942
G1 X189.971 Y178.428 E74.58908
G1 X189.17 Y178.905 E74.63857
G1 X188.026 Y179.414 E74.70504
G1 X186.951 Y179.639 E74.76334
G1 X183.498 Y179.674 E74.94664
G1 X182.626 Y179.547 E74.99342
G1 X182.284 Y179.436 E75.01251
G1 X181.773 Y179.581 E75.0407
G1 X181.011 Y179.666 E75.0814
G1 X168.527 Y179.647 E75.74409
G1 X167.548 Y179.503 E75.79662
G1 X166.247 Y178.902 E75.8727
G1 X165.462 Y178.239 E75.92724
G1 X164.989 Y177.685 E75.96591
G1 X164.476 Y176.748 E76.02261
G1 X164.217 Y176.011 E76.06408
G1 X164.111 Y174.996 E76.11825
G1 X164.135 Y174.358 E76.15214
G1 X164.366 Y173.251 E76.21217
G1 X164.934 Y172.267 E76.27249
G1 X164.933 Y161.042 E76.86834
G1 X144.457 Y161.042 E77.95528
G1 X144.46 Y172.272 E78.5514
G1 X144.773 Y172.763 E78.58231
G1 X145.108 Y173.598 E78.63007
G1 X145.315 Y174.767 E78.69309
G1 X145.145 Y176.073 E78.763
G1 X144.781 Y177.05 E78.81834
G1 X144.41 Y177.64 E78.85534
G1 X143.869 Y178.262 E78.8991
G1 X143.217 Y178.853 E78.94581
G1 X142.117 Y179.414 E79.01136
G1 X140.875 Y179.672 E79.0787
G1 X115.017 Y179.618 E80.45132
G1 X114.129 Y179.484 E80.49899
G1 X112.823 Y178.899 E80.57496
G1 X111.947 Y178.362 E80.6295
G1 X111.073 Y177.417 E80.69783
G1 X110.43 Y176.409 E80.7613
G1 X110.024 Y175.248 E80.82659
G1 X109.852 Y174.429 E80.87101
G1 X109.841 Y161.824 E81.54012
G1 X109.962 Y160.904 E81.58938
G1 X110.182 Y160.197 E81.62869
G1 X110.731 Y159.191 E81.68952
G1 X111.444 Y158.41 E81.74566
G1 X112.227 Y157.843 E81.79698
G1 X113.255 Y157.386 E81.85669
G1 X114.252 Y157.212 E81.91042
G1 X114.698 Y157.028 E81.93603
G1 X115.018 Y156.671 E81.96148
G1 X115.205 Y156.274 E81.98477
G1 X115.24 Y156.039 E81.99739
G1 X115.24 Y145.897 E82.53575
G1 X115.044 Y145.337 E82.56725
G1 X114.738 Y145.007 E82.59114
G1 X114.434 Y144.828 E82.60987
G1 X113.762 Y144.713 E82.64606
G1 X112.568 Y144.359 E82.71216
G1 X111.479 Y143.627 E82.78182
G1 X110.825 Y142.906 E82.83349
G1 X110.265 Y142.001 E82.88998
G1 X110.018 Y141.386 E82.92516
G1 X109.83 Y140.401 E82.9784
G1 X109.882 Y127.515 E83.66243
G1 X110.017 Y126.625 E83.71022
G1 X110.571 Y125.379 E83.7826
G1 X111.069 Y124.569 E83.83307
G1 X111.883 Y123.712 E83.89582
M204 S3000
M205 X10 Y10
G0 F6000 X112.25 Y124.139
M204 S300
M205 X8 Y8
G1 F2400 X113.093 Y123.563 E83.95001
G1 X114.126 Y123.134 E84.00939
G1 X115.133 Y122.912 E84.06413
G1 X186.787 Y122.912 E87.86775
G1 X187.542 Y123.041 E87.90841
G1 X188.595 Y123.435 E87.96809
G1 X189.418 Y123.87 E88.0175
G1 X190.311 Y124.707 E88.08247
G1 X190.917 Y125.556 E88.13785
G1 X191.466 Y126.846 E88.21227
G1 X191.591 Y127.734 E88.25987
G1 X191.59 Y174.25 E90.72909
G1 X191.475 Y175.111 E90.7752
G1 X190.943 Y176.422 E90.8503
G1 X190.228 Y177.368 E90.91325
G1 X189.623 Y177.983 E90.95904
G1 X188.942 Y178.393 E91.00124
G1 X187.85 Y178.879 E91.06469
G1 X186.891 Y179.08 E91.1167
G1 X183.535 Y179.114 E91.29485
G1 X182.707 Y178.993 E91.33927
G1 X182.3 Y178.847 E91.36223
G1 X181.708 Y179.025 E91.39504
G1 X181.012 Y179.106 E91.43224
G1 X168.608 Y179.093 E92.09068
G1 X167.709 Y178.961 E92.13891
G1 X166.551 Y178.426 E92.20663
G1 X165.86 Y177.842 E92.25465
G1 X165.451 Y177.363 E92.28809
G1 X164.989 Y176.519 E92.33916
G1 X164.768 Y175.89 E92.37455
G1 X164.671 Y175.017 E92.42118
G1 X164.693 Y174.422 E92.45279
G1 X164.895 Y173.454 E92.50528
G1 X165.494 Y172.417 E92.56885
G1 X165.493 Y160.482 E93.2024
G1 X143.897 Y160.482 E94.34878
G1 X143.9 Y172.435 E94.98328
G1 X144.272 Y173.019 E95.02004
G1 X144.567 Y173.755 E95.06213
G1 X144.749 Y174.78 E95.11739
G1 X144.599 Y175.934 E95.17917
G1 X144.275 Y176.803 E95.2284
G1 X143.987 Y177.272 E95.25761
G1 X143.446 Y177.894 E95.30137
G1 X142.899 Y178.386 E95.34043
G1 X141.927 Y178.882 E95.39835
G1 X140.819 Y179.112 E95.45842
G1 X115.101 Y179.064 E96.82362
G1 X114.287 Y178.941 E96.86732
G1 X113.116 Y178.421 E96.93533
G1 X112.303 Y177.923 E96.98594
G1 X111.518 Y177.074 E97.04732
G1 X110.938 Y176.164 E97.1046
G1 X110.572 Y175.133 E97.16268
G1 X110.412 Y174.371 E97.20401
G1 X110.401 Y161.824 E97.87005
G1 X110.511 Y161.026 E97.91281
G1 X110.701 Y160.416 E97.94672
G1 X111.19 Y159.52 E98.00091
G1 X111.822 Y158.828 E98.05065
G1 X112.507 Y158.331 E98.09558
G1 X113.419 Y157.926 E98.14855
G1 X114.408 Y157.754 E98.20184
G1 X115.03 Y157.496 E98.23758
G1 X115.488 Y156.986 E98.27397
G1 X115.747 Y156.437 E98.30619
G1 X115.8 Y156.081 E98.3253
G1 X115.8 Y145.914 E98.86499
G1 X115.769 Y145.712 E98.87584
G1 X115.545 Y145.072 E98.91184
G1 X115.332 Y144.789 E98.93064
G1 X115.072 Y144.554 E98.94924
G1 X114.63 Y144.293 E98.97649
G1 X113.856 Y144.161 E99.01817
G1 X112.812 Y143.848 E99.07603
G1 X111.847 Y143.199 E99.13776
G1 X111.274 Y142.568 E99.183
G1 X110.768 Y141.75 E99.23406
G1 X110.557 Y141.225 E99.2641
G1 X110.39 Y140.349 E99.31144
G1 X110.436 Y127.599 E99.98825
G1 X110.56 Y126.783 E100.03206
G1 X111.083 Y125.606 E100.10043
G1 X111.514 Y124.914 E100.14371
G1 X112.25 Y124.139 E100.20044
M204 S3000
M205 X10 Y10
G0 F6000 X112.614 Y124.569
M204 S300
M205 X8 Y8
G1 F2400 X113.364 Y124.057 E100.24865
G1 X114.293 Y123.671 E100.30205
G1 X115.195 Y123.472 E100.35108
G1 X186.74 Y123.472 E104.14892
G1 X187.397 Y123.584 E104.1843
