;FLAVOR:Marlin
;TIME:1408
;Filament used: 1.47274m
;Layer height: 0.15
;MINX:116.417
;MINY:139.921
;MINZ:0.3
;MAXX:185.6
;MAXY:162.1
;MAXZ:19.95
;TARGET_MACHINE.NAME:Unknown
;Generated with Cura_SteamEngine 5.7.2
M140 S60
M105
M190 S60
M104 S200
M105
M109 S200
M82 ;absolute extrusion mode
; Script based on an original created by tjjfvi (https://github.com/tjjfvi)
; An up-to-date version of the tjjfvi's original script can be found
; here:  https://csi.t6.fyi/
; Note - This script will only work in Cura V4.2 and above!
; --- Global Settings
; layer_height = 0.15
; smooth_spiralized_contours = True
; magic_mesh_surface_mode = normal
; machine_extruder_count = 1
; --- Single Extruder Settings
; speed_z_hop = 10
; retraction_amount = 6.5
; retraction_hop = 1
; retraction_hop_enabled = False
; retraction_enable = True
; retraction_speed = 25
; retraction_retract_speed = 25
; retraction_prime_speed = 25
; speed_travel = 120

G28 ;Home
G1 Z15.0 F6000 ;Move the platform down 15mm
;Prime the extruder
G92 E0
G1 F200 E3
G92 E0
G92 E0
G92 E0
G1 F1500 E-6.5
;LAYER_COUNT:132
;LAYER:0
M107
G0 F3600 X118.378 Y145.88 Z0.3
;TYPE:SKIRT
G1 F1500 E0
G1 F1800 X119.034 Y145.4 E0.04055
G1 X119.884 Y144.985 E0.08774
G1 X120.414 Y144.784 E0.11602
G1 X121.094 Y144.634 E0.15077
G1 X121.786 Y144.557 E0.1855
G1 X122.841 Y144.616 E0.23822
G1 X125.667 Y145.178 E0.38197
G1 X128.371 Y145.637 E0.5188
G1 X131.093 Y146.021 E0.65595
G1 X133.787 Y146.323 E0.79119
G1 X136.524 Y146.553 E0.92822
G1 X139.214 Y146.701 E1.06263
G1 X141.966 Y146.775 E1.19998
G1 X144.661 Y146.771 E1.33443
G1 X147.413 Y146.689 E1.47179
G1 X150.144 Y146.531 E1.60827
G1 X152.843 Y146.299 E1.74342
G1 X155.533 Y145.988 E1.87852
G1 X158.279 Y145.594 E2.01692
G1 X160.926 Y145.135 E2.15095
G1 X163.614 Y144.593 E2.28776
G1 X166.238 Y143.987 E2.42211
G1 X168.933 Y143.281 E2.5611
G1 X171.513 Y142.526 E2.69522
G1 X174.12 Y141.684 E2.8319
G1 X176.679 Y140.777 E2.96735
G1 X178.136 Y140.224 E3.0451
G1 X178.827 Y140.038 E3.0808
G1 X179.287 Y139.962 E3.10406
G1 X180.087 Y139.921 E3.14403
G1 X180.616 Y139.954 E3.17047
G1 X181.43 Y140.082 E3.21158
G1 X182.409 Y140.442 E3.26362
G1 X183.143 Y140.881 E3.30629
G1 X183.847 Y141.431 E3.35086
G1 X184.526 Y142.204 E3.40219
G1 X185.056 Y143.091 E3.45374
G1 X185.361 Y143.941 E3.49879
G1 X185.481 Y144.415 E3.52319
G1 X185.591 Y145.24 E3.56471
G1 X185.6 Y145.849 E3.5951
G1 X185.593 Y155.936 E4.09834
G1 X185.6 Y157.814 E4.19203
G1 X185.59 Y158.541 E4.22831
G1 X185.53 Y159.138 E4.25824
G1 X185.384 Y159.687 E4.28658
G1 X185.153 Y160.207 E4.31497
G1 X184.844 Y160.683 E4.34328
G1 X184.462 Y161.107 E4.37176
G1 X184.071 Y161.427 E4.39696
G1 X183.528 Y161.745 E4.42836
G1 X183.057 Y161.929 E4.45359
G1 X182.449 Y162.061 E4.48463
G1 X182.005 Y162.098 E4.50685
G1 X172.656 Y162.1 E4.97328
G1 X171.952 Y162.09 E5.0084
G1 X171.288 Y162.024 E5.04169
G1 X168.3 Y161.246 E5.19574
G1 X165.615 Y160.629 E5.33318
G1 X162.935 Y160.093 E5.46954
G1 X160.272 Y159.637 E5.60433
G1 X157.583 Y159.255 E5.73983
G1 X154.869 Y158.948 E5.87609
G1 X152.126 Y158.715 E6.01344
G1 X149.433 Y158.564 E6.148
G1 X146.683 Y158.488 E6.28525
G1 X143.019 Y158.485 E6.46805
G1 X139.467 Y158.37 E6.64535
G1 X138.446 Y158.32 E6.69635
G1 X134.985 Y158.043 E6.86957
G1 X133.849 Y157.933 E6.92651
G1 X130.343 Y157.484 E7.10286
G1 X129.303 Y157.333 E7.15529
G1 X125.814 Y156.716 E7.33206
G1 X124.833 Y156.525 E7.38192
G1 X121.259 Y155.718 E7.56471
G1 X120.476 Y155.528 E7.60491
G1 X119.58 Y155.201 E7.6525
G1 X118.84 Y154.752 E7.69568
G1 X118.246 Y154.28 E7.73353
G1 X117.643 Y153.665 E7.7765
G1 X117.113 Y152.838 E7.82551
G1 X116.875 Y152.352 E7.8525
G1 X116.581 Y151.54 E7.89559
G1 X116.417 Y150.592 E7.94359
G1 X116.434 Y149.714 E7.9874
G1 X116.494 Y149.216 E8.01242
G1 X116.686 Y148.373 E8.05556
G1 X117.064 Y147.502 E8.10293
G1 X117.652 Y146.612 E8.15615
G1 X118.378 Y145.88 E8.20758
G0 F3600 X118.614 Y146.203
G1 F1800 X119.27 Y145.723 E8.24814
G1 X120.029 Y145.358 E8.29015
G1 X120.5 Y145.175 E8.31536
G1 X121.18 Y145.025 E8.3501
G1 X121.765 Y144.956 E8.37949
G1 X122.763 Y145.008 E8.42935
G1 X125.594 Y145.571 E8.57335
G1 X128.315 Y146.033 E8.71105
G1 X131.048 Y146.419 E8.84875
G1 X133.742 Y146.721 E8.984
G1 X136.491 Y146.951 E9.12163
G1 X139.203 Y147.101 E9.25713
G1 X141.956 Y147.175 E9.39453
G1 X144.673 Y147.171 E9.53008
G1 X147.425 Y147.089 E9.66744
G1 X150.178 Y146.929 E9.80502
G1 X152.877 Y146.697 E9.94017
G1 X155.59 Y146.384 E10.07642
G1 X158.336 Y145.99 E10.21482
G1 X161.002 Y145.528 E10.34981
G1 X163.704 Y144.983 E10.48733
G1 X166.328 Y144.377 E10.62169
G1 X169.041 Y143.666 E10.76161
G1 X171.636 Y142.907 E10.8965
G1 X174.243 Y142.065 E11.03318
G1 X176.813 Y141.154 E11.16922
G1 X178.278 Y140.598 E11.24739
G1 X178.892 Y140.433 E11.27911
G1 X179.352 Y140.357 E11.30237
G1 X180.063 Y140.32 E11.33789
G1 X180.554 Y140.349 E11.36243
G1 X181.33 Y140.471 E11.40162
G1 X182.236 Y140.804 E11.44978
G1 X182.938 Y141.224 E11.49059
G1 X183.571 Y141.722 E11.53077
G1 X184.202 Y142.44 E11.57846
G1 X184.692 Y143.261 E11.62616
G1 X184.973 Y144.039 E11.66743
G1 X185.093 Y144.513 E11.69182
G1 X185.191 Y145.246 E11.72872
G1 X185.2 Y145.849 E11.75881
G1 X185.193 Y155.936 E12.26205
G1 X185.2 Y157.808 E12.35544
G1 X185.19 Y158.535 E12.39172
G1 X185.143 Y159.038 E12.41692
G1 X185.017 Y159.528 E12.44216
G1 X184.816 Y159.992 E12.46739
G1 X184.544 Y160.418 E12.49261
G1 X184.209 Y160.797 E12.51784
G1 X183.818 Y161.117 E12.54305
G1 X183.382 Y161.372 E12.56825
G1 X182.911 Y161.556 E12.59348
G1 X182.416 Y161.662 E12.61873
G1 X181.972 Y161.699 E12.64096
G1 X172.662 Y161.7 E13.10544
G1 X171.958 Y161.69 E13.14056
G1 X171.389 Y161.637 E13.16907
G1 X168.39 Y160.856 E13.32369
G1 X165.705 Y160.239 E13.46113
G1 X163.003 Y159.699 E13.5986
G1 X160.328 Y159.241 E13.734
G1 X157.639 Y158.859 E13.8695
G1 X154.903 Y158.549 E14.00687
G1 X152.16 Y158.317 E14.14421
G1 X149.444 Y158.164 E14.27993
G1 X146.694 Y158.088 E14.41718
G1 X143.032 Y158.085 E14.59988
G1 X139.486 Y157.97 E14.77688
G1 X138.478 Y157.921 E14.82723
G1 X135.024 Y157.645 E15.0001
G1 X133.9 Y157.536 E15.05644
G1 X130.4 Y157.088 E15.23248
G1 X129.373 Y156.939 E15.28425
G1 X125.89 Y156.323 E15.46072
G1 X124.921 Y156.135 E15.50996
G1 X121.353 Y155.329 E15.69246
G1 X120.57 Y155.139 E15.73265
G1 X119.756 Y154.84 E15.77592
G1 X119.088 Y154.438 E15.81481
G1 X118.532 Y154 E15.85013
G1 X117.958 Y153.414 E15.89105
G1 X117.45 Y152.622 E15.93799
G1 X117.235 Y152.178 E15.9626
G1 X116.975 Y151.472 E16.00014
G1 X116.818 Y150.563 E16.04616
G1 X116.834 Y149.722 E16.08813
G1 X116.884 Y149.305 E16.10908
G1 X117.068 Y148.498 E16.15037
G1 X117.431 Y147.661 E16.19589
G1 X117.963 Y146.866 E16.24361
G1 X118.614 Y146.203 E16.28997
G1 F1500 E9.78997
;MESH:Case_1-Clip.stl
G0 F3600 X151.167 Y150.014
G0 X151.261 Y151.094
G0 X165.46 Y151.526
G0 X165.551 Y151.97
;TYPE:WALL-INNER
G1 F1500 E16.28997
G1 F1800 X165.78 Y152.209 E16.30648
G1 X165.848 Y152.488 E16.32081
G1 X165.848 Y156.148 E16.50341
G1 X166.648 Y156.148 E16.54332
G1 X166.648 Y151.996 E16.75047
G1 X166.738 Y151.678 E16.76695
G1 X166.84 Y151.555 E16.77493
G1 X167.026 Y151.433 E16.78602
G1 X168.259 Y151.111 E16.8496
G1 X169.407 Y150.795 E16.90901
G1 X170.668 Y150.427 E16.97454
G1 X171.1 Y150.404 E16.99612
G1 X171.671 Y150.549 E17.02552
G1 X171.866 Y150.662 E17.03676
G1 X172.282 Y151.041 E17.06484
G1 X172.507 Y151.465 E17.08878
G1 X172.596 Y151.951 E17.11343
G1 X172.6 Y157.9 E17.41023
G1 X181.4 Y157.9 E17.84926
G1 X181.4 Y157.1 E17.88918
G1 X174.5 Y157.1 E18.23342
G1 X173.978 Y156.797 E18.26353
G1 X173.9 Y156.579 E18.27508
G1 X173.9 Y154.5 E18.3788
G1 X174.019 Y154.139 E18.39777
G1 X174.269 Y153.946 E18.41352
G1 X174.5 Y153.9 E18.42527
G1 X181.399 Y153.9 E18.76947
G1 X181.396 Y145.354 E19.19583
G1 X181.312 Y145.022 E19.21291
G1 X181.078 Y144.612 E19.23647
G1 X180.883 Y144.42 E19.25012
G1 X180.501 Y144.196 E19.27221
G1 X180.263 Y144.128 E19.28456
G1 X179.896 Y144.107 E19.3029
G1 X179.584 Y144.158 E19.31867
G1 X175.569 Y145.794 E19.53497
G1 X171.665 Y147.178 E19.74162
G1 X167.651 Y148.386 E19.95075
G1 X163.642 Y149.393 E20.15698
G1 X159.527 Y150.218 E20.36636
G1 X155.406 Y150.845 E20.57432
G1 X151.258 Y151.276 E20.78238
G1 X147.098 Y151.508 E20.99025
G1 X142.932 Y151.544 E21.1981
G1 X138.773 Y151.382 E21.40575
G1 X134.616 Y151.027 E21.6139
G1 X130.452 Y150.467 E21.82351
G1 X126.388 Y149.725 E22.02962
G1 X122.311 Y148.781 E22.2384
G1 X121.846 Y148.756 E22.26163
G1 X121.605 Y148.806 E22.27391
G1 X121.196 Y149.001 E22.29652
G1 X120.835 Y149.369 E22.32224
G1 X120.654 Y149.77 E22.34418
G1 X120.604 Y150.122 E22.36192
G1 X120.671 Y150.577 E22.38487
G1 X120.831 Y150.909 E22.40325
G1 X120.994 Y151.111 E22.4162
G1 X121.274 Y151.332 E22.434
G1 X121.581 Y151.482 E22.45105
G1 X125.936 Y152.471 E22.67385
G1 X130.303 Y153.246 E22.89513
G1 X134.607 Y153.795 E23.11159
G1 X138.979 Y154.148 E23.33042
G1 X143.358 Y154.296 E23.54902
G1 X147.777 Y154.231 E23.7695
G1 X152.12 Y153.958 E23.98661
G1 X156.436 Y153.485 E24.20322
G1 X160.848 Y152.787 E24.42607
G1 X165.126 Y151.9 E24.64404
G1 X165.404 Y151.908 E24.65792
G1 X165.551 Y151.97 E24.66588
G0 F3600 X165.448 Y152.418
;TYPE:WALL-OUTER
G1 F1800 X165.448 Y156.136 E24.85137
G1 X165.32 Y156.324 E24.86272
G1 X165.06 Y156.336 E24.8757
G1 X165.32 Y156.548 E24.89244
G1 X167.048 Y156.548 E24.97865
G1 X167.048 Y151.996 E25.20575
G1 X167.078 Y151.89 E25.21125
G1 X167.166 Y151.813 E25.21708
G1 X168.365 Y151.497 E25.27894
G1 X169.519 Y151.179 E25.33866
G1 X170.78 Y150.811 E25.4042
G1 X171.158 Y150.812 E25.42305
G1 X171.539 Y150.927 E25.44291
G1 X171.936 Y151.252 E25.46851
G1 X172.14 Y151.624 E25.48967
G1 X172.194 Y151.92 E25.50468
G1 X172.2 Y158.3 E25.82298
G1 X181.8 Y158.3 E26.30193
G1 X181.8 Y156.7 E26.38175
G1 X174.5 Y156.7 E26.74595
G1 X174.303 Y156.586 E26.75731
G1 X174.3 Y154.5 E26.86138
G1 X174.339 Y154.379 E26.86772
G1 X174.443 Y154.3 E26.87424
G1 X181.799 Y154.3 E27.24123
G1 X181.796 Y145.305 E27.68999
G1 X181.69 Y144.885 E27.7116
G1 X181.535 Y144.563 E27.72943
G1 X181.129 Y144.1 E27.76015
G1 X180.66 Y143.826 E27.78725
G1 X180.33 Y143.731 E27.80439
G1 X179.875 Y143.705 E27.82712
G1 X179.475 Y143.77 E27.84734
G1 X175.435 Y145.417 E28.065
G1 X171.522 Y146.804 E28.27212
G1 X167.553 Y147.998 E28.4789
G1 X163.564 Y149.001 E28.68411
G1 X159.467 Y149.822 E28.89257
G1 X155.365 Y150.447 E29.09959
G1 X151.236 Y150.876 E29.30669
G1 X147.094 Y151.108 E29.51366
G1 X142.948 Y151.144 E29.72051
G1 X138.807 Y150.984 E29.92726
G1 X134.669 Y150.631 E30.13446
G1 X130.524 Y150.073 E30.34312
G1 X126.478 Y149.335 E30.5483
G1 X122.367 Y148.383 E30.75883
G1 X121.816 Y148.354 E30.78636
G1 X121.477 Y148.424 E30.80363
G1 X120.978 Y148.662 E30.83121
G1 X120.712 Y148.885 E30.84853
G1 X120.492 Y149.158 E30.86602
G1 X120.266 Y149.657 E30.89335
G1 X120.202 Y150.108 E30.91607
G1 X120.227 Y150.451 E30.93323
G1 X120.293 Y150.715 E30.94681
G1 X120.491 Y151.124 E30.96948
G1 X120.71 Y151.397 E30.98694
G1 X121.06 Y151.673 E31.00918
G1 X121.447 Y151.862 E31.03066
G1 X125.856 Y152.863 E31.25623
G1 X130.243 Y153.642 E31.47852
G1 X134.565 Y154.193 E31.69589
G1 X138.956 Y154.548 E31.91567
G1 X143.354 Y154.696 E32.13522
G1 X147.76 Y154.632 E32.35505
G1 X152.194 Y154.353 E32.57671
G1 X156.446 Y153.887 E32.79011
G1 X160.888 Y153.187 E33.01446
G1 X165.207 Y152.292 E33.23451
G1 X165.349 Y152.315 E33.24169
G1 X165.448 Y152.418 E33.24881
G0 F3600 X165.448 Y152.618
G0 X166.15 Y152.618
G0 X166.419 Y151.359
G0 X170.721 Y150.165
G0 X171.89 Y150.37
G0 X172.762 Y151.444
G0 X173.672 Y157.328
G0 X181 Y157.5
;TYPE:SKIN
G1 F1636.4 X174.504 Y157.5 E33.60531
G0 F3600 X173.672 Y157.328
G0 X173.578 Y157.024
G1 F1290.3 X173.68 Y157.126 E33.61535
G1 F1363.6 X174.386 Y157.484 E33.66748
G1 X173.595 Y157.441 E33.71965
G1 F1290.3 X173.059 Y157.441 E33.75695
G1 F1395.3 X173.016 Y156.681 E33.80594
G1 F1503.1 X173.019 Y154.347 E33.94538
G1 F1629 X172.977 Y153.854 E33.97266
G1 F1800 X172.973 Y151.914 E34.06945
G1 X172.852 Y151.308 E34.10028
G1 X172.586 Y150.809 E34.12849
G1 X172.083 Y150.35 E34.16246
G1 X171.783 Y150.184 E34.17957
G1 X171.148 Y150.029 E34.21218
G1 X170.6 Y150.052 E34.23954
G1 X169.307 Y150.425 E34.30668
G1 X168.155 Y150.745 E34.36633
G1 X166.906 Y151.066 E34.43067
G1 X166.58 Y151.276 E34.45001
G1 X166.391 Y151.526 E34.46565
G1 X166.275 Y151.942 E34.4872
G1 F1702.1 X166.245 Y152.435 E34.51325
G1 X166.118 Y152.033 E34.5355
G1 F1800 X165.788 Y151.676 E34.55975
G1 X165.505 Y151.538 E34.57546
G1 X165.043 Y151.528 E34.59851
G1 X160.795 Y152.411 E34.81498
G1 X156.31 Y153.113 E35.04146
G1 X152.105 Y153.574 E35.2525
G1 X147.773 Y153.847 E35.46906
G1 X143.413 Y153.916 E35.68661
G1 X139.004 Y153.768 E35.9067
G1 X134.649 Y153.417 E36.12467
G1 X130.439 Y152.882 E36.3364
G1 X126.012 Y152.095 E36.56073
G1 X121.707 Y151.117 E36.78098
G1 X121.472 Y151.005 E36.79396
G1 X121.263 Y150.838 E36.80731
G1 X121.034 Y150.459 E36.8294
G1 X120.986 Y150.127 E36.84614
G1 X121.023 Y149.873 E36.85894
G1 X121.156 Y149.575 E36.87522
G1 X121.407 Y149.318 E36.89315
G1 X121.871 Y149.138 E36.91798
G1 X122.255 Y149.159 E36.93716
G1 X126.334 Y150.103 E37.14604
G1 X130.38 Y150.841 E37.35123
G1 X134.601 Y151.407 E37.5637
G1 X138.743 Y151.76 E37.7711
G1 X142.916 Y151.924 E37.97945
G1 X147.094 Y151.888 E38.1879
G1 X151.276 Y151.652 E38.39687
G1 X155.445 Y151.223 E38.60596
G1 X159.587 Y150.59 E38.815
G1 X163.72 Y149.765 E39.02527
G1 X167.757 Y148.75 E39.23294
G1 X171.718 Y147.56 E39.43928
G1 X175.695 Y146.149 E39.64982
G1 X179.69 Y144.523 E39.865
G1 X179.911 Y144.489 E39.87616
G1 X180.344 Y144.545 E39.89794
G1 X180.643 Y144.721 E39.91525
G1 X180.863 Y144.968 E39.93175
G1 X181.016 Y145.406 E39.9549
G1 X181.016 Y153.52 E40.35971
G1 X174.46 Y153.523 E40.68679
G1 X174.16 Y153.583 E40.70205
G1 X173.753 Y153.874 E40.72701
G1 F1629 X173.49 Y154.423 E40.76057
G1 F1503.1 X173.486 Y156.641 E40.89308
G1 F1395.3 X173.578 Y157.024 E40.91843
G0 F3600 X172.762 Y151.444
G0 X171.89 Y150.37
G0 X170.721 Y150.165
G0 X166.419 Y151.359
G0 X166.248 Y155.748
G1 F1625.3 X166.245 Y152.435 E41.10149
G0 F3600 X166.419 Y151.359
G0 X179.784 Y144.712
G1 F1800 X180.816 Y145.744 E41.1743
G0 F3600 X180.816 Y146.31
G1 F1800 X179.375 Y144.868 E41.27601
G0 F3600 X178.972 Y145.031
G1 F1800 X180.816 Y146.875 E41.40611
G0 F3600 X180.816 Y147.441
G1 F1800 X178.57 Y145.194 E41.56462
G0 F3600 X178.168 Y145.359
G1 F1800 X180.816 Y148.007 E41.75145
G0 F3600 X180.816 Y148.572
G1 F1800 X177.766 Y145.522 E41.96664
G0 F3600 X177.364 Y145.685
G1 F1800 X180.816 Y149.138 E42.21023
G0 F3600 X180.816 Y149.704
G1 F1800 X176.962 Y145.849 E42.48219
G0 F3600 X176.56 Y146.013
G1 F1800 X180.816 Y150.269 E42.78247
G0 F3600 X180.816 Y150.835
G1 F1800 X176.157 Y146.176 E43.11119
G0 F3600 X175.755 Y146.339
G1 F1800 X180.816 Y151.401 E43.46831
G0 F3600 X180.816 Y151.966
G1 F1800 X175.338 Y146.488 E43.85481
G0 F3600 X174.92 Y146.636
G1 F1800 X180.816 Y152.532 E44.2708
G0 F3600 X180.816 Y153.098
G1 F1800 X174.503 Y146.784 E44.71625
G0 F3600 X174.085 Y146.933
G1 F1800 X180.473 Y153.32 E45.16693
G0 F3600 X179.907 Y153.32
G1 F1800 X173.668 Y147.08 E45.60716
G0 F3600 X173.25 Y147.229
G1 F1800 X179.341 Y153.32 E46.03691
G0 F3600 X178.776 Y153.32
G1 F1800 X172.832 Y147.377 E46.45626
G0 F3600 X172.415 Y147.525
G1 F1800 X178.21 Y153.32 E46.86512
G0 F3600 X177.644 Y153.32
G1 F1800 X171.997 Y147.673 E47.26355
G0 F3600 X171.572 Y147.813
G1 F1800 X177.079 Y153.32 E47.6521
G0 F3600 X176.513 Y153.32
G1 F1800 X171.137 Y147.944 E48.03141
G0 F3600 X170.702 Y148.075
G1 F1800 X175.947 Y153.32 E48.40147
G0 F3600 X175.382 Y153.32
G1 F1800 X172.746 Y150.684 E48.58745
G1 X170.267 Y148.205 E48.76236
G0 F3600 X169.832 Y148.336
G1 F1800 X171.375 Y149.879 E48.87123
G0 F3600 X170.772 Y149.842
G1 F1800 X169.397 Y148.466 E48.96828
G0 F3600 X168.962 Y148.597
G1 F1800 X170.293 Y149.928 E49.06218
G0 F3600 X169.855 Y150.056
G1 F1800 X168.527 Y148.728 E49.15588
G0 F3600 X168.092 Y148.859
G1 F1800 X169.417 Y150.184 E49.24937
G0 F3600 X168.976 Y150.308
G1 F1800 X167.651 Y148.984 E49.34282
G0 F3600 X167.199 Y149.097
G1 F1800 X168.533 Y150.431 E49.43694
G0 F3600 X168.091 Y150.554
G1 F1800 X166.747 Y149.211 E49.53173
