;FLAVOR:Marlin
;TIME:4732
;Filament used: 5.84291m
;Layer height: 0.2
;MINX:106.2
;MINY:118.7
;MINZ:0.2
;MAXX:195.8
;MAXY:183.3
;MAXZ:19
;TARGET_MACHINE.NAME:Unknown
;Generated with Cura_SteamEngine 5.8.0
M140 S60
M105
M190 S60
M104 S195
M105
M109 S195
M82 ;absolute extrusion mode
G28 ;Home
G1 Z15.0 F6000 ;Move the platform down 15mm
;Prime the extruder
G92 E0
G1 F200 E3
G92 E0
G92 E0
G92 E0
G1 F2400 E-6
;LAYER_COUNT:95
;LAYER:0
M107
M204 S3000
M205 X10 Y10
G1 F1200 Z0.275
G0 F6000 X110.649 Y121.78 Z0.275
M204 S300
M205 X8 Y8
;TYPE:SKIRT
G1 F1200 Z0.2
G1 F2400 E0
G1 X112.092 Y120.962 E0.08805
G1 X113.292 Y120.44 E0.15752
G1 X114.867 Y120.112 E0.24292
G1 X187.014 Y120.111 E4.07271
G1 X188.233 Y120.319 E4.13835
G1 X189.821 Y120.878 E4.22772
G1 X191.113 Y121.651 E4.30764
G1 X192.358 Y122.736 E4.3953
G1 X192.772 Y123.239 E4.42988
G1 X193.544 Y124.602 E4.51304
G1 X194.171 Y126.044 E4.59651
G1 X194.348 Y127.312 E4.66447
G1 X194.389 Y174.559 E7.17249
G1 X194.192 Y175.718 E7.23489
G1 X193.645 Y177.181 E7.31781
G1 X192.986 Y178.459 E7.39413
G1 X191.786 Y179.828 E7.49077
G1 X191.212 Y180.299 E7.53019
G1 X189.745 Y181.12 E7.61943
G1 X188.687 Y181.567 E7.68039
G1 X187.186 Y181.888 E7.76187
G1 X114.985 Y181.889 E11.59453
G1 X113.742 Y181.676 E11.66148
G1 X112.217 Y181.133 E11.74741
G1 X110.87 Y180.332 E11.8306
G1 X109.49 Y179.135 E11.92757
G1 X109.374 Y178.995 E11.93722
G1 X108.509 Y177.514 E12.02826
G1 X107.966 Y176.293 E12.0992
G1 X107.594 Y174.654 E12.18841
G1 X107.635 Y127.38 E14.69787
G1 X107.799 Y126.158 E14.76332
G1 X108.482 Y124.458 E14.86057
G1 X109.374 Y123.082 E14.94762
G1 X110.649 Y121.78 E15.04435
M204 S3000
M205 X10 Y10
G0 F6000 X110.993 Y122.229
M204 S300
M205 X8 Y8
G1 F2400 X112.315 Y121.476 E15.12511
G1 X113.465 Y120.976 E15.19168
G1 X114.923 Y120.672 E15.27074
G1 X186.967 Y120.671 E19.09506
G1 X188.093 Y120.863 E19.1557
G1 X189.578 Y121.386 E19.23927
G1 X190.786 Y122.109 E19.314
G1 X191.955 Y123.127 E19.39629
G1 X192.307 Y123.556 E19.42575
G1 X193.03 Y124.825 E19.50328
G1 X193.626 Y126.197 E19.58268
G1 X193.793 Y127.39 E19.64663
G1 X193.829 Y174.512 E22.14801
G1 X193.649 Y175.569 E22.20493
G1 X193.12 Y176.985 E22.28517
G1 X192.519 Y178.142 E22.35438
G1 X191.396 Y179.424 E22.44485
G1 X190.894 Y179.836 E22.47932
G1 X189.527 Y180.604 E22.56255
G1 X188.519 Y181.03 E22.62064
G1 X187.125 Y181.328 E22.69631
G1 X115.032 Y181.329 E26.52324
G1 X113.887 Y181.133 E26.5849
G1 X112.452 Y180.622 E26.66576
G1 X111.201 Y179.878 E26.74303
G1 X109.857 Y178.712 E26.83748
G1 X109.021 Y177.287 E26.92518
G1 X108.5 Y176.115 E26.99326
G1 X108.154 Y174.592 E27.07617
G1 X108.19 Y127.454 E29.5784
G1 X108.344 Y126.304 E29.63999
G1 X108.982 Y124.717 E29.73079
G1 X109.814 Y123.433 E29.81201
G1 X110.993 Y122.229 E29.90146
M204 S3000
M205 X10 Y10
G0 F6000 X111.338 Y122.677
M204 S300
M205 X8 Y8
G1 F2400 X112.592 Y121.963 E29.97806
G1 X113.636 Y121.512 E30.03843
G1 X114.979 Y121.232 E30.11125
G1 X186.92 Y121.231 E33.93011
G1 X187.953 Y121.407 E33.98573
G1 X189.339 Y121.895 E34.06373
G1 X190.455 Y122.563 E34.13278
G1 X191.587 Y123.549 E34.21246
G1 X191.821 Y123.834 E34.23204
G1 X192.516 Y125.048 E34.3063
G1 X193.082 Y126.35 E34.38166
G1 X193.238 Y127.467 E34.44153
G1 X193.269 Y174.465 E36.93633
G1 X193.106 Y175.42 E36.98776
G1 X192.595 Y176.789 E37.06533
G1 X192.053 Y177.825 E37.12739
G1 X191.006 Y179.02 E37.21173
G1 X190.578 Y179.371 E37.24111
G1 X189.309 Y180.088 E37.31848
G1 X188.351 Y180.493 E37.3737
G1 X187.064 Y180.768 E37.44356
G1 X115.079 Y180.769 E41.26475
G1 X114.032 Y180.59 E41.32113
G1 X112.687 Y180.111 E41.39692
G1 X111.532 Y179.424 E41.46826
G1 X110.292 Y178.348 E41.55541
G1 X109.533 Y177.06 E41.63477
G1 X109.034 Y175.937 E41.7
G1 X108.714 Y174.53 E41.7766
G1 X108.745 Y127.529 E44.27156
G1 X108.89 Y126.449 E44.3294
G1 X109.483 Y124.973 E44.41384
G1 X110.252 Y123.786 E44.48892
G1 X111.338 Y122.677 E44.57131
M204 S3000
M205 X10 Y10
G0 F6000 X111.684 Y123.124
M204 S300
M205 X8 Y8
G1 F2400 X112.814 Y122.477 E44.64043
G1 X113.807 Y122.048 E44.69785
G1 X115.035 Y121.792 E44.76444
G1 X186.873 Y121.791 E48.57783
G1 X187.813 Y121.951 E48.62845
G1 X189.098 Y122.404 E48.70077
G1 X190.126 Y123.019 E48.76436
G1 X191.219 Y123.971 E48.8413
G1 X191.336 Y124.113 E48.85107
G1 X192.002 Y125.271 E48.92198
G1 X192.538 Y126.503 E48.9933
G1 X192.683 Y127.544 E49.0491
G1 X192.709 Y174.418 E51.53732
G1 X192.563 Y175.271 E51.58326
G1 X192.07 Y176.593 E51.65815
G1 X191.589 Y177.506 E51.71293
G1 X190.585 Y178.651 E51.79377
G1 X190.301 Y178.884 E51.81327
G1 X189.091 Y179.572 E51.88716
G1 X188.183 Y179.956 E51.93949
G1 X187.003 Y180.208 E52.00354
G1 X115.127 Y180.209 E55.81895
G1 X114.176 Y180.046 E55.87016
G1 X112.922 Y179.6 E55.94081
G1 X111.863 Y178.97 E56.00623
G1 X110.728 Y177.985 E56.086
G1 X110.045 Y176.832 E56.15714
G1 X109.567 Y175.757 E56.21959
G1 X109.274 Y174.468 E56.28976
G1 X109.3 Y127.603 E58.7775
G1 X109.435 Y126.595 E58.83149
G1 X109.984 Y125.229 E58.90964
G1 X110.69 Y124.139 E58.97857
G1 X111.684 Y123.124 E59.05399
M204 S3000
M205 X10 Y10
G0 F6000 X112.03 Y123.571
M204 S300
M205 X8 Y8
G1 F2400 X113.036 Y122.991 E59.11563
G1 X113.978 Y122.584 E59.1701
G1 X115.091 Y122.352 E59.23045
G1 X186.826 Y122.351 E63.03837
G1 X187.673 Y122.495 E63.08398
G1 X188.857 Y122.913 E63.15063
G1 X189.797 Y123.475 E63.20877
G1 X190.851 Y124.393 E63.28296
G1 X191.488 Y125.494 E63.35048
G1 X191.993 Y126.656 E63.41774
G1 X192.128 Y127.622 E63.46952
G1 X192.149 Y174.371 E65.9511
G1 X192.02 Y175.126 E65.99176
G1 X191.574 Y176.332 E66.06002
G1 X191.123 Y177.189 E66.11142
G1 X190.164 Y178.282 E66.18861
G1 X190.023 Y178.398 E66.1983
G1 X188.873 Y179.056 E66.26864
G1 X188.015 Y179.419 E66.31809
G1 X186.942 Y179.648 E66.37633
G1 X115.174 Y179.649 E70.186
G1 X114.321 Y179.503 E70.23194
G1 X113.157 Y179.089 E70.29752
G1 X112.194 Y178.516 E70.35701
G1 X111.164 Y177.622 E70.42941
G1 X110.557 Y176.604 E70.49232
G1 X110.1 Y175.577 E70.55199
G1 X109.834 Y174.406 E70.61574
G1 X109.855 Y127.678 E73.09621
G1 X109.981 Y126.74 E73.14645
G1 X110.485 Y125.485 E73.21824
G1 X111.128 Y124.492 E73.28103
G1 X112.03 Y123.571 E73.34946
M204 S3000
M205 X10 Y10
G0 F6000 X112.377 Y124.017
M204 S300
M205 X8 Y8
G1 F2400 X113.258 Y123.505 E73.40355
G1 X114.149 Y123.12 E73.45508
G1 X115.147 Y122.912 E73.50919
G1 X186.779 Y122.911 E77.31165
G1 X187.531 Y123.039 E77.35214
G1 X188.618 Y123.423 E77.41334
G1 X189.468 Y123.931 E77.4659
G1 X190.412 Y124.754 E77.53238
G1 X190.974 Y125.717 E77.59157
G1 X191.448 Y126.809 E77.65476
G1 X191.573 Y127.7 E77.70252
G1 X191.589 Y174.324 E80.17747
G1 X191.477 Y174.981 E80.21285
G1 X191.078 Y176.071 E80.27447
G1 X190.657 Y176.872 E80.3225
G1 X189.743 Y177.913 E80.39604
G1 X188.655 Y178.54 E80.4627
G1 X187.847 Y178.882 E80.50927
G1 X186.881 Y179.088 E80.5617
G1 X115.221 Y179.089 E84.36564
G1 X114.466 Y178.96 E84.4063
G1 X113.392 Y178.578 E84.46681
G1 X112.525 Y178.062 E84.52037
G1 X111.6 Y177.259 E84.58539
G1 X111.069 Y176.376 E84.64009
G1 X110.633 Y175.397 E84.69698
G1 X110.394 Y174.344 E84.75429
G1 X110.41 Y127.752 E87.22755
G1 X110.526 Y126.886 E87.27393
G1 X110.986 Y125.741 E87.33943
G1 X111.566 Y124.845 E87.39609
G1 X112.377 Y124.017 E87.45761
M204 S3000
M205 X10 Y10
G0 F6000 X112.725 Y124.462
M204 S300
M205 X8 Y8
G1 F2400 X113.48 Y124.019 E87.50408
G1 X114.32 Y123.656 E87.55265
G1 X115.203 Y123.472 E87.60053
G1 X186.732 Y123.471 E91.39752
G1 X187.389 Y123.583 E91.4329
G1 X188.379 Y123.933 E91.48864
G1 X189.139 Y124.387 E91.53563
G1 X189.974 Y125.115 E91.59444
G1 X190.49 Y125.999 E91.64877
G1 X190.903 Y126.959 E91.70425
G1 X191.018 Y127.778 E91.74815
G1 X191.029 Y174.277 E94.21646
G1 X190.934 Y174.835 E94.24651
G1 X190.582 Y175.81 E94.30153
G1 X190.192 Y176.552 E94.34603
G1 X189.382 Y177.474 E94.41118
G1 X188.437 Y178.024 E94.46922
G1 X187.679 Y178.345 E94.51292
G1 X186.82 Y178.528 E94.55954
G1 X115.268 Y178.529 E98.35775
G1 X114.611 Y178.417 E98.39312
G1 X113.627 Y178.067 E98.44856
G1 X112.856 Y177.608 E98.49619
G1 X112.035 Y176.895 E98.55392
G1 X111.549 Y176.087 E98.60397
G1 X111.167 Y175.221 E98.65421
G1 X110.954 Y174.282 E98.70532
G1 X110.965 Y127.827 E101.1713
G1 X111.072 Y127.03 E101.21399
G1 X111.486 Y125.998 E101.27302
G1 X112.004 Y125.198 E101.32361
G1 X112.725 Y124.462 E101.3783
M204 S3000
M205 X10 Y10
G0 F6000 X113.074 Y124.906
M204 S300
M205 X8 Y8
G1 F2400 X113.702 Y124.533 E101.41707
G1 X114.491 Y124.192 E101.4627
G1 X115.259 Y124.032 E101.50434
G1 X186.685 Y124.031 E105.29586
G1 X187.246 Y124.127 E105.32607
G1 X188.14 Y124.443 E105.37641
G1 X188.81 Y124.843 E105.41783
G1 X189.536 Y125.476 E105.46896
G1 X190.006 Y126.281 E105.51844
G1 X190.358 Y127.108 E105.56615
G1 X190.463 Y127.856 E105.60625
G1 X190.469 Y174.277 E108.07042
G1 X190.406 Y174.648 E108.0904
G1 X190.086 Y175.549 E108.14115
G1 X189.727 Y176.232 E108.18211
G1 X189.021 Y177.036 E108.23891
G1 X188.219 Y177.508 E108.28831
G1 X187.511 Y177.808 E108.32913
G1 X186.759 Y177.968 E108.36994
G1 X115.315 Y177.969 E112.16241
G1 X114.754 Y177.873 E112.19262
G1 X113.864 Y177.557 E112.24276
G1 X113.187 Y177.154 E112.28458
G1 X112.47 Y176.531 E112.335
G1 X112.029 Y175.798 E112.38041
G1 X111.701 Y175.045 E112.42401
G1 X111.514 Y174.22 E112.46891
G1 X111.52 Y127.901 E114.92767
G1 X111.617 Y127.176 E114.9665
G1 X111.987 Y126.254 E115.01924
G1 X112.442 Y125.551 E115.06369
G1 X113.074 Y124.906 E115.11163
M204 S3000
M205 X10 Y10
G0 F6000 X113.423 Y125.35
M204 S300
M205 X8 Y8
G1 F2400 X113.924 Y125.047 E115.14271
G1 X114.661 Y124.729 E115.18531
G1 X115.316 Y124.592 E115.22084
G1 X186.685 Y124.591 E119.00933
G1 X187.059 Y124.655 E119.02947
G1 X187.901 Y124.953 E119.07688
G1 X188.481 Y125.299 E119.11273
G1 X189.099 Y125.838 E119.15626
G1 X189.491 Y126.5 E119.1971
G1 X189.813 Y127.256 E119.24072
G1 X189.908 Y127.934 E119.27707
G1 X189.909 Y174.277 E121.7371
G1 X189.878 Y174.461 E121.747
G1 X189.558 Y175.362 E121.79776
G1 X189.263 Y175.912 E121.83089
G1 X188.659 Y176.6 E121.87949
G1 X188 Y176.992 E121.92019
G1 X187.34 Y177.272 E121.95825
G1 X186.699 Y177.408 E121.99303
G1 X115.315 Y177.409 E125.78232
G1 X114.941 Y177.345 E125.80246
G1 X114.101 Y177.047 E125.84978
G1 X113.518 Y176.7 E125.88579
G1 X112.905 Y176.167 E125.92891
G1 X112.509 Y175.509 E125.96968
G1 X112.235 Y174.869 E126.00663
G1 X112.074 Y174.158 E126.04533
G1 X112.075 Y127.975 E128.49687
G1 X112.162 Y127.322 E128.53184
G1 X112.488 Y126.51 E128.57829
G1 X112.88 Y125.904 E128.6166
G1 X113.423 Y125.35 E128.65778
M204 S3000
M205 X10 Y10
G0 F6000 X113.774 Y125.792
M204 S300
M205 X8 Y8
G1 F2400 X114.146 Y125.561 E128.68102
G1 X114.831 Y125.266 E128.72061
G1 X115.374 Y125.152 E128.75007
G1 X186.685 Y125.151 E132.53548
G1 X186.872 Y125.183 E132.54555
G1 X187.662 Y125.463 E132.59004
G1 X188.152 Y125.755 E132.62032
G1 X188.664 Y126.202 E132.6564
G1 X188.976 Y126.719 E132.68845
G1 X189.268 Y127.405 E132.72803
G1 X189.348 Y127.934 E132.75643
G1 X189.349 Y174.277 E135.21647
G1 X189.064 Y175.097 E135.26255
G1 X188.798 Y175.593 E135.29242
G1 X188.297 Y176.164 E135.33275
G1 X187.781 Y176.476 E135.36476
G1 X187.17 Y176.735 E135.39998
G1 X186.639 Y176.848 E135.4288
G1 X115.315 Y176.849 E139.21491
G1 X115.128 Y176.817 E139.22498
G1 X114.338 Y176.537 E139.26947
G1 X113.849 Y176.246 E139.29968
G1 X113.339 Y175.802 E139.33557
G1 X113.024 Y175.288 E139.36757
G1 X112.769 Y174.693 E139.40193
G1 X112.634 Y174.096 E139.43442
G1 X112.635 Y127.975 E141.88267
G1 X112.707 Y127.469 E141.9098
G1 X112.988 Y126.77 E141.9498
G1 X113.321 Y126.254 E141.9824
G1 X113.774 Y125.792 E142.01674
M204 S3000
M205 X10 Y10
G0 F6000 X114.125 Y126.234
M204 S300
M205 X8 Y8
G1 F2400 X114.442 Y126.037 E142.03655
G1 X115.005 Y125.8 E142.06898
G1 X115.374 Y125.712 E142.08912
G1 X186.685 Y125.711 E145.87453
G1 X187.427 Y125.974 E145.91632
G1 X187.784 Y126.177 E145.93812
G1 X188.23 Y126.566 E145.96953
G1 X188.461 Y126.938 E145.99278
G1 X188.725 Y127.559 E146.0286
G1 X188.788 Y127.934 E146.04878
G1 X188.789 Y174.182 E148.50377
G1 X188.535 Y174.913 E148.54485
G1 X188.336 Y175.271 E148.5666
G1 X187.933 Y175.73 E148.59902
G1 X187.562 Y175.961 E148.62222
G1 X187.004 Y176.198 E148.6544
G1 X186.579 Y176.288 E148.67746
G1 X115.315 Y176.289 E152.46038
G1 X114.573 Y176.026 E152.50217
G1 X114.216 Y175.823 E152.52397
G1 X113.771 Y175.436 E152.55528
G1 X113.539 Y175.067 E152.57841
G1 X113.284 Y174.472 E152.61278
G1 X113.194 Y174.096 E152.6333
G1 X113.195 Y127.975 E155.08155
G1 X113.252 Y127.616 E155.10084
G1 X113.488 Y127.027 E155.13453
G1 X113.76 Y126.607 E155.16109
G1 X114.125 Y126.234 E155.18879
M204 S3000
M205 X10 Y10
G0 F6000 X114.768 Y127.15
M204 S300
M205 X8 Y8
G1 F2400 X114.876 Y127.069 E155.19596
G1 X115.439 Y126.832 E155.22838
G1 X186.491 Y126.831 E159.00005
G1 X187.053 Y127.03 E159.0317
G1 X187.175 Y127.115 E159.03959
G1 X187.213 Y127.198 E159.04444
G1 X187.35 Y127.268 E159.0526
G1 X187.431 Y127.376 E159.05977
G1 X187.668 Y127.934 E159.09195
G1 X187.669 Y173.992 E161.53685
G1 X187.477 Y174.545 E161.56793
G1 X187.393 Y174.667 E161.57579
G1 X187.317 Y174.695 E161.58009
G1 X187.232 Y174.85 E161.58947
G1 X187.124 Y174.931 E161.59664
G1 X186.566 Y175.168 E161.62882
G1 X115.509 Y175.169 E165.40075
G1 X114.947 Y174.97 E165.4324
G1 X114.825 Y174.885 E165.44029
G1 X114.787 Y174.802 E165.44514
G1 X114.65 Y174.733 E165.45328
G1 X114.569 Y174.625 E165.46045
G1 X114.314 Y174.03 E165.49481
G1 X114.315 Y127.975 E167.93956
G1 X114.528 Y127.443 E167.96998
G1 X114.618 Y127.325 E167.97785
G1 X114.686 Y127.302 E167.98167
G1 X114.768 Y127.15 E167.99083
M204 S3000
M205 X10 Y10
G0 F6000 X114.432 Y126.702
M204 S300
M205 X8 Y8
G1 F2400 X114.659 Y126.553 E168.00525
G1 X115.222 Y126.316 E168.03767
G1 X115.439 Y126.272 E168.04943
G1 X186.588 Y126.271 E171.82624
G1 X187.24 Y126.502 E171.86296
G1 X187.495 Y126.656 E171.87877
G1 X187.798 Y126.932 E171.90053
G1 X187.946 Y127.157 E171.91483
G1 X188.183 Y127.715 E171.94701
G1 X188.228 Y127.934 E171.95887
G1 X188.229 Y174.087 E174.40882
G1 X188.006 Y174.729 E174.4449
G1 X187.854 Y174.985 E174.4607
G1 X187.568 Y175.298 E174.48321
G1 X187.343 Y175.446 E174.49751
G1 X186.785 Y175.683 E174.52969
G1 X186.579 Y175.728 E174.54088
G1 X115.412 Y175.729 E178.31865
G1 X114.76 Y175.498 E178.35537
G1 X114.505 Y175.344 E178.37118
G1 X114.202 Y175.069 E178.3929
G1 X114.054 Y174.846 E178.40711
G1 X113.799 Y174.251 E178.44147
G1 X113.754 Y174.03 E178.45345
G1 X113.755 Y127.975 E180.89819
G1 X113.795 Y127.767 E180.90943
G1 X114.008 Y127.235 E180.93985
G1 X114.173 Y126.985 E180.95576
G1 X114.432 Y126.702 E180.97612
M204 S3000
M205 X10 Y10
G1 F2400 E174.97612
;MESH:Case_1-Bottom Case.stl
G0 F6000 X115.581 Y127.531
G0 X185.988 Y173.488
M204 S300
M205 X8 Y8
;TYPE:WALL-INNER
G1 F2400 E180.97612
G1 F2700 X185.988 Y128.509 E183.36375
G1 X115.992 Y128.511 E187.07936
G1 X115.992 Y173.488 E189.46688
G1 X185.988 Y173.488 E193.18249
M204 S3000
M205 X10 Y10
G0 F6000 X186.335 Y174.048
M204 S300
M205 X8 Y8
G1 F2700 X186.427 Y174.008 E193.18781
G1 X186.548 Y173.799 E193.20063
G1 X186.548 Y128.164 E195.62308
G1 X186.509 Y128.073 E195.62834
G1 X186.297 Y127.948 E195.6414
G1 X115.666 Y127.952 E199.39072
G1 X115.561 Y127.996 E199.39677
G1 X115.432 Y128.192 E199.40922
G1 X115.433 Y173.799 E201.83019
G1 X115.487 Y173.924 E201.83741
G1 X115.696 Y174.048 E201.85031
G1 X186.335 Y174.048 E205.60006
M204 S3000
M205 X10 Y10
G0 F6000 X186.336 Y173.988
G0 X115.708 Y173.991
G0 X115.6 Y174.608
M204 S300
M205 X8 Y8
;TYPE:WALL-OUTER
G1 F2700 X186.45 Y174.608 E209.361
G1 X186.792 Y174.461 E209.38076
G1 X186.981 Y174.251 E209.39576
G1 X187.108 Y173.895 E209.41582
G1 X187.108 Y128.05 E211.84942
G1 X186.961 Y127.706 E211.86928
G1 X186.752 Y127.517 E211.88424
G1 X186.395 Y127.388 E211.90439
G1 X115.553 Y127.392 E215.6649
G1 X115.202 Y127.54 E215.68512
G1 X115.008 Y127.748 E215.70022
G1 X114.872 Y128.083 E215.71942
G1 X114.873 Y173.914 E218.15227
G1 X115.034 Y174.291 E218.17403
G1 X115.244 Y174.483 E218.18914
G1 X115.6 Y174.608 E218.20916
M204 S3000
M205 X10 Y10
G0 F6000 X115.8 Y174.608
G0 X115.8 Y173.988
G0 X185.448 Y172.948
M204 S300
M205 X8 Y8
;TYPE:SKIN
G1 F2700 X116.532 Y172.948 E221.86744
G1 X116.532 Y129.048 E224.1978
