;FLAVOR:Marlin
;TIME:6678
;Filament used: 5.93388m
;Layer height: 0.15
;MINX:106.2
;MINY:118.7
;MINZ:0.3
;MAXX:195.8
;MAXY:183.3
;MAXZ:19.05
;TARGET_MACHINE.NAME:Unknown
;Generated with Cura_SteamEngine 5.7.2
M140 S60
M105
M190 S60
M104 S200
M105
M109 S200
M82 ;absolute extrusion mode
; Script based on an original created by tjjfvi (https://github.com/tjjfvi)
; An up-to-date version of the tjjfvi's original script can be found
; here:  https://csi.t6.fyi/
; Note - This script will only work in Cura V4.2 and above!
; --- Global Settings
; layer_height = 0.15
; smooth_spiralized_contours = True
; magic_mesh_surface_mode = normal
; machine_extruder_count = 1
; --- Single Extruder Settings
; speed_z_hop = 10
; retraction_amount = 6.5
; retraction_hop = 1
; retraction_hop_enabled = False
; retraction_enable = True
; retraction_speed = 25
; retraction_retract_speed = 25
; retraction_prime_speed = 25
; speed_travel = 120

G28 ;Home
G1 Z15.0 F6000 ;Move the platform down 15mm
;Prime the extruder
G92 E0
G1 F200 E3
G92 E0
G92 E0
G92 E0
G1 F1500 E-6.5
;LAYER_COUNT:126
;LAYER:0
M107
G0 F3600 X111.258 Y123.515 Z0.3
;TYPE:SKIRT
G1 F1500 E0
G1 F1800 X111.639 Y123.183 E0.02521
G1 X112.364 Y122.743 E0.06752
G1 X112.821 Y122.527 E0.09274
G1 X113.272 Y122.383 E0.11636
G1 X114.083 Y122.2 E0.15784
G1 X114.73 Y122.122 E0.19035
G1 X115.619 Y122.107 E0.23471
G1 X186.543 Y122.107 E3.77312
G1 X187.196 Y122.116 E3.8057
G1 X187.864 Y122.196 E3.83927
G1 X188.723 Y122.392 E3.88323
G1 X189.328 Y122.581 E3.91485
G1 X190.034 Y122.978 E3.95526
G1 X190.453 Y123.259 E3.98043
G1 X190.977 Y123.75 E4.01625
G1 X191.36 Y124.197 E4.04562
G1 X191.731 Y124.818 E4.08171
G1 X191.955 Y125.271 E4.10692
G1 X192.111 Y125.743 E4.13172
G1 X192.298 Y126.565 E4.17378
G1 X192.376 Y127.21 E4.20619
G1 X192.394 Y128.17 E4.2541
G1 X192.394 Y174.039 E6.54251
G1 X192.385 Y174.696 E6.57529
G1 X192.304 Y175.366 E6.60896
G1 X192.108 Y176.222 E6.65277
G1 X191.919 Y176.828 E6.68444
G1 X191.515 Y177.544 E6.72546
G1 X191.233 Y177.963 E6.75066
G1 X190.739 Y178.487 E6.78658
G1 X190.293 Y178.867 E6.81582
G1 X189.646 Y179.25 E6.85333
G1 X189.051 Y179.542 E6.88639
G1 X187.943 Y179.796 E6.94311
G1 X187.288 Y179.876 E6.97603
G1 X186.305 Y179.894 E7.02508
G1 X115.461 Y179.894 E10.5595
G1 X114.804 Y179.885 E10.59228
G1 X114.133 Y179.804 E10.626
G1 X113.274 Y179.607 E10.66997
G1 X112.668 Y179.416 E10.70167
G1 X111.968 Y179.022 E10.74174
G1 X111.548 Y178.74 E10.76698
G1 X111.043 Y178.269 E10.80143
G1 X110.711 Y177.888 E10.82665
G1 X110.298 Y177.228 E10.86549
G1 X110.016 Y176.664 E10.89695
G1 X109.724 Y175.533 E10.95522
G1 X109.623 Y174.792 E10.99253
G1 X109.604 Y173.752 E11.04443
G1 X109.603 Y127.968 E13.3286
G1 X109.612 Y127.317 E13.36108
G1 X109.692 Y126.649 E13.39465
G1 X109.892 Y125.773 E13.43948
G1 X110.084 Y125.159 E13.47157
G1 X110.485 Y124.455 E13.51199
G1 X110.769 Y124.037 E13.5372
G1 X111.258 Y123.515 E13.57289
G1 F1500 E7.07289
;MESH:Case_1-Bottom Case.stl
G0 F3600 X115.043 Y126.175
G0 X115.483 Y127.195
G0 X186.496 Y174.319
G0 X186.551 Y174.62
;TYPE:WALL-INNER
G1 F1500 E13.57289
G1 F1800 X186.93 Y174.438 E13.59387
G1 X187.124 Y174 E13.61776
G1 X187.12 Y127.942 E15.91561
G1 X186.92 Y127.547 E15.9377
G1 X186.55 Y127.376 E15.95803
G1 X115.496 Y127.376 E19.50293
G1 X115.161 Y127.498 E19.52072
G1 X115.05 Y127.577 E19.52751
G1 X114.888 Y127.945 E19.54757
G1 X114.888 Y174.049 E21.84771
G1 X115.028 Y174.379 E21.8656
G1 X115.122 Y174.468 E21.87205
G1 X115.458 Y174.624 E21.89054
G1 X186.551 Y174.62 E25.43738
G0 F3600 X186.534 Y175.02
;TYPE:WALL-OUTER
G1 F1800 X186.7 Y174.991 E25.44579
G1 X187.107 Y174.807 E25.46807
G1 X187.227 Y174.714 E25.47565
G1 X187.351 Y174.528 E25.4868
G1 X187.524 Y174.04 E25.51263
G1 X187.52 Y127.958 E27.81167
G1 X187.352 Y127.463 E27.83775
G1 X187.184 Y127.228 E27.85216
G1 X186.7 Y127.005 E27.87875
G1 X186.534 Y126.976 E27.88715
G1 X115.462 Y126.976 E31.43295
G1 X115.294 Y127.006 E31.44147
G1 X114.963 Y127.148 E31.45943
G1 X114.723 Y127.319 E31.47414
G1 X114.488 Y127.862 E31.50366
G1 X114.488 Y174.131 E33.81202
G1 X114.692 Y174.611 E33.83805
G1 X114.894 Y174.804 E33.85198
G1 X115.302 Y174.992 E33.8744
G1 X115.464 Y175.024 E33.88263
G1 X186.534 Y175.02 E37.42833
G0 F3600 X186.7 Y174.991
G0 X186.728 Y174.979
G0 X186.464 Y174.24
;TYPE:SKIN
G1 F1800 X115.546 Y174.244 E40.96644
G1 X115.337 Y174.132 E40.97827
G1 X115.268 Y173.971 E40.98701
G1 X115.268 Y128.021 E43.27947
G1 X115.343 Y127.845 E43.28901
G1 X115.529 Y127.756 E43.2993
G1 X186.463 Y127.756 E46.83821
G1 X186.652 Y127.844 E46.84861
G1 X186.74 Y128.023 E46.85856
G1 X186.744 Y173.941 E49.14942
G1 X186.648 Y174.157 E49.16121
G1 X186.464 Y174.24 E49.17129
G0 F3600 X186.222 Y127.956
G1 F1800 X186.54 Y128.275 E49.19376
G0 F3600 X186.54 Y128.841
G1 F1800 X185.656 Y127.956 E49.25616
G0 F3600 X185.09 Y127.956
G1 F1800 X186.54 Y129.406 E49.35847
G0 F3600 X186.54 Y129.972
G1 F1800 X184.524 Y127.956 E49.50071
G0 F3600 X183.959 Y127.956
G1 F1800 X186.54 Y130.538 E49.68285
G0 F3600 X186.54 Y131.103
G1 F1800 X183.393 Y127.956 E49.90489
G0 F3600 X182.827 Y127.956
G1 F1800 X186.54 Y131.669 E50.16686
G0 F3600 X186.54 Y132.235
G1 F1800 X182.262 Y127.956 E50.46873
G0 F3600 X181.696 Y127.956
G1 F1800 X186.54 Y132.8 E50.8105
G0 F3600 X186.54 Y133.366
G1 F1800 X181.13 Y127.956 E51.1922
G0 F3600 X180.565 Y127.956
G1 F1800 X186.54 Y133.932 E51.61381
G0 F3600 X186.54 Y134.497
G1 F1800 X179.999 Y127.956 E52.07531
G0 F3600 X179.433 Y127.956
G1 F1800 X186.54 Y135.063 E52.57675
G0 F3600 X186.54 Y135.629
G1 F1800 X178.868 Y127.956 E53.11808
G0 F3600 X178.302 Y127.956
G1 F1800 X186.541 Y136.195 E53.69939
G0 F3600 X186.541 Y136.761
G1 F1800 X177.736 Y127.956 E54.32063
G0 F3600 X177.171 Y127.956
G1 F1800 X186.541 Y137.327 E54.98177
G0 F3600 X186.541 Y137.892
G1 F1800 X176.605 Y127.956 E55.68281
G0 F3600 X176.039 Y127.956
G1 F1800 X186.541 Y138.458 E56.42378
G0 F3600 X186.541 Y139.024
G1 F1800 X175.473 Y127.956 E57.20469
G0 F3600 X174.908 Y127.956
G1 F1800 X186.541 Y139.589 E58.02546
G0 F3600 X186.541 Y140.155
G1 F1800 X174.342 Y127.956 E58.88616
G0 F3600 X173.776 Y127.956
G1 F1800 X186.541 Y140.721 E59.7868
G0 F3600 X186.541 Y141.286
G1 F1800 X173.211 Y127.956 E60.72731
G0 F3600 X172.645 Y127.956
G1 F1800 X186.541 Y141.852 E61.70775
G0 F3600 X186.541 Y142.418
G1 F1800 X172.079 Y127.956 E62.72812
G0 F3600 X171.514 Y127.956
G1 F1800 X186.541 Y142.983 E63.78835
G0 F3600 X186.542 Y143.55
G1 F1800 X170.948 Y127.956 E64.88859
G0 F3600 X170.382 Y127.956
G1 F1800 X186.542 Y144.115 E66.02873
G0 F3600 X186.542 Y144.681
G1 F1800 X169.817 Y127.956 E67.20877
G0 F3600 X169.251 Y127.956
G1 F1800 X186.542 Y145.247 E68.42875
G0 F3600 X186.542 Y145.812
G1 F1800 X168.685 Y127.956 E69.68862
G0 F3600 X168.12 Y127.956
G1 F1800 X186.542 Y146.378 E70.98839
G0 F3600 X186.542 Y146.944
G1 F1800 X167.554 Y127.956 E72.3281
G0 F3600 X166.988 Y127.956
G1 F1800 X186.542 Y147.51 E73.70774
G0 F3600 X186.542 Y148.075
G1 F1800 X166.423 Y127.956 E75.12724
G0 F3600 X165.857 Y127.956
G1 F1800 X186.542 Y148.641 E76.58668
G0 F3600 X186.542 Y149.207
G1 F1800 X165.291 Y127.956 E78.08605
G0 F3600 X164.725 Y127.956
G1 F1800 X186.542 Y149.772 E79.62532
G0 F3600 X186.542 Y150.338
G1 F1800 X164.16 Y127.956 E81.2045
G0 F3600 X163.594 Y127.956
G1 F1800 X186.542 Y150.904 E82.8236
G0 F3600 X186.543 Y151.47
G1 F1800 X163.028 Y127.956 E84.48268
G0 F3600 X162.463 Y127.956
G1 F1800 X186.543 Y152.036 E86.18165
G0 F3600 X186.543 Y152.601
G1 F1800 X161.897 Y127.956 E87.92052
G0 F3600 X161.331 Y127.956
G1 F1800 X186.543 Y153.167 E89.69933
G0 F3600 X186.543 Y153.733
G1 F1800 X160.766 Y127.956 E91.51804
G0 F3600 X160.2 Y127.956
G1 F1800 X186.543 Y154.298 E93.37664
G0 F3600 X186.543 Y154.864
G1 F1800 X159.634 Y127.956 E95.27518
G0 F3600 X159.069 Y127.956
G1 F1800 X186.543 Y155.43 E97.21362
G0 F3600 X186.543 Y155.996
G1 F1800 X158.503 Y127.956 E99.192
G0 F3600 X157.937 Y127.956
G1 F1800 X186.543 Y156.561 E101.21027
G0 F3600 X186.543 Y157.127
G1 F1800 X157.372 Y127.956 E103.26844
G0 F3600 X156.806 Y127.956
G1 F1800 X186.543 Y157.693 E105.36655
G0 F3600 X186.543 Y158.258
G1 F1800 X156.24 Y127.956 E107.50455
G0 F3600 X155.675 Y127.956
G1 F1800 X186.543 Y158.825 E109.68249
G0 F3600 X186.543 Y159.39
G1 F1800 X155.109 Y127.956 E111.90033
G0 F3600 X154.543 Y127.956
G1 F1800 X186.543 Y159.956 E114.1581
G0 F3600 X186.543 Y160.522
G1 F1800 X153.977 Y127.956 E116.45581
G0 F3600 X153.412 Y127.956
G1 F1800 X186.543 Y161.087 E118.79338
G0 F3600 X186.543 Y161.653
G1 F1800 X152.846 Y127.956 E121.17088
G0 F3600 X152.28 Y127.956
G1 F1800 X186.543 Y162.219 E123.58832
G0 F3600 X186.543 Y162.784
G1 F1800 X151.715 Y127.956 E126.04563
G0 F3600 X151.149 Y127.956
G1 F1800 X186.543 Y163.35 E128.54287
G0 F3600 X186.543 Y163.916
G1 F1800 X150.583 Y127.956 E131.08004
G0 F3600 X150.018 Y127.956
G1 F1800 X186.543 Y164.482 E133.65711
G0 F3600 X186.543 Y165.047
G1 F1800 X149.452 Y127.956 E136.27408
G0 F3600 X148.886 Y127.956
G1 F1800 X186.543 Y165.613 E138.93098
G0 F3600 X186.543 Y166.179
G1 F1800 X148.321 Y127.956 E141.62779
G0 F3600 X147.755 Y127.956
G1 F1800 X186.544 Y166.745 E144.36456
G0 F3600 X186.544 Y167.311
G1 F1800 X147.189 Y127.956 E147.14127
G0 F3600 X146.624 Y127.956
G1 F1800 X186.544 Y167.876 E149.95784
G0 F3600 X186.544 Y168.442
G1 F1800 X146.058 Y127.956 E152.81435
G0 F3600 X145.492 Y127.956
G1 F1800 X186.544 Y169.008 E155.71079
G0 F3600 X186.544 Y169.573
G1 F1800 X144.926 Y127.956 E158.64713
G0 F3600 X144.361 Y127.956
G1 F1800 X186.544 Y170.139 E161.62337
G0 F3600 X186.544 Y170.705
G1 F1800 X143.795 Y127.956 E164.63954
G0 F3600 X143.229 Y127.956
G1 F1800 X186.544 Y171.27 E167.69561
G0 F3600 X186.544 Y171.836
G1 F1800 X142.664 Y127.956 E170.79158
G0 F3600 X142.098 Y127.956
G1 F1800 X186.544 Y172.402 E173.92749
G0 F3600 X186.544 Y172.968
G1 F1800 X141.532 Y127.956 E177.10333
G0 F3600 X140.967 Y127.956
G1 F1800 X186.544 Y173.533 E180.31903
G0 F3600 X186.464 Y174.019
G1 F1800 X140.401 Y127.956 E183.56902
G0 F3600 X139.835 Y127.956
G1 F1800 X185.919 Y174.039 E186.82046
G0 F3600 X185.353 Y174.039
G1 F1800 X139.27 Y127.956 E190.07187
G0 F3600 X138.704 Y127.956
G1 F1800 X184.788 Y174.039 E193.32331
G0 F3600 X184.222 Y174.039
G1 F1800 X138.138 Y127.956 E196.57475
G0 F3600 X137.573 Y127.956
G1 F1800 X183.656 Y174.039 E199.82615
G0 F3600 X183.09 Y174.039
G1 F1800 X137.007 Y127.956 E203.07756
G0 F3600 X136.441 Y127.956
G1 F1800 X182.525 Y174.039 E206.329
G0 F3600 X181.959 Y174.039
G1 F1800 X135.876 Y127.956 E209.5804
G0 F3600 X135.31 Y127.956
G1 F1800 X181.393 Y174.039 E212.83181
G0 F3600 X180.828 Y174.039
G1 F1800 X134.744 Y127.956 E216.08325
G0 F3600 X134.178 Y127.956
G1 F1800 X180.262 Y174.039 E219.33469
G0 F3600 X179.696 Y174.039
G1 F1800 X133.613 Y127.956 E222.58609
G0 F3600 X133.047 Y127.956
G1 F1800 X179.131 Y174.039 E225.83753
G0 F3600 X178.565 Y174.039
G1 F1800 X132.481 Y127.956 E229.08897
G0 F3600 X131.916 Y127.956
G1 F1800 X177.999 Y174.039 E232.34037
G0 F3600 X177.434 Y174.039
G1 F1800 X131.35 Y127.956 E235.59181
G0 F3600 X130.784 Y127.956
G1 F1800 X176.868 Y174.039 E238.84325
G0 F3600 X176.302 Y174.039
G1 F1800 X130.219 Y127.956 E242.09466
G0 F3600 X129.653 Y127.956
G1 F1800 X175.737 Y174.039 E245.3461
G0 F3600 X175.171 Y174.039
G1 F1800 X129.087 Y127.956 E248.59754
G0 F3600 X128.522 Y127.956
G1 F1800 X174.606 Y174.04 E251.84901
G0 F3600 X174.04 Y174.04
G1 F1800 X127.956 Y127.956 E255.10049
G0 F3600 X127.39 Y127.956
G1 F1800 X173.475 Y174.04 E258.352
G0 F3600 X172.909 Y174.04
G1 F1800 X126.825 Y127.956 E261.60347
G0 F3600 X126.259 Y127.956
G1 F1800 X172.343 Y174.04 E264.85495
G0 F3600 X171.777 Y174.04
G1 F1800 X125.693 Y127.956 E268.10642
G0 F3600 X125.127 Y127.956
G1 F1800 X171.212 Y174.04 E271.35793
G0 F3600 X170.646 Y174.04
G1 F1800 X124.562 Y127.956 E274.60941
G0 F3600 X123.996 Y127.956
G1 F1800 X170.08 Y174.04 E277.86088
G0 F3600 X169.515 Y174.04
G1 F1800 X123.43 Y127.956 E281.11239
G0 F3600 X122.865 Y127.956
G1 F1800 X168.949 Y174.04 E284.36387
G0 F3600 X168.383 Y174.04
G1 F1800 X122.299 Y127.956 E287.61534
G0 F3600 X121.733 Y127.956
G1 F1800 X167.818 Y174.04 E290.86686
G0 F3600 X167.252 Y174.04
G1 F1800 X121.168 Y127.956 E294.11833
G0 F3600 X120.602 Y127.956
G1 F1800 X166.686 Y174.04 E297.36981
G0 F3600 X166.121 Y174.04
G1 F1800 X120.036 Y127.956 E300.62132
G0 F3600 X119.471 Y127.956
G1 F1800 X165.555 Y174.04 E303.87279
G0 F3600 X164.989 Y174.04
G1 F1800 X118.905 Y127.956 E307.12427
G0 F3600 X118.339 Y127.956
G1 F1800 X164.424 Y174.04 E310.37578
G0 F3600 X163.858 Y174.04
G1 F1800 X117.774 Y127.956 E313.62725
G0 F3600 X117.208 Y127.956
G1 F1800 X163.292 Y174.04 E316.87873
G0 F3600 X162.727 Y174.041
G1 F1800 X116.642 Y127.956 E320.13027
G0 F3600 X116.077 Y127.956
G1 F1800 X162.162 Y174.041 E323.38182
G0 F3600 X161.596 Y174.041
G1 F1800 X115.532 Y127.977 E326.63188
G0 F3600 X115.468 Y128.478
G1 F1800 X161.03 Y174.041 E329.84656
G0 F3600 X160.464 Y174.041
G1 F1800 X115.468 Y129.044 E333.02131
G0 F3600 X115.468 Y129.61
G1 F1800 X159.899 Y174.041 E336.15616
G0 F3600 X159.333 Y174.041
G1 F1800 X115.468 Y130.176 E339.25107
G0 F3600 X115.468 Y130.741
G1 F1800 X158.767 Y174.041 E342.30608
G0 F3600 X158.202 Y174.041
G1 F1800 X115.468 Y131.307 E345.3212
G0 F3600 X115.468 Y131.873
G1 F1800 X157.636 Y174.041 E348.29638
G0 F3600 X157.07 Y174.041
G1 F1800 X115.468 Y132.438 E351.23166
G0 F3600 X115.468 Y133.004
G1 F1800 X156.505 Y174.041 E354.12704
G0 F3600 X155.939 Y174.041
G1 F1800 X115.468 Y133.57 E356.98249
G0 F3600 X115.468 Y134.135
G1 F1800 X155.373 Y174.041 E359.79804
G0 F3600 X154.808 Y174.041
G1 F1800 X115.468 Y134.701 E362.57369
G0 F3600 X115.468 Y135.267
G1 F1800 X154.242 Y174.041 E365.3094
G0 F3600 X153.676 Y174.041
G1 F1800 X115.468 Y135.832 E368.00522
G0 F3600 X115.468 Y136.398
G1 F1800 X153.111 Y174.041 E370.66113
G0 F3600 X152.545 Y174.041
G1 F1800 X115.468 Y136.964 E373.27712
G0 F3600 X115.468 Y137.529
G1 F1800 X151.979 Y174.041 E375.8532
G0 F3600 X151.413 Y174.041
G1 F1800 X115.468 Y138.095 E378.38935
G0 F3600 X115.468 Y138.661
G1 F1800 X150.849 Y174.042 E380.88567
G0 F3600 X150.283 Y174.042
G1 F1800 X115.468 Y139.226 E383.34209
G0 F3600 X115.468 Y139.792
G1 F1800 X149.717 Y174.042 E385.75858
G0 F3600 X149.151 Y174.042
G1 F1800 X115.468 Y140.358 E388.13513
G0 F3600 X115.468 Y140.924
G1 F1800 X148.586 Y174.042 E390.47178
G0 F3600 X148.02 Y174.042
G1 F1800 X115.468 Y141.489 E392.76854
G0 F3600 X115.468 Y142.055
G1 F1800 X147.454 Y174.042 E395.02536
G0 F3600 X146.889 Y174.042
G1 F1800 X115.468 Y142.621 E397.24228
G0 F3600 X115.468 Y143.186
G1 F1800 X146.323 Y174.042 E399.4193
G0 F3600 X145.757 Y174.042
G1 F1800 X115.468 Y143.752 E401.55639
G0 F3600 X115.468 Y144.318
G1 F1800 X145.192 Y174.042 E403.65358
G0 F3600 X144.626 Y174.042
G1 F1800 X115.468 Y144.883 E405.71087
G0 F3600 X115.468 Y145.449
G1 F1800 X144.06 Y174.042 E407.72822
G0 F3600 X143.495 Y174.042
G1 F1800 X115.468 Y146.015 E409.70568
G0 F3600 X115.468 Y146.58
G1 F1800 X142.929 Y174.042 E411.64324
G0 F3600 X142.363 Y174.042
G1 F1800 X115.468 Y147.146 E413.54086
G0 F3600 X115.468 Y147.712
G1 F1800 X141.798 Y174.042 E415.39858
G0 F3600 X141.232 Y174.042
G1 F1800 X115.468 Y148.277 E417.21641
G0 F3600 X115.468 Y148.843
G1 F1800 X140.666 Y174.042 E418.9943
G0 F3600 X140.1 Y174.042
G1 F1800 X115.468 Y149.409 E420.73226
G0 F3600 X115.468 Y149.975
G1 F1800 X139.535 Y174.042 E422.43031
G0 F3600 X138.97 Y174.042
G1 F1800 X115.468 Y150.54 E424.08851
G0 F3600 X115.468 Y151.106
G1 F1800 X138.404 Y174.042 E425.70676
G0 F3600 X137.838 Y174.042
G1 F1800 X115.468 Y151.672 E427.28509
G0 F3600 X115.468 Y152.237
G1 F1800 X137.273 Y174.042 E428.82355
G0 F3600 X136.707 Y174.042
G1 F1800 X115.468 Y152.803 E430.32207
G0 F3600 X115.468 Y153.369
G1 F1800 X136.141 Y174.042 E431.78067
G0 F3600 X135.576 Y174.042
G1 F1800 X115.468 Y153.934 E433.19939
G0 F3600 X115.468 Y154.5
G1 F1800 X135.01 Y174.042 E434.57819
G0 F3600 X134.444 Y174.042
G1 F1800 X115.468 Y155.066 E435.91705
G0 F3600 X115.468 Y155.631
G1 F1800 X133.879 Y174.042 E437.21604
G0 F3600 X133.313 Y174.042
G1 F1800 X115.468 Y156.197 E438.4751
G0 F3600 X115.468 Y156.763
G1 F1800 X132.747 Y174.042 E439.69423
