;FLAVOR:Marlin
;TIME:3892
;Filament used: 4.32272m
;Layer height: 0.2
;MINX:106.2
;MINY:118.7
;MINZ:0.2
;MAXX:195.8
;MAXY:183.3
;MAXZ:12
;TARGET_MACHINE.NAME:Unknown
;Generated with Cura_SteamEngine 5.8.0
M140 S60
M105
M190 S60
M104 S195
M105
M109 S195
M82 ;absolute extrusion mode
G28 ;Home
G1 Z15.0 F6000 ;Move the platform down 15mm
;Prime the extruder
G92 E0
G1 F200 E3
G92 E0
G92 E0
G92 E0
G1 F2400 E-6
;LAYER_COUNT:60
;LAYER:0
M107
M204 S3000
M205 X10 Y10
G1 F1200 Z0.275
G0 F6000 X111.252 Y123.531 Z0.275
M204 S300
M205 X8 Y8
;TYPE:SKIRT
G1 F1200 Z0.2
G1 F2400 E0
G1 X111.64 Y123.197 E0.02718
G1 X112.256 Y122.84 E0.06497
G1 X112.949 Y122.534 E0.10518
G1 X113.536 Y122.339 E0.13802
G1 X114.375 Y122.169 E0.18346
G1 X114.934 Y122.112 E0.21329
G1 X115.667 Y122.101 E0.2522
G1 X186.351 Y122.101 E4.00433
G1 X187.034 Y122.111 E4.04059
G1 X187.623 Y122.173 E4.07203
G1 X188.33 Y122.313 E4.11029
G1 X188.957 Y122.504 E4.14508
G1 X189.649 Y122.793 E4.18489
G1 X190.105 Y123.027 E4.2121
G1 X190.802 Y123.57 E4.259
G1 X191.294 Y124.129 E4.29853
G1 X191.576 Y124.575 E4.32654
G1 X191.985 Y125.43 E4.37685
G1 X192.183 Y126.136 E4.41577
G1 X192.325 Y126.845 E4.45416
G1 X192.389 Y127.438 E4.48582
G1 X192.399 Y128.084 E4.52011
G1 X192.399 Y173.849 E6.94947
G1 X192.389 Y174.546 E6.98647
G1 X192.325 Y175.143 E7.01834
G1 X192.181 Y175.862 E7.05727
G1 X191.962 Y176.592 E7.09772
G1 X191.603 Y177.374 E7.1434
G1 X191.339 Y177.812 E7.17055
G1 X190.894 Y178.342 E7.20728
G1 X190.371 Y178.796 E7.24405
G1 X189.754 Y179.156 E7.28197
G1 X189.134 Y179.432 E7.31799
G1 X188.516 Y179.636 E7.35254
G1 X187.743 Y179.809 E7.39459
G1 X187.076 Y179.888 E7.43024
G1 X186.284 Y179.899 E7.47229
G1 X115.649 Y179.9 E11.22182
G1 X114.964 Y179.89 E11.25818
G1 X114.411 Y179.834 E11.28769
G1 X113.649 Y179.689 E11.32886
G1 X112.876 Y179.451 E11.3718
G1 X112.102 Y179.091 E11.41711
G1 X111.666 Y178.824 E11.44425
G1 X111.133 Y178.368 E11.48148
G1 X110.679 Y177.838 E11.51853
G1 X110.415 Y177.409 E11.54527
G1 X110.058 Y176.646 E11.58998
G1 X109.831 Y175.928 E11.62996
G1 X109.667 Y175.108 E11.67435
G1 X109.612 Y174.559 E11.70364
G1 X109.601 Y173.779 E11.74504
G1 X109.598 Y162.51 E12.34324
G1 X109.61 Y161.726 E12.38486
G1 X109.726 Y160.551 E12.44754
G1 X109.955 Y157.843 E12.5918
G1 X110.111 Y155.093 E12.73801
G1 X110.188 Y152.347 E12.88384
G1 X110.188 Y149.633 E13.0279
G1 X110.109 Y146.885 E13.17384
G1 X109.954 Y144.139 E13.31984
G1 X109.722 Y141.423 E13.46453
G1 X109.614 Y140.305 E13.52416
G1 X109.6 Y139.563 E13.56355
G1 X109.599 Y128.152 E14.16928
G1 X109.609 Y127.475 E14.20523
G1 X109.672 Y126.883 E14.23683
G1 X109.825 Y126.114 E14.27845
G1 X110.045 Y125.385 E14.31887
G1 X110.414 Y124.596 E14.36511
G1 X110.682 Y124.16 E14.39227
G1 X111.252 Y123.531 E14.43733
M204 S3000
M205 X10 Y10
G1 F2400 E8.43733
;MESH:Case_1-Top Case.stl
G0 F6000 X114.033 Y127.659
G0 X115.031 Y128.08
G0 X120.311 Y144.72
G0 X123.119 Y168.621
G0 X122.509 Y168.87
G0 X122.061 Y169.709
G0 X123.563 Y173.689
G0 X124.305 Y174.316
G0 X126.351 Y173.944
G0 X126.385 Y173.944
M204 S300
M205 X8 Y8
;TYPE:WALL-INNER
G1 F2400 E14.43733
G1 F1875.9 X126.335 Y173.857 E14.445
G1 X126.235 Y173.857 E14.45264
G1 X126.185 Y173.944 E14.46031
G1 X126.235 Y174.031 E14.46797
G1 X126.335 Y174.031 E14.47561
G1 X126.385 Y173.944 E14.48328
M204 S3000
M205 X10 Y10
G0 F6000 X126.351 Y173.944
G0 X124.655 Y174.363
G0 X123.817 Y174.038
G0 X122.077 Y170.047
G0 X122.164 Y169.303
G0 X123.641 Y165.797
G0 X127.743 Y163.892
G0 X132.013 Y165.451
G0 X133.923 Y169.573
G0 X133.836 Y170.317
G0 X132.322 Y173.874
G0 X131.594 Y174.342
G0 X129.806 Y173.946
G0 X129.811 Y173.943
M204 S300
M205 X8 Y8
G1 F1871.3 X129.76 Y173.856 E14.491
G1 X129.659 Y173.856 E14.49874
G1 X129.609 Y173.943 E14.50643
G1 X129.66 Y174.03 E14.51415
G1 X129.761 Y174.03 E14.52189
G1 X129.811 Y173.943 E14.52957
M204 S3000
M205 X10 Y10
G0 F6000 X129.806 Y173.946
G0 X131.213 Y174.355
G0 X142.258 Y174.124
G0 X142.268 Y174.066
M204 S300
M205 X8 Y8
G1 F2784.5 X142.515 Y174.087 E14.54233
G1 F2907.7 X154.676 Y174.09 E15.14176
G1 F2953.1 X166.837 Y174.094 E15.73198
G1 F2941.6 X166.977 Y174.088 E15.7388
M204 S3000
M205 X10 Y10
G1 F2400 E9.7388
G1 F1200 Z0.275
G0 F6000 X174.061 Y171.98 Z0.275
M204 S300
M205 X8 Y8
G1 F1200 Z0.2
G1 F2400 E15.7388
G1 F1958.5 X180.325 Y171.98 E16.1972
M204 S3000
M205 X10 Y10
G0 F6000 X181.191 Y172.498
M204 S300
M205 X8 Y8
G1 F2700 X181.541 Y172.854 E16.2237
G1 X181.96 Y173.044 E16.24812
G1 X182.161 Y173.067 E16.25886
G1 X182.472 Y173.033 E16.27547
G1 X182.674 Y172.961 E16.28685
G1 X182.963 Y172.749 E16.30588
G1 X183.177 Y172.439 E16.32587
G1 X183.265 Y172.189 E16.33994
G1 X183.253 Y171.713 E16.36522
G1 X183.077 Y171.34 E16.38711
G1 X182.775 Y171.057 E16.40908
G1 X182.398 Y170.904 E16.43068
G1 X182.077 Y170.893 E16.44773
G1 X181.697 Y171.006 E16.46877
G1 X181.454 Y171.176 E16.48451
G1 X181.192 Y171.464 E16.50518
G1 X180.829 Y171.73 E16.52907
G1 F2270.3 X180.325 Y171.98 E16.56459
G1 X180.828 Y172.232 E16.60011
G1 F2700 X181.191 Y172.498 E16.62399
M204 S3000
M205 X10 Y10
G0 F6000 X173.615 Y171.312
G0 X173.23 Y170.287
G0 X173.266 Y169.524
G0 X173.642 Y168.647
G0 X181.851 Y167.906
G0 X182.663 Y167.905
G0 X183.61 Y168.111
G0 X184.191 Y168.365
G0 X184.861 Y168.808
G0 X185.542 Y169.517
G0 X185.969 Y170.222
G0 X186.285 Y171.164
G0 X186.364 Y171.941
G0 X186.07 Y173.64
G0 X186.021 Y173.614
M204 S300
M205 X8 Y8
G1 F2652.6 X185.798 Y174.045 E16.65021
G1 X186.329 Y174.039 E16.67891
G1 X186.429 Y173.998 E16.68475
G1 X186.559 Y173.801 E16.6975
G1 X186.559 Y173.499 E16.71382
G1 F2284 X186.467 Y172.698 E16.76441
G1 F2094.2 X186.433 Y172.588 E16.77229
G1 F2400 X186.021 Y173.614 E16.83832
M204 S3000
M205 X10 Y10
G0 F6000 X186.07 Y173.64
G0 X186.439 Y172.606
M204 S300
M205 X8 Y8
G1 F1921.2 X186.462 Y171.952 E16.88714
G1 F1892.4 X186.427 Y171.235 E16.94151
M204 S3000
M205 X10 Y10
G0 F6000 X185.969 Y170.222
G0 X185.542 Y169.517
G0 X184.861 Y168.808
G0 X184.191 Y168.365
G0 X183.61 Y168.111
G0 X182.663 Y167.905
G0 X173.053 Y168.665
M204 S300
M205 X8 Y8
G1 F2700 X173.25 Y168.443 E16.95726
G1 X173.689 Y168.173 E16.98462
G1 X174.091 Y168.083 E17.00649
G1 X179.734 Y168.08 E17.30604
G1 X180.668 Y167.602 E17.36173
G1 X181.805 Y167.345 E17.42361
G1 X182.722 Y167.344 E17.47229
G1 X183.806 Y167.577 E17.53114
G1 X184.553 Y167.933 E17.57507
G1 X185.222 Y168.373 E17.61757
G1 X186.004 Y169.182 E17.6773
G1 X186.004 Y157.639 E18.29004
G1 X185.789 Y157.908 E18.30832
G1 X185.212 Y158.468 E18.351
G1 X184.939 Y158.675 E18.36919
G1 X184.105 Y159.159 E18.42038
G1 X183.33 Y159.401 E18.46347
G1 X182.7 Y159.515 E18.49746
G1 X181.61 Y159.491 E18.55533
G1 X180.875 Y159.315 E18.59545
G1 X180.19 Y159.033 E18.63478
G1 X179.766 Y158.78 E18.66099
G1 X174.091 Y158.777 E18.96223
G1 X173.653 Y158.673 E18.98613
G1 X173.413 Y158.544 E19.00059
G1 X173.181 Y158.35 E19.01665
G1 X172.948 Y158.041 E19.03719
G1 X172.741 Y157.481 E19.06888
G1 X172.672 Y157.15 E19.08683
G1 X172.704 Y156.453 E19.12387
G1 X172.769 Y156.164 E19.13959
G1 X172.972 Y155.691 E19.16692
G1 X173.123 Y155.474 E19.18095
G1 X173.48 Y155.174 E19.2057
G1 F2270.3 X174.061 Y154.88 E19.24681
G1 X173.48 Y154.586 E19.28792
G1 F2700 X173.123 Y154.286 E19.31267
G1 X172.972 Y154.069 E19.32671
G1 X172.743 Y153.52 E19.35828
G1 X172.694 Y153.227 E19.37405
G1 X172.675 Y152.508 E19.41223
G1 X172.916 Y151.802 E19.45183
G1 X173.194 Y151.397 E19.47791
G1 X173.443 Y151.197 E19.49486
G1 X173.752 Y151.05 E19.51303
G1 X174.101 Y150.982 E19.5319
G1 X179.747 Y150.98 E19.83161
G1 X180.012 Y150.823 E19.84796
G1 X180.91 Y150.421 E19.90019
G1 X181.827 Y150.246 E19.94974
G1 X182.732 Y150.244 E19.99778
G1 X183.341 Y150.359 E20.03068
G1 X184.105 Y150.597 E20.07316
G1 X185.077 Y151.158 E20.13273
G1 X185.658 Y151.699 E20.17487
G1 X186.004 Y152.12 E20.2038
G1 X186.004 Y128.512 E21.45699
G1 X116.012 Y128.512 E25.17239
G1 X115.991 Y138.884 E25.72297
G1 X116.604 Y139.059 E25.75681
G1 X117.453 Y139.453 E25.80649
G1 X118.12 Y139.855 E25.84783
G1 X118.616 Y140.216 E25.88039
G1 X119.224 Y140.752 E25.92342
G1 X119.651 Y141.224 E25.95721
G1 X120.129 Y141.848 E25.99893
G1 X120.479 Y142.427 E26.03485
G1 X120.826 Y143.139 E26.07689
G1 X121.052 Y143.772 E26.11257
G1 X121.248 Y144.518 E26.15351
G1 X121.4 Y145.488 E26.20563
G1 X121.395 Y156.523 E26.79141
G1 X121.265 Y157.388 E26.83784
G1 X121.082 Y158.142 E26.87903
G1 X120.844 Y158.817 E26.91702
G1 X120.517 Y159.5 E26.95722
G1 X120.138 Y160.13 E26.99624
G1 X119.715 Y160.701 E27.03396
G1 X119.215 Y161.25 E27.07338
G1 X118.72 Y161.694 E27.10868
G1 X118.096 Y162.163 E27.15012
G1 X117.404 Y162.568 E27.19268
G1 X116.876 Y162.816 E27.22364
G1 X115.99 Y163.145 E27.27381
G1 X116.012 Y173.488 E27.82285
G1 X122.528 Y173.5 E28.16875
G1 X122.496 Y173.017 E28.19444
G1 X122.605 Y172.478 E28.22363
G1 X122.896 Y171.928 E28.25666
G1 X122.641 Y171.856 E28.27073
G1 X122.106 Y171.634 E28.30148
G1 X121.674 Y171.266 E28.3316
G1 X121.394 Y170.866 E28.35752
G1 X121.147 Y170.271 E28.39172
G1 X121.1 Y169.755 E28.41922
G1 X121.144 Y169.402 E28.4381
G1 X121.343 Y168.782 E28.47267
G1 X121.805 Y168.222 E28.51121
G1 X122.151 Y167.969 E28.53396
G1 X122.869 Y167.67 E28.57525
G1 X122.584 Y167.107 E28.60874
G1 X122.488 Y166.489 E28.64194
G1 X122.591 Y165.802 E28.67882
G1 X122.775 Y165.38 E28.70325
G1 X122.906 Y165.183 E28.71581
G1 X123.37 Y164.718 E28.75068
G1 X123.657 Y164.542 E28.76856
G1 X124.115 Y164.364 E28.79464
G1 X124.44 Y164.316 E28.81208
G1 X125.162 Y164.363 E28.85049
G1 X125.508 Y164.486 E28.86998
G1 X125.867 Y164.693 E28.89198
G1 X126.07 Y164.111 E28.9247
G1 X126.412 Y163.608 E28.95698
G1 X126.812 Y163.267 E28.98489
G1 X127.065 Y163.123 E29.00034
G1 X127.584 Y162.934 E29.02966
G1 X128.227 Y162.923 E29.0638
G1 X128.617 Y163.007 E29.08497
G1 X129.149 Y163.246 E29.11593
G1 X129.41 Y163.434 E29.13301
G1 X129.813 Y163.911 E29.16615
G1 X129.985 Y164.256 E29.18662
G1 X130.118 Y164.688 E29.21061
G1 X130.716 Y164.399 E29.24587
G1 X131.418 Y164.3 E29.2835
G1 X132.054 Y164.415 E29.31781
G1 X132.621 Y164.713 E29.35181
G1 X133.086 Y165.163 E29.38616
G1 X133.244 Y165.424 E29.40236
G1 X133.448 Y166.031 E29.43635
G1 X133.507 Y166.508 E29.46186
G1 X133.425 Y167.028 E29.48981
G1 X133.132 Y167.667 E29.52712
G1 X133.851 Y167.972 E29.56858
G1 X134.122 Y168.157 E29.586
G1 X134.499 Y168.563 E29.61541
G1 X134.839 Y169.247 E29.65596
G1 X134.897 Y169.869 E29.68912
G1 X134.876 Y170.111 E29.70201
G1 X134.694 Y170.724 E29.73596
G1 X134.297 Y171.28 E29.77222
G1 X133.88 Y171.647 E29.80171
G1 X133.111 Y171.944 E29.84547
G1 X133.394 Y172.483 E29.87779
G1 X133.501 Y173.02 E29.90685
G1 X133.47 Y173.507 E29.93276
G1 X140.648 Y173.508 E30.31379
G1 X140.369 Y172.88 E30.35027
G1 X140.292 Y172.419 E30.37508
G1 X140.301 Y159.109 E31.08161
G1 X140.36 Y158.731 E31.10192
G1 X140.486 Y158.359 E31.12277
G1 X140.777 Y157.845 E31.15412
G1 X141.055 Y157.532 E31.17635
G1 X141.616 Y157.124 E31.21317
G1 X142.171 Y156.931 E31.24436
G1 X142.471 Y156.882 E31.2605
G1 X166.914 Y156.882 E32.55801
G1 X167.346 Y156.977 E32.58149
G1 X167.931 Y157.223 E32.61518
G1 X168.13 Y157.353 E32.62779
G1 X168.609 Y157.83 E32.66368
G1 X168.868 Y158.262 E32.69042
G1 X169.064 Y158.823 E32.72196
G1 X169.092 Y159.136 E32.73864
G1 X169.092 Y172.324 E33.4387
G1 X169.026 Y172.817 E33.46511
G1 X168.877 Y173.241 E33.48896
G1 X168.729 Y173.508 E33.50517
G1 X172.727 Y173.507 E33.71739
G1 X172.863 Y173.037 E33.74337
G1 X172.989 Y172.762 E33.75942
G1 X173.292 Y172.406 E33.78424
G1 F2270.3 X174.061 Y171.98 E33.83974
G1 X173.292 Y171.554 E33.89524
G1 F2700 X172.989 Y171.198 E33.92005
G1 X172.757 Y170.628 E33.95272
G1 X172.671 Y170.286 E33.97144
G1 X172.697 Y169.649 E34.00528
G1 X172.802 Y169.176 E34.031
G1 X173.053 Y168.665 E34.06122
M204 S3000
M205 X10 Y10
G0 F6000 X173.266 Y156.424
G0 X173.57 Y155.714
G0 X174.061 Y154.88
M204 S300
M205 X8 Y8
G1 F1973.9 X180.192 Y154.88 E34.5064
M204 S3000
M205 X10 Y10
G0 F6000 X181.196 Y155.403
M204 S300
M205 X8 Y8
G1 F2700 X181.502 Y155.72 E34.52979
G1 X181.735 Y155.865 E34.54435
G1 X181.999 Y155.947 E34.55903
G1 X182.274 Y155.963 E34.57365
G1 X182.55 Y155.909 E34.58858
G1 X182.859 Y155.748 E34.60707
G1 X183.042 Y155.571 E34.62059
G1 X183.187 Y155.333 E34.63538
G1 X183.268 Y155.049 E34.65106
G1 X183.276 Y154.75 E34.66694
G1 X183.125 Y154.312 E34.69153
G1 X182.945 Y154.087 E34.70683
G1 X182.668 Y153.893 E34.72478
G1 X182.402 Y153.811 E34.73955
G1 X182.046 Y153.802 E34.75846
G1 X181.758 Y153.877 E34.77426
G1 X181.539 Y154.003 E34.78767
G1 X181.196 Y154.357 E34.81383
G1 X180.832 Y154.625 E34.83783
G1 F2290.9 X180.192 Y154.88 E34.88093
G1 X180.832 Y155.135 E34.92403
G1 F2700 X181.196 Y155.403 E34.94802
M204 S3000
M205 X10 Y10
G0 F6000 X173.642 Y155.547
G0 X173.266 Y156.424
G0 X173.23 Y170.287
G0 X173.4 Y173.025
G0 X173.47 Y173.049
M204 S300
M205 X8 Y8
G1 F2700 X173.652 Y172.836 E34.9629
G1 X173.867 Y172.705 E34.97626
G1 X174.118 Y172.643 E34.98999
G1 X180.267 Y172.643 E35.31639
G1 X180.574 Y172.731 E35.33335
G1 X180.792 Y172.891 E35.3477
G1 X181.184 Y173.29 E35.37739
G1 X181.409 Y173.437 E35.39166
G1 X181.829 Y173.593 E35.41544
G1 X182.159 Y173.631 E35.43308
G1 X182.598 Y173.583 E35.45652
G1 X182.916 Y173.469 E35.47445
G1 X183.167 Y173.317 E35.49003
G1 X183.386 Y173.123 E35.50556
G1 X183.68 Y172.695 E35.53312
G1 X183.815 Y172.313 E35.55463
G1 X183.847 Y172.011 E35.57075
G1 X183.803 Y171.59 E35.59322
G1 X183.698 Y171.291 E35.61004
G1 X183.533 Y171.009 E35.62738
G1 X183.314 Y170.764 E35.64483
G1 X183.065 Y170.573 E35.66149
G1 X182.666 Y170.391 E35.68477
G1 X182.472 Y170.346 E35.69534
G1 X182.032 Y170.331 E35.71871
G1 X181.73 Y170.39 E35.73504
G1 X181.43 Y170.509 E35.75217
G1 X181.081 Y170.754 E35.77481
G1 X180.794 Y171.071 E35.79751
G1 X180.576 Y171.23 E35.81183
G1 X180.268 Y171.317 E35.82882
G1 X174.118 Y171.317 E36.15528
G1 X173.867 Y171.255 E36.16901
G1 X173.652 Y171.124 E36.18237
G1 X173.47 Y170.911 E36.19724
G1 X173.244 Y170.336 E36.23004
G1 X173.256 Y169.674 E36.26519
G1 X173.319 Y169.39 E36.28063
G1 X173.508 Y168.991 E36.30406
G1 X173.758 Y168.76 E36.32213
G1 X174.062 Y168.64 E36.33948
G1 X179.912 Y168.64 E36.65002
G1 X180.064 Y168.54 E36.65968
G1 X180.863 Y168.131 E36.70732
G1 X181.86 Y167.904 E36.7616
G1 X182.665 Y167.904 E36.80433
G1 X183.62 Y168.11 E36.85619
G1 X184.246 Y168.401 E36.89284
G1 X184.859 Y168.803 E36.93175
G1 X185.543 Y169.512 E36.98405
G1 X185.923 Y170.141 E37.02306
G1 F2427 X186.314 Y171.051 E37.08155
G1 F1989.5 X186.427 Y171.235 E37.0971
G1 X186.501 Y171.021 E37.11342
G1 F2427 X186.564 Y170.221 E37.16081
G1 F2700 X186.564 Y156.752 E37.87578
G1 F2351.5 X186.481 Y155.94 E37.92553
G1 F1909.1 X186.415 Y155.766 E37.93951
G1 X186.309 Y155.91 E37.95293
G1 F2351.5 X185.869 Y156.817 E38.01437
G1 F2700 X185.467 Y157.44 E38.05373
G1 X184.746 Y158.14 E38.10708
G1 X183.881 Y158.642 E38.16016
G1 X183.163 Y158.866 E38.20009
G1 X182.655 Y158.954 E38.22746
G1 X181.686 Y158.933 E38.27891
G1 X181.054 Y158.784 E38.31338
G1 X180.405 Y158.516 E38.35065
G1 X179.938 Y158.22 E38.38
G1 X174.131 Y158.218 E38.68825
G1 X173.868 Y158.156 E38.7026
G1 X173.585 Y157.962 E38.72081
G1 X173.43 Y157.736 E38.73536
G1 X173.24 Y157.147 E38.76821
G1 X173.258 Y156.506 E38.80225
G1 X173.46 Y155.966 E38.83285
G1 X173.551 Y155.836 E38.84128
G1 X173.765 Y155.656 E38.85612
G1 X174.118 Y155.543 E38.8758
G1 X180.192 Y155.54 E39.19822
G1 X180.576 Y155.633 E39.2192
G1 X180.795 Y155.793 E39.23359
G1 X181.148 Y156.16 E39.26062
G1 X181.5 Y156.378 E39.2826
G1 X181.897 Y156.502 E39.30468
G1 X182.313 Y156.526 E39.3268
G1 X182.72 Y156.446 E39.34882
G1 X183.213 Y156.184 E39.37845
G1 X183.466 Y155.939 E39.39715
G1 X183.71 Y155.539 E39.42202
G1 X183.826 Y155.135 E39.44433
G1 X183.837 Y154.701 E39.46738
G1 X183.778 Y154.404 E39.48345
G1 X183.607 Y154.019 E39.50582
G1 X183.345 Y153.689 E39.52818
G1 X182.887 Y153.374 E39.55769
G1 X182.494 Y153.253 E39.57952
G1 X181.981 Y153.24 E39.60676
G1 X181.564 Y153.349 E39.62964
G1 X181.176 Y153.573 E39.65342
G1 X180.795 Y153.967 E39.68251
G1 X180.576 Y154.127 E39.69691
G1 X180.192 Y154.22 E39.71788
G1 X174.118 Y154.217 E40.04031
G1 X173.765 Y154.104 E40.05999
G1 X173.551 Y153.924 E40.07483
