;FLAVOR:Marlin
;TIME:1390
;Filament used: 1.68723m
;Layer height: 0.2
;MINX:116.424
;MINY:139.221
;MINZ:0.2
;MAXX:185.591
;MAXY:162.774
;MAXZ:20
;TARGET_MACHINE.NAME:Unknown
;Generated with Cura_SteamEngine 5.8.0
M140 S60
M105
M190 S60
M104 S195
M105
M109 S195
M82 ;absolute extrusion mode
G28 ;Home
G1 Z15.0 F6000 ;Move the platform down 15mm
;Prime the extruder
G92 E0
G1 F200 E3
G92 E0
G92 E0
G92 E0
G1 F2400 E-6
;LAYER_COUNT:100
;LAYER:0
M107
M204 S3000
M205 X10 Y10
G1 F1200 Z0.275
G0 F6000 X118.367 Y153.327 Z0.275
M204 S300
M205 X8 Y8
;TYPE:SKIRT
G1 F1200 Z0.2
G1 F2400 E0
G1 X118.869 Y152.964 E0.03288
G1 X119.826 Y152.372 E0.09262
G1 X120.881 Y151.748 E0.15768
G1 X121.794 Y151.227 E0.21349
G1 X123.608 Y150.265 E0.32248
G1 X124.349 Y149.887 E0.36664
G1 X126.322 Y148.963 E0.48229
G1 X127.24 Y148.553 E0.53566
G1 X129.103 Y147.789 E0.64254
G1 X129.985 Y147.445 E0.6928
G1 X131.976 Y146.742 E0.80488
G1 X133.047 Y146.385 E0.86481
G1 X134.905 Y145.837 E0.96764
G1 X135.906 Y145.558 E1.0228
G1 X137.877 Y145.078 E1.13048
G1 X138.737 Y144.883 E1.17729
G1 X140.849 Y144.474 E1.29149
G1 X141.832 Y144.302 E1.34446
G1 X143.793 Y144.024 E1.4496
G1 X144.899 Y143.887 E1.50876
G1 X146.896 Y143.707 E1.6152
G1 X148.9 Y143.556 E1.72188
G1 X149.021 Y143.537 E1.72838
G1 X149.968 Y143.471 E1.77877
G1 X152.686 Y143.201 E1.92376
G1 X155.338 Y142.861 E2.06569
G1 X158.02 Y142.439 E2.20981
G1 X160.726 Y141.936 E2.35591
G1 X163.36 Y141.371 E2.49891
G1 X166.036 Y140.714 E2.64518
G1 X168.633 Y140 E2.78816
G1 X169.868 Y139.62 E2.85675
G1 X170.677 Y139.384 E2.90148
G1 X171.306 Y139.259 E2.93552
G1 X171.999 Y139.222 E2.97236
G1 X181.098 Y139.221 E3.45537
G1 X181.84 Y139.233 E3.49476
G1 X182.436 Y139.296 E3.52657
G1 X183.014 Y139.45 E3.55832
G1 X183.562 Y139.692 E3.59012
G1 X184.066 Y140.017 E3.62196
G1 X184.512 Y140.415 E3.65369
G1 X184.892 Y140.878 E3.68549
G1 X185.156 Y141.317 E3.71268
G1 X185.403 Y141.909 E3.74673
G1 X185.542 Y142.528 E3.78041
G1 X185.591 Y143.097 E3.81072
G1 X185.583 Y146.488 E3.99073
G1 X185.59 Y147.378 E4.03797
G1 X185.587 Y155.524 E4.47039
G1 X185.575 Y156.23 E4.50787
G1 X185.473 Y157.126 E4.55574
G1 X185.263 Y157.928 E4.59975
G1 X185.063 Y158.437 E4.62878
G1 X184.701 Y159.127 E4.67014
G1 X184.448 Y159.501 E4.69411
G1 X183.884 Y160.189 E4.74133
G1 X183.153 Y160.786 E4.79143
G1 X182.769 Y161.039 E4.81584
G1 X181.988 Y161.456 E4.86284
G1 X181.13 Y161.717 E4.91045
G1 X180.608 Y161.82 E4.93869
G1 X179.704 Y161.904 E4.98689
G1 X178.783 Y161.804 E5.03606
G1 X178.222 Y161.685 E5.0665
G1 X175.341 Y160.924 E5.22468
G1 X172.676 Y160.304 E5.36993
G1 X170.011 Y159.761 E5.5143
G1 X167.357 Y159.3 E5.65729
G1 X164.642 Y158.905 E5.80293
G1 X161.947 Y158.591 E5.94696
G1 X159.239 Y158.353 E6.09126
G1 X156.526 Y158.191 E6.23553
G1 X153.815 Y158.107 E6.37951
G1 X151.096 Y158.099 E6.52384
G1 X148.349 Y158.169 E6.66971
G1 X145.669 Y158.313 E6.81218
G1 X142.951 Y158.537 E6.95695
G1 X140.245 Y158.838 E7.10148
G1 X137.514 Y159.218 E7.24784
G1 X134.886 Y159.66 E7.38931
G1 X132.19 Y160.194 E7.5352
G1 X129.551 Y160.791 E7.67882
G1 X126.924 Y161.468 E7.82283
G1 X124.287 Y162.228 E7.96851
G1 X123.092 Y162.59 E8.03479
G1 X122.296 Y162.753 E8.07792
G1 X121.518 Y162.774 E8.11923
G1 X120.747 Y162.669 E8.16054
G1 X119.76 Y162.392 E8.21496
G1 X119.021 Y162.018 E8.25892
G1 X118.285 Y161.475 E8.30747
G1 X117.849 Y161.071 E8.33903
G1 X117.443 Y160.57 E8.37326
G1 X116.974 Y159.832 E8.41967
G1 X116.659 Y159.035 E8.46517
G1 X116.505 Y158.361 E8.50187
G1 X116.424 Y157.569 E8.54413
G1 X116.477 Y156.587 E8.59633
G1 X116.678 Y155.777 E8.64063
G1 X117.053 Y154.933 E8.68966
G1 X117.357 Y154.424 E8.72113
G1 X117.806 Y153.867 E8.75911
G1 X118.367 Y153.327 E8.80044
M204 S3000
M205 X10 Y10
G0 F6000 X118.697 Y153.78
M204 S300
M205 X8 Y8
G1 F2400 X119.164 Y153.44 E8.8311
G1 X120.111 Y152.854 E8.89022
G1 X121.159 Y152.234 E8.95486
G1 X122.056 Y151.722 E9.00968
G1 X123.863 Y150.764 E9.11825
G1 X124.587 Y150.394 E9.16141
G1 X126.551 Y149.474 E9.27654
G1 X127.452 Y149.071 E9.32893
G1 X129.307 Y148.311 E9.43535
G1 X130.171 Y147.973 E9.4846
G1 X132.162 Y147.27 E9.59668
G1 X133.206 Y146.922 E9.6551
G1 X135.056 Y146.376 E9.75749
G1 X136.038 Y146.102 E9.81161
G1 X138.001 Y145.624 E9.91885
G1 X138.843 Y145.433 E9.96468
G1 X140.946 Y145.026 E10.07839
G1 X141.929 Y144.854 E10.13136
G1 X143.862 Y144.58 E10.235
G1 X144.949 Y144.445 E10.29314
G1 X146.938 Y144.265 E10.39916
G1 X148.971 Y144.112 E10.50738
G1 X149.061 Y144.096 E10.51223
G1 X150.008 Y144.029 E10.56263
G1 X152.741 Y143.758 E10.70842
G1 X155.427 Y143.414 E10.85216
G1 X158.122 Y142.99 E10.99698
G1 X160.836 Y142.486 E11.14351
G1 X163.483 Y141.918 E11.28722
G1 X166.17 Y141.258 E11.4341
G1 X168.781 Y140.54 E11.57784
G1 X170.025 Y140.158 E11.64692
G1 X170.834 Y139.922 E11.69165
G1 X171.336 Y139.818 E11.71887
G1 X171.999 Y139.782 E11.75411
G1 X181.09 Y139.781 E12.23669
G1 X181.788 Y139.791 E12.27375
G1 X182.298 Y139.839 E12.30094
G1 X182.794 Y139.965 E12.32811
G1 X183.264 Y140.166 E12.35524
G1 X183.698 Y140.439 E12.38246
G1 X184.083 Y140.775 E12.40958
G1 X184.412 Y141.167 E12.43675
G1 X184.676 Y141.606 E12.46394
G1 X184.868 Y142.081 E12.49114
G1 X184.984 Y142.579 E12.51828
G1 X185.031 Y143.096 E12.54584
G1 X185.023 Y146.487 E12.72584
G1 X185.03 Y147.378 E12.77314
G1 X185.027 Y155.516 E13.20513
G1 X185.018 Y156.171 E13.23991
G1 X184.931 Y156.987 E13.28347
G1 X184.741 Y157.726 E13.32397
G1 X184.566 Y158.179 E13.34975
G1 X184.235 Y158.816 E13.38786
G1 X184.015 Y159.146 E13.40891
G1 X183.486 Y159.791 E13.45319
G1 X182.842 Y160.32 E13.49743
G1 X182.505 Y160.545 E13.51894
G1 X181.773 Y160.936 E13.56299
G1 X180.967 Y161.181 E13.60771
G1 X180.556 Y161.262 E13.62995
G1 X179.707 Y161.341 E13.67521
G1 X178.899 Y161.256 E13.71834
G1 X178.338 Y161.137 E13.74878
G1 X175.475 Y160.381 E13.90597
G1 X172.788 Y159.755 E14.05242
G1 X170.116 Y159.211 E14.19717
G1 X167.453 Y158.748 E14.34065
G1 X164.718 Y158.35 E14.48736
G1 X161.996 Y158.033 E14.63283
G1 X159.286 Y157.795 E14.77724
G1 X156.543 Y157.631 E14.92311
G1 X153.832 Y157.547 E15.06709
G1 X151.084 Y157.539 E15.21296
G1 X148.335 Y157.609 E15.35893
G1 X145.628 Y157.755 E15.50284
G1 X142.889 Y157.98 E15.64872
G1 X140.18 Y158.281 E15.79341
G1 X137.437 Y158.663 E15.94042
G1 X134.787 Y159.109 E16.08307
G1 X132.066 Y159.648 E16.23032
G1 X129.427 Y160.245 E16.37394
G1 X126.773 Y160.929 E16.51943
G1 X124.124 Y161.692 E16.66576
G1 X122.98 Y162.041 E16.72925
G1 X122.231 Y162.194 E16.76983
G1 X121.548 Y162.213 E16.8061
G1 X120.823 Y162.114 E16.84495
G1 X119.968 Y161.869 E16.89216
G1 X119.311 Y161.537 E16.93123
G1 X118.661 Y161.06 E16.97403
G1 X118.282 Y160.716 E17.0012
G1 X117.916 Y160.27 E17.03183
G1 X117.475 Y159.575 E17.07552
G1 X117.204 Y158.906 E17.11384
G1 X117.062 Y158.304 E17.14667
G1 X116.985 Y157.555 E17.18664
G1 X117.033 Y156.674 E17.23347
G1 X117.211 Y155.955 E17.27279
G1 X117.537 Y155.215 E17.31572
G1 X117.795 Y154.773 E17.34289
G1 X118.197 Y154.268 E17.37715
G1 X118.697 Y153.78 E17.41424
M204 S3000
M205 X10 Y10
G1 F2400 E11.41424
;MESH:Case_1-Clip.stl
G0 F6000 X120.351 Y155.794
G0 X121.013 Y156.651
G0 X121.796 Y157.406
M204 S300
M205 X8 Y8
;TYPE:WALL-INNER
G1 F2400 E17.41424
G1 F2057.1 X124.035 Y156.057 E17.59636
G1 F2160 X126.59 Y154.685 E17.78879
G1 F2297.9 X128.914 Y153.575 E17.94943
G1 F2423.1 X131.152 Y152.638 E18.09294
G1 X131.661 Y152.439 E18.12527
G1 F2478.7 X133.616 Y151.73 E18.24551
G1 F2528.4 X134.329 Y151.492 E18.28812
G1 F2571.4 X136.179 Y150.927 E18.39594
G1 F2611.4 X136.991 Y150.699 E18.44223
G1 F2638.7 X138.731 Y150.257 E18.53974
G1 F2657.3 X139.667 Y150.043 E18.59153
G1 F2685.6 X141.319 Y149.71 E18.68146
G1 F2704.8 X142.504 Y149.501 E18.74522
G1 F2714.5 X143.9 Y149.291 E18.81976
G1 F2719.4 X145.207 Y149.125 E18.8892
G1 F2724.3 X146.563 Y148.985 E18.96091
G1 X147.987 Y148.875 E19.03605
G1 F2709.7 X149.186 Y148.812 E19.09956
G1 F2685.6 X150.773 Y148.768 E19.18429
G1 F2652.6 X151.796 Y148.765 E19.23956
G1 F2638.7 X153.558 Y148.803 E19.33529
G1 F2615.9 X154.478 Y148.845 E19.38574
G1 F2575.8 X156.33 Y148.975 E19.48905
G1 F2528.4 X157.101 Y149.049 E19.53295
G1 F2474.6 X159.07 Y149.281 E19.64778
G1 F2427 X159.775 Y149.384 E19.68986
G1 F2340.6 X162.082 Y149.779 E19.83318
G1 F2194.5 X164.74 Y150.367 E20.01098
G1 F2132.6 X167.463 Y151.117 E20.2008
G1 F2054.3 X168.848 Y151.571 E20.30248
G1 F1953.5 X170.234 Y152.026 E20.40951
M204 S3000
M205 X10 Y10
G0 F6000 X171.602 Y151.8
M204 S300
M205 X8 Y8
G1 F2700 X171.259 Y151.9 E20.42848
G1 X170.637 Y151.955 E20.46162
G1 F2236.7 X170.234 Y152.026 E20.48784
G1 X170.563 Y152.276 E20.51432
G1 F2700 X172.345 Y152.971 E20.61586
G1 X174.806 Y154.075 E20.75904
G1 X177.157 Y155.271 E20.89906
G1 X179.532 Y156.622 E21.0441
G1 X179.808 Y156.65 E21.05882
G1 X180.037 Y156.577 E21.07158
G1 X180.206 Y156.437 E21.08323
G1 X180.344 Y156.148 E21.10023
G1 X180.347 Y148.461 E21.50828
G1 X173.748 Y148.46 E21.85858
G1 X173.208 Y148.353 E21.8878
G1 X173.148 Y148.305 E21.89188
G1 X173.148 Y149.766 E21.96944
G1 X173.011 Y150.367 E22.00216
G1 X172.645 Y151.011 E22.04148
G1 X172.295 Y151.39 E22.06886
G1 X172.062 Y151.561 E22.0842
G1 X171.602 Y151.8 E22.11172
M204 S3000
M205 X10 Y10
G0 F6000 X171.173 Y151.347
M204 S300
M205 X8 Y8
G1 F2700 X170.686 Y151.397 E22.13771
G1 X170.366 Y151.364 E22.15479
G1 X167.45 Y150.444 E22.3171
G1 X164.719 Y149.727 E22.46698
G1 X161.974 Y149.144 E22.61594
G1 X159.148 Y148.69 E22.76788
G1 X156.378 Y148.394 E22.91576
G1 X153.564 Y148.229 E23.06539
G1 X150.751 Y148.197 E23.21472
G1 X147.938 Y148.312 E23.36417
G1 X145.13 Y148.565 E23.51383
G1 X142.399 Y148.944 E23.66019
G1 X139.547 Y149.485 E23.81428
G1 X136.842 Y150.144 E23.96207
G1 X134.15 Y150.936 E24.11103
G1 X131.437 Y151.887 E24.26364
G1 X128.868 Y152.936 E24.41094
G1 X126.301 Y154.135 E24.56133
G1 X123.831 Y155.438 E24.70958
G1 X121.338 Y156.914 E24.86337
G1 X121.202 Y157.081 E24.8748
G1 X121.1 Y157.398 E24.89248
G1 X121.157 Y157.714 E24.90952
G1 X121.262 Y157.873 E24.91964
G1 X121.511 Y158.046 E24.93573
G1 X121.832 Y158.087 E24.95291
G1 X122.078 Y158.003 E24.96671
G1 X124.342 Y156.616 E25.10765
G1 X126.615 Y155.364 E25.2454
G1 X128.996 Y154.204 E25.38599
G1 X131.397 Y153.173 E25.5247
G1 X133.829 Y152.263 E25.66254
G1 X136.324 Y151.472 E25.80148
G1 X138.847 Y150.802 E25.94005
G1 X141.408 Y150.254 E26.07907
G1 X143.944 Y149.839 E26.21548
G1 X146.633 Y149.529 E26.35917
G1 X149.173 Y149.364 E26.49428
G1 X151.806 Y149.324 E26.63407
G1 X154.433 Y149.406 E26.77358
G1 X157.009 Y149.616 E26.91078
G1 X159.671 Y149.961 E27.05327
G1 X162.197 Y150.42 E27.18955
G1 X164.726 Y151.002 E27.32731
G1 X167.222 Y151.711 E27.46505
G1 X169.692 Y152.539 E27.60333
G1 X172.142 Y153.493 E27.7429
G1 X174.553 Y154.574 E27.88316
G1 X176.845 Y155.739 E28.01964
G1 X179.17 Y157.061 E28.16161
G1 X179.413 Y157.165 E28.17564
G1 X179.861 Y157.211 E28.19955
G1 X180.074 Y157.168 E28.21108
G1 X180.478 Y156.957 E28.23528
G1 X180.758 Y156.615 E28.25874
G1 X180.869 Y156.335 E28.27473
G1 X180.904 Y156.093 E28.28771
G1 X180.907 Y147.901 E28.72257
G1 X173.748 Y147.9 E29.10259
G1 X173.424 Y147.836 E29.12012
G1 X173.075 Y147.564 E29.14361
G1 F2076.9 X172.755 Y147.234 E29.17533
G1 X172.587 Y147.726 E29.21121
G1 F2700 X172.588 Y149.7 E29.31599
G1 X172.484 Y150.179 E29.34201
G1 X172.171 Y150.712 E29.37482
G1 X171.961 Y150.94 E29.39128
G1 X171.729 Y151.111 E29.40658
G1 X171.173 Y151.347 E29.43864
M204 S3000
M205 X10 Y10
G0 F6000 X171.181 Y151.405
G0 X172.088 Y150.843
G0 X172.485 Y150.211
G0 X172.755 Y147.234
M204 S300
M205 X8 Y8
G1 F1702.7 X172.748 Y147.06 E29.4533
G1 F1718.2 X172.748 Y145.06 E29.62013
M204 S3000
M205 X10 Y10
G0 F6000 X173.136 Y144.448
M204 S300
M205 X8 Y8
G1 F2005.3 X173.574 Y144.067 E29.66162
G1 X172.92 Y143.926 E29.70944
G1 F2474.6 X172.614 Y143.926 E29.72716
G1 X172.614 Y144.232 E29.74489
G1 F2026.8 X172.748 Y145.06 E29.8042
G1 X173.136 Y144.448 E29.85544
M204 S3000
M205 X10 Y10
G0 F6000 X173.574 Y144.067
M204 S300
M205 X8 Y8
G1 F1702.7 X173.748 Y144.06 E29.8701
G1 F1718.2 X180.748 Y144.06 E30.45401
M204 S3000
M205 X10 Y10
G0 F6000 X172.922 Y144.233
G0 X172.922 Y147.889
G0 X173.667 Y147.961
G0 X173.667 Y147.34
M204 S300
M205 X8 Y8
;TYPE:WALL-OUTER
G1 F2700 X173.523 Y147.228 E30.4637
G1 X173.472 Y147.109 E30.47057
G1 X173.468 Y145.06 E30.57934
G1 X173.55 Y144.862 E30.59071
G1 X173.699 Y144.784 E30.59964
G1 X181.468 Y144.78 E31.01204
G1 X181.468 Y143.34 E31.08848
G1 X172.029 Y143.341 E31.58954
G1 X172.023 Y149.662 E31.92508
G1 X171.956 Y149.991 E31.9429
G1 X171.627 Y150.49 E31.97463
G1 X171.34 Y150.693 E31.99329
G1 X171.087 Y150.793 E32.00773
G1 X170.735 Y150.839 E32.02657
G1 X170.476 Y150.815 E32.04038
G1 X167.593 Y149.902 E32.20091
G1 X164.863 Y149.185 E32.35074
G1 X162.092 Y148.596 E32.50112
G1 X159.222 Y148.134 E32.65543
G1 X156.424 Y147.836 E32.8048
G1 X153.598 Y147.669 E32.95507
G1 X150.729 Y147.637 E33.10738
G1 X147.888 Y147.754 E33.25831
G1 X145.054 Y148.01 E33.40936
G1 X142.322 Y148.389 E33.55578
G1 X139.428 Y148.938 E33.71214
G1 X136.672 Y149.61 E33.86272
G1 X133.978 Y150.403 E34.0118
G1 X131.252 Y151.358 E34.16512
G1 X128.632 Y152.428 E34.31535
G1 X126.065 Y153.627 E34.46575
G1 X123.557 Y154.949 E34.61624
G1 X121.114 Y156.397 E34.76699
G1 X120.912 Y156.551 E34.78048
G1 X120.721 Y156.785 E34.79651
G1 X120.576 Y157.111 E34.81545
G1 X120.532 Y157.407 E34.83134
G1 X120.621 Y157.896 E34.85772
G1 X120.864 Y158.272 E34.88149
G1 X121.165 Y158.508 E34.90179
G1 X121.36 Y158.591 E34.91304
G1 X121.804 Y158.653 E34.93684
G1 X122.319 Y158.513 E34.96517
G1 X124.612 Y157.106 E35.10797
G1 X126.885 Y155.856 E35.24567
G1 X129.217 Y154.718 E35.38342
G1 X131.593 Y153.697 E35.52069
G1 X133.999 Y152.797 E35.65706
G1 X136.468 Y152.013 E35.79457
G1 X138.965 Y151.35 E35.93171
G1 X141.498 Y150.807 E36.06922
G1 X144.027 Y150.393 E36.20526
G1 X146.669 Y150.088 E36.34643
G1 X149.203 Y149.924 E36.48123
G1 X151.789 Y149.884 E36.61852
G1 X154.387 Y149.964 E36.75649
G1 X156.956 Y150.174 E36.89332
G1 X159.571 Y150.512 E37.03329
G1 X162.071 Y150.966 E37.16816
G1 X164.575 Y151.543 E37.30457
G1 X167.082 Y152.254 E37.4429
G1 X169.526 Y153.075 E37.57976
G1 X171.951 Y154.02 E37.71791
G1 X174.299 Y155.074 E37.85453
G1 X176.603 Y156.244 E37.9917
G1 X178.921 Y157.564 E38.1333
G1 X179.247 Y157.703 E38.15211
G1 X179.577 Y157.768 E38.16997
G1 X179.913 Y157.771 E38.1878
G1 X180.238 Y157.706 E38.2054
G1 X180.564 Y157.571 E38.22413
G1 X180.834 Y157.393 E38.24129
G1 X181.081 Y157.146 E38.25984
G1 X181.258 Y156.874 E38.27706
G1 X181.415 Y156.479 E38.29963
G1 X181.464 Y156.132 E38.31823
G1 X181.467 Y147.341 E38.78488
G1 X173.667 Y147.34 E39.19893
M204 S3000
M205 X10 Y10
G0 F6000 X173.523 Y147.228
G0 X173.516 Y147.212
G0 X172.85 Y147.212
G0 X173.095 Y151.313
M204 S300
M205 X8 Y8
;TYPE:SKIN
G1 F2700 X173.516 Y150.547 E39.24533
G1 X173.688 Y149.832 E39.28437
G1 X173.688 Y149 E39.32853
G1 X179.804 Y149 E39.65319
G1 X179.804 Y155.995 E40.02451
G1 X179.775 Y156.087 E40.02963
G1 X179.703 Y156.098 E40.03349
G1 X177.419 Y154.796 E40.17305
G1 X175.047 Y153.59 E40.31431
G1 X172.555 Y152.472 E40.45929
G1 X171.933 Y152.23 E40.49472
G1 X172.612 Y151.828 E40.53661
G1 X173.095 Y151.313 E40.57409
M204 S3000
M205 X10 Y10
G0 F6000 X172.697 Y152.106
M204 S300
M205 X8 Y8
G1 F2700 X172.926 Y152.336 E40.59132
M204 S3000
M205 X10 Y10
G0 F6000 X173.101 Y151.718
M204 S300
M205 X8 Y8
G1 F2700 X174.357 Y152.974 E40.6856
G1 X174.427 Y153.044
M204 S3000
M205 X10 Y10
G0 F6000 X175.867 Y153.692
M204 S300
M205 X8 Y8
G1 F2700 X173.441 Y151.266 E40.86773
M204 S3000
M205 X10 Y10
G0 F6000 X173.723 Y150.757
M204 S300
M205 X8 Y8
G1 F2700 X177.477 Y154.51 E41.14951
G1 X177.547 Y154.58
M204 S3000
M205 X10 Y10
G0 F6000 X179.525 Y154.182
M204 S300
M205 X8 Y8
G1 F2700 X174.623 Y149.28 E41.5175
M204 S3000
M205 X10 Y10
G0 F6000 X173.968 Y149.417
M204 S300
M205 X8 Y8
G1 F2700 X179.525 Y154.974 E41.93467
M204 S3000
M205 X10 Y10
G0 F6000 X179.312 Y155.554
M204 S300
M205 X8 Y8
G1 F2700 X173.9 Y150.141 E42.34099
G1 X173.83 Y150.071
M204 S3000
M205 X10 Y10
G0 F6000 X175.415 Y149.28
M204 S300
M205 X8 Y8
G1 F2700 X179.525 Y153.39 E42.64954
M204 S3000
M205 X10 Y10
G0 F6000 X179.525 Y152.598
M204 S300
