;FLAVOR:Marlin
;TIME:4653
;Filament used: 5.56321m
;Layer height: 0.2
;MINX:106.2
;MINY:118.7
;MINZ:0.2
;MAXX:195.8
;MAXY:183.3
;MAXZ:19
;TARGET_MACHINE.NAME:Unknown
;Generated with Cura_SteamEngine 5.8.0
M140 S60
M105
M190 S60
M104 S195
M105
M109 S195
M82 ;absolute extrusion mode
G28 ;Home
G1 Z15.0 F6000 ;Move the platform down 15mm
;Prime the extruder
G92 E0
G1 F200 E3
G92 E0
G92 E0
G92 E0
G1 F2400 E-6
;LAYER_COUNT:95
;LAYER:0
M107
M204 S3000
M205 X10 Y10
G1 F1200 Z0.275
G0 F6000 X111.251 Y123.531 Z0.275
M204 S300
M205 X8 Y8
;TYPE:SKIRT
G1 F1200 Z0.2
G1 F2400 E0
G1 X111.639 Y123.197 E0.02718
G1 X112.246 Y122.844 E0.06445
G1 X112.866 Y122.568 E0.10048
G1 X113.484 Y122.364 E0.13502
G1 X114.257 Y122.191 E0.17707
G1 X114.924 Y122.112 E0.21272
G1 X115.716 Y122.101 E0.25477
G1 X186.352 Y122.1 E4.00435
G1 X187.034 Y122.11 E4.04056
G1 X187.587 Y122.166 E4.07007
G1 X188.356 Y122.311 E4.11161
G1 X189.103 Y122.542 E4.15311
G1 X189.898 Y122.91 E4.19961
G1 X190.335 Y123.177 E4.2268
G1 X190.858 Y123.622 E4.26325
G1 X191.306 Y124.144 E4.29977
G1 X191.652 Y124.739 E4.3363
G1 X191.931 Y125.362 E4.37254
G1 X192.139 Y125.993 E4.40781
G1 X192.309 Y126.76 E4.44951
G1 X192.387 Y127.419 E4.48474
G1 X192.4 Y128.261 E4.52944
G1 X192.4 Y173.852 E6.94955
G1 X192.39 Y174.533 E6.98571
G1 X192.328 Y175.118 E7.01693
G1 X192.184 Y175.85 E7.05653
G1 X191.961 Y176.597 E7.09792
G1 X191.585 Y177.406 E7.14527
G1 X191.317 Y177.842 E7.17244
G1 X190.85 Y178.383 E7.21038
G1 X190.314 Y178.836 E7.24763
G1 X189.923 Y179.076 E7.27198
G1 X189.215 Y179.414 E7.31363
G1 X188.471 Y179.658 E7.35519
G1 X187.634 Y179.831 E7.40056
G1 X187.079 Y179.887 E7.43017
G1 X186.239 Y179.9 E7.47477
G1 X115.648 Y179.9 E11.22196
G1 X114.967 Y179.89 E11.25812
G1 X114.413 Y179.834 E11.28768
G1 X113.645 Y179.689 E11.32916
G1 X112.897 Y179.458 E11.37072
G1 X112.118 Y179.099 E11.41625
G1 X111.681 Y178.833 E11.44341
G1 X111.036 Y178.252 E11.48949
G1 X110.699 Y177.866 E11.51669
G1 X110.425 Y177.428 E11.54412
G1 X110.07 Y176.676 E11.58826
G1 X109.81 Y175.832 E11.63514
G1 X109.673 Y175.136 E11.67279
G1 X109.611 Y174.552 E11.70397
G1 X109.601 Y173.833 E11.74214
G1 X109.6 Y128.111 E14.16921
G1 X109.611 Y127.439 E14.20488
G1 X109.676 Y126.845 E14.2366
G1 X109.822 Y126.121 E14.27581
G1 X110.057 Y125.356 E14.31829
G1 X110.418 Y124.587 E14.36339
G1 X110.687 Y124.151 E14.39058
G1 X111.251 Y123.531 E14.43507
M204 S3000
M205 X10 Y10
G1 F2400 E8.43507
;MESH:Case_1-Bottom Case.stl
G0 F6000 X115.162 Y126.533
G0 X115.581 Y127.531
G0 X167.572 Y161.928
G0 X179.678 Y162.726
M204 S300
M205 X8 Y8
;TYPE:WALL-INNER
G1 F2400 E14.43507
G1 F2700 X179.33 Y162.861 E14.45489
G1 X179 Y162.9 E14.47253
G1 X167.885 Y162.9 E15.06255
G1 X167.52 Y162.816 E15.08243
G1 X167.241 Y162.678 E15.09895
G1 X167.014 Y162.495 E15.11443
G1 X166.776 Y162.181 E15.13534
G1 X166.68 Y161.969 E15.1477
G1 X166.602 Y161.585 E15.1685
G1 X166.602 Y140.415 E16.29227
G1 X166.68 Y140.031 E16.31307
G1 X166.921 Y139.607 E16.33896
G1 X167.121 Y139.409 E16.3539
G1 X167.375 Y139.246 E16.36992
G1 X167.885 Y139.1 E16.39808
G1 X179.118 Y139.1 E16.99436
G1 X179.5 Y139.191 E17.01521
G1 X179.855 Y139.39 E17.03681
G1 X180.176 Y139.739 E17.06198
G1 X180.4 Y140.29 E17.09355
G1 X180.4 Y161.673 E18.22863
G1 X180.296 Y162.03 E18.24837
G1 X180.026 Y162.454 E18.27505
G1 X179.678 Y162.726 E18.2985
M204 S3000
M205 X10 Y10
G0 F6000 X179.407 Y162.236
M204 S300
M205 X8 Y8
G1 F2700 X179.138 Y162.34 E18.31381
G1 X167.901 Y162.335 E18.9103
G1 X167.712 Y162.29 E18.92062
G1 X167.408 Y162.097 E18.93973
G1 X167.208 Y161.782 E18.95954
G1 X167.161 Y161.551 E18.97205
G1 X167.161 Y140.449 E20.09221
G1 X167.208 Y140.218 E20.10473
G1 X167.352 Y139.964 E20.12023
G1 X167.625 Y139.748 E20.1387
G1 X167.901 Y139.665 E20.154
G1 X179.1 Y139.665 E20.74848
G1 X179.3 Y139.715 E20.75943
G1 X179.513 Y139.834 E20.77238
G1 X179.706 Y140.043 E20.78748
G1 X179.84 Y140.373 E20.80639
G1 X179.84 Y161.615 E21.93398
G1 X179.778 Y161.818 E21.94525
G1 X179.616 Y162.073 E21.96128
G1 X179.407 Y162.236 E21.97535
M204 S3000
M205 X10 Y10
G0 F6000 X179.407 Y162.4
G0 X185.988 Y173.488
M204 S300
M205 X8 Y8
G1 F2700 X185.988 Y128.508 E24.36303
G1 X115.992 Y128.511 E28.07864
G1 X115.992 Y173.488 E30.46616
G1 X185.988 Y173.488 E34.18177
M204 S3000
M205 X10 Y10
G0 F6000 X186.335 Y174.048
M204 S300
M205 X8 Y8
G1 F2700 X186.427 Y174.008 E34.1871
G1 X186.548 Y173.799 E34.19992
G1 X186.548 Y128.164 E36.62237
G1 X186.509 Y128.073 E36.62763
G1 X186.297 Y127.948 E36.64069
G1 X115.666 Y127.952 E40.39001
G1 X115.561 Y127.996 E40.39605
G1 X115.432 Y128.192 E40.40851
G1 X115.433 Y173.799 E42.82947
G1 X115.487 Y173.924 E42.8367
G1 X115.696 Y174.048 E42.8496
G1 X186.335 Y174.048 E46.59934
M204 S3000
M205 X10 Y10
G0 F6000 X186.336 Y173.988
G0 X167.848 Y162.4
G0 X167.848 Y161.736
M204 S300
M205 X8 Y8
;TYPE:WALL-OUTER
G1 F2700 X167.72 Y161.555 E46.61111
G1 X167.72 Y140.483 E47.72968
G1 X167.824 Y140.281 E47.74174
G1 X167.967 Y140.221 E47.74997
G1 X179.034 Y140.221 E48.33744
G1 X179.205 Y140.309 E48.34765
G1 X179.275 Y140.445 E48.35577
G1 X179.275 Y161.555 E49.47636
G1 X179.206 Y161.691 E49.48445
G1 X179.048 Y161.78 E49.49408
G1 X167.967 Y161.779 E50.08229
G1 X167.848 Y161.736 E50.08901
M204 S3000
M205 X10 Y10
G0 F6000 X167.733 Y161.573
G0 X167.1 Y161.573
G0 X115.708 Y173.991
G0 X115.6 Y174.608
M204 S300
M205 X8 Y8
G1 F2700 X186.45 Y174.608 E53.84995
G1 X186.792 Y174.461 E53.86971
G1 X186.981 Y174.251 E53.88471
G1 X187.108 Y173.895 E53.90477
G1 X187.108 Y128.05 E56.33837
G1 X186.961 Y127.706 E56.35823
G1 X186.752 Y127.517 E56.37319
G1 X186.395 Y127.388 E56.39334
G1 X115.553 Y127.392 E60.15386
G1 X115.202 Y127.54 E60.17408
G1 X115.008 Y127.748 E60.18918
G1 X114.872 Y128.083 E60.20837
G1 X114.873 Y173.914 E62.64122
G1 X115.034 Y174.291 E62.66298
G1 X115.244 Y174.483 E62.67809
G1 X115.6 Y174.608 E62.69812
M204 S3000
M205 X10 Y10
G0 F6000 X115.8 Y174.608
G0 X115.8 Y173.988
G0 X185.448 Y172.948
M204 S300
M205 X8 Y8
;TYPE:SKIN
G1 F2700 X116.532 Y172.948 E66.3564
G1 X116.532 Y129.048 E68.68675
G1 X185.448 Y129.048 E72.34503
G1 X185.448 Y172.948 E74.67538
M204 S3000
M205 X10 Y10
G0 F6000 X167.336 Y163.324
M204 S300
M205 X8 Y8
G1 F2700 X167.83 Y163.44 E74.70232
G1 X179.035 Y163.438 E75.29711
G1 X179.455 Y163.385 E75.31959
G1 X179.938 Y163.2 E75.34704
G1 X180.418 Y162.826 E75.37934
G1 X180.641 Y162.53 E75.39901
G1 X180.804 Y162.208 E75.41817
G1 X180.904 Y161.877 E75.43653
G1 X180.939 Y161.519 E75.45562
G1 X180.939 Y140.477 E76.5726
G1 X180.896 Y140.084 E76.59358
G1 X180.804 Y139.788 E76.61004
G1 X180.625 Y139.439 E76.63086
G1 X180.186 Y138.959 E76.66539
G1 X179.693 Y138.686 E76.6953
G1 X179.172 Y138.56 E76.72376
G1 X167.82 Y138.564 E77.32636
G1 X167.516 Y138.62 E77.34277
G1 X167.109 Y138.775 E77.36588
G1 X166.776 Y138.989 E77.3869
G1 X166.497 Y139.27 E77.40792
G1 X166.174 Y139.829 E77.44219
G1 X166.06 Y140.382 E77.47216
G1 X166.06 Y161.623 E78.5997
G1 X166.119 Y161.979 E78.61885
G1 X166.303 Y162.442 E78.6453
G1 X166.626 Y162.871 E78.67381
G1 X166.925 Y163.112 E78.69419
G1 X167.336 Y163.324 E78.71874
M204 S3000
M205 X10 Y10
G0 F6000 X179.828 Y162.328
G0 X184.765 Y129.328
M204 S300
M205 X8 Y8
G1 F2700 X185.168 Y129.731 E78.749
M204 S3000
M205 X10 Y10
G0 F6000 X185.168 Y130.523
M204 S300
M205 X8 Y8
G1 F2700 X183.973 Y129.328 E78.83871
M204 S3000
M205 X10 Y10
G0 F6000 X183.181 Y129.328
M204 S300
M205 X8 Y8
G1 F2700 X185.168 Y131.315 E78.98787
M204 S3000
M205 X10 Y10
G0 F6000 X185.168 Y132.107
M204 S300
M205 X8 Y8
G1 F2700 X182.389 Y129.328 E79.19649
M204 S3000
M205 X10 Y10
G0 F6000 X181.597 Y129.328
M204 S300
M205 X8 Y8
G1 F2700 X185.168 Y132.899 E79.46457
M204 S3000
M205 X10 Y10
G0 F6000 X185.168 Y133.691
M204 S300
M205 X8 Y8
G1 F2700 X180.805 Y129.328 E79.79211
M204 S3000
M205 X10 Y10
G0 F6000 X180.013 Y129.328
M204 S300
M205 X8 Y8
G1 F2700 X185.168 Y134.483 E80.1791
M204 S3000
M205 X10 Y10
G0 F6000 X185.168 Y135.274
M204 S300
M205 X8 Y8
G1 F2700 X179.221 Y129.328 E80.62551
M204 S3000
M205 X10 Y10
G0 F6000 X178.429 Y129.328
M204 S300
M205 X8 Y8
G1 F2700 X185.168 Y136.066 E81.13137
M204 S3000
M205 X10 Y10
G0 F6000 X185.168 Y136.858
M204 S300
M205 X8 Y8
G1 F2700 X177.637 Y129.328 E81.69669
M204 S3000
M205 X10 Y10
G0 F6000 X176.845 Y129.328
M204 S300
M205 X8 Y8
G1 F2700 X185.168 Y137.65 E82.32147
M204 S3000
M205 X10 Y10
G0 F6000 X185.168 Y138.442
M204 S300
M205 X8 Y8
G1 F2700 X176.053 Y129.328 E83.00571
M204 S3000
M205 X10 Y10
G0 F6000 X175.261 Y129.328
M204 S300
M205 X8 Y8
G1 F2700 X185.168 Y139.234 E83.7494
M204 S3000
M205 X10 Y10
G0 F6000 X185.168 Y140.026
M204 S300
M205 X8 Y8
G1 F2700 X174.469 Y129.328 E84.55254
M204 S3000
M205 X10 Y10
G0 F6000 X173.677 Y129.328
M204 S300
M205 X8 Y8
G1 F2700 X185.168 Y140.818 E85.41515
M204 S3000
M205 X10 Y10
G0 F6000 X185.168 Y141.61
M204 S300
M205 X8 Y8
G1 F2700 X172.885 Y129.328 E86.3372
M204 S3000
M205 X10 Y10
G0 F6000 X172.094 Y129.328
M204 S300
M205 X8 Y8
G1 F2700 X185.168 Y142.402 E87.31868
M204 S3000
M205 X10 Y10
G0 F6000 X185.168 Y143.194
M204 S300
M205 X8 Y8
G1 F2700 X171.302 Y129.328 E88.35962
M204 S3000
M205 X10 Y10
G0 F6000 X170.51 Y129.328
M204 S300
M205 X8 Y8
G1 F2700 X179.545 Y138.363 E89.03788
M204 S3000
M205 X10 Y10
G0 F6000 X178.67 Y138.28
M204 S300
M205 X8 Y8
G1 F2700 X169.718 Y129.328 E89.70992
M204 S3000
M205 X10 Y10
G0 F6000 X168.926 Y129.328
M204 S300
M205 X8 Y8
G1 F2700 X177.878 Y138.28 E90.38195
M204 S3000
M205 X10 Y10
G0 F6000 X177.086 Y138.28
M204 S300
M205 X8 Y8
G1 F2700 X168.134 Y129.328 E91.05399
M204 S3000
M205 X10 Y10
G0 F6000 X167.342 Y129.328
M204 S300
M205 X8 Y8
G1 F2700 X176.294 Y138.28 E91.72602
M204 S3000
M205 X10 Y10
G0 F6000 X175.502 Y138.28
M204 S300
M205 X8 Y8
G1 F2700 X166.55 Y129.328 E92.39806
M204 S3000
M205 X10 Y10
G0 F6000 X165.758 Y129.328
M204 S300
M205 X8 Y8
G1 F2700 X174.71 Y138.28 E93.07009
M204 S3000
M205 X10 Y10
G0 F6000 X173.918 Y138.28
M204 S300
M205 X8 Y8
G1 F2700 X164.966 Y129.328 E93.74213
M204 S3000
M205 X10 Y10
G0 F6000 X164.174 Y129.328
M204 S300
M205 X8 Y8
G1 F2700 X173.126 Y138.28 E94.41416
M204 S3000
M205 X10 Y10
G0 F6000 X172.334 Y138.28
M204 S300
M205 X8 Y8
G1 F2700 X163.382 Y129.328 E95.0862
M204 S3000
M205 X10 Y10
G0 F6000 X162.59 Y129.328
M204 S300
M205 X8 Y8
G1 F2700 X171.542 Y138.28 E95.75823
M204 S3000
M205 X10 Y10
G0 F6000 X170.75 Y138.28
M204 S300
M205 X8 Y8
G1 F2700 X161.798 Y129.328 E96.43027
M204 S3000
M205 X10 Y10
G0 F6000 X161.006 Y129.328
M204 S300
M205 X8 Y8
G1 F2700 X169.958 Y138.28 E97.1023
M204 S3000
M205 X10 Y10
G0 F6000 X169.166 Y138.28
M204 S300
M205 X8 Y8
G1 F2700 X160.214 Y129.328 E97.77434
M204 S3000
M205 X10 Y10
G0 F6000 X159.422 Y129.328
M204 S300
M205 X8 Y8
G1 F2700 X168.374 Y138.28 E98.44637
M204 S3000
M205 X10 Y10
G0 F6000 X167.62 Y138.317
M204 S300
M205 X8 Y8
G1 F2700 X158.63 Y129.328 E99.12122
M204 S3000
M205 X10 Y10
G0 F6000 X157.838 Y129.328
M204 S300
M205 X8 Y8
G1 F2700 X167.023 Y138.512 E99.81071
M204 S3000
M205 X10 Y10
G0 F6000 X166.547 Y138.828
M204 S300
M205 X8 Y8
G1 F2700 X157.046 Y129.328 E100.52392
M204 S3000
M205 X10 Y10
G0 F6000 X156.254 Y129.328
M204 S300
M205 X8 Y8
G1 F2700 X166.181 Y139.254 E101.26912
M204 S3000
M205 X10 Y10
G0 F6000 X165.898 Y139.763
M204 S300
M205 X8 Y8
G1 F2700 X155.462 Y129.328 E102.05252
M204 S3000
M205 X10 Y10
G0 F6000 X154.67 Y129.328
M204 S300
M205 X8 Y8
G1 F2700 X165.784 Y140.441 E102.88682
M204 S3000
M205 X10 Y10
G0 F6000 X165.784 Y141.233
M204 S300
M205 X8 Y8
G1 F2700 X153.878 Y129.328 E103.78058
M204 S3000
M205 X10 Y10
G0 F6000 X153.086 Y129.328
M204 S300
M205 X8 Y8
G1 F2700 X165.784 Y142.025 E104.73379
M204 S3000
M205 X10 Y10
G0 F6000 X165.784 Y142.817
M204 S300
M205 X8 Y8
G1 F2700 X152.295 Y129.328 E105.74642
M204 S3000
M205 X10 Y10
G0 F6000 X151.503 Y129.328
M204 S300
M205 X8 Y8
G1 F2700 X165.784 Y143.609 E106.81851
M204 S3000
M205 X10 Y10
G0 F6000 X165.784 Y144.401
M204 S300
M205 X8 Y8
G1 F2700 X150.711 Y129.328 E107.95005
M204 S3000
M205 X10 Y10
G0 F6000 X149.919 Y129.328
M204 S300
M205 X8 Y8
G1 F2700 X165.784 Y145.193 E109.14106
M204 S3000
M205 X10 Y10
G0 F6000 X165.783 Y145.984
M204 S300
M205 X8 Y8
G1 F2700 X149.127 Y129.328 E110.39144
M204 S3000
M205 X10 Y10
G0 F6000 X148.335 Y129.328
M204 S300
M205 X8 Y8
G1 F2700 X165.783 Y146.776 E111.70127
M204 S3000
M205 X10 Y10
G0 F6000 X165.783 Y147.568
M204 S300
M205 X8 Y8
G1 F2700 X147.543 Y129.328 E113.07057
M204 S3000
M205 X10 Y10
G0 F6000 X146.751 Y129.328
M204 S300
M205 X8 Y8
G1 F2700 X165.783 Y148.36 E114.49932
M204 S3000
M205 X10 Y10
G0 F6000 X165.783 Y149.152
M204 S300
M205 X8 Y8
G1 F2700 X145.959 Y129.328 E115.98753
M204 S3000
M205 X10 Y10
G0 F6000 X145.167 Y129.328
M204 S300
M205 X8 Y8
G1 F2700 X165.783 Y149.944 E117.53519
M204 S3000
M205 X10 Y10
G0 F6000 X165.783 Y150.736
M204 S300
M205 X8 Y8
G1 F2700 X144.375 Y129.328 E119.14231
M204 S3000
M205 X10 Y10
G0 F6000 X143.583 Y129.328
M204 S300
M205 X8 Y8
G1 F2700 X165.783 Y151.527 E120.80884
M204 S3000
M205 X10 Y10
G0 F6000 X165.783 Y152.319
M204 S300
M205 X8 Y8
G1 F2700 X142.791 Y129.328 E122.53484
M204 S3000
M205 X10 Y10
G0 F6000 X141.999 Y129.328
M204 S300
M205 X8 Y8
G1 F2700 X165.783 Y153.111 E124.32029
M204 S3000
M205 X10 Y10
G0 F6000 X165.783 Y153.903
M204 S300
M205 X8 Y8
G1 F2700 X141.207 Y129.328 E126.16519
M204 S3000
M205 X10 Y10
G0 F6000 X140.415 Y129.328
M204 S300
M205 X8 Y8
G1 F2700 X165.783 Y154.695 E128.06956
M204 S3000
M205 X10 Y10
G0 F6000 X165.783 Y155.487
M204 S300
M205 X8 Y8
G1 F2700 X139.623 Y129.328 E130.03337
M204 S3000
M205 X10 Y10
G0 F6000 X138.831 Y129.328
M204 S300
M205 X8 Y8
G1 F2700 X165.783 Y156.279 E132.05665
M204 S3000
M205 X10 Y10
G0 F6000 X165.782 Y157.07
M204 S300
M205 X8 Y8
G1 F2700 X138.039 Y129.328 E134.13931
M204 S3000
M205 X10 Y10
G0 F6000 X137.247 Y129.328
M204 S300
M205 X8 Y8
G1 F2700 X165.782 Y157.862 E136.28142
M204 S3000
M205 X10 Y10
G0 F6000 X165.782 Y158.654
M204 S300
M205 X8 Y8
G1 F2700 X136.455 Y129.328 E138.48299
M204 S3000
M205 X10 Y10
G0 F6000 X135.663 Y129.328
M204 S300
M205 X8 Y8
G1 F2700 X165.782 Y159.446 E140.74401
M204 S3000
M205 X10 Y10
G0 F6000 X165.782 Y160.238
M204 S300
M205 X8 Y8
G1 F2700 X134.871 Y129.328 E143.06449
M204 S3000
M205 X10 Y10
G0 F6000 X134.079 Y129.328
M204 S300
M205 X8 Y8
G1 F2700 X165.782 Y161.03 E145.44443
M204 S3000
M205 X10 Y10
G0 F6000 X165.818 Y161.858
M204 S300
M205 X8 Y8
G1 F2700 X133.288 Y129.328 E147.88648
M204 S3000
M205 X10 Y10
G0 F6000 X132.496 Y129.328
M204 S300
M205 X8 Y8
G1 F2700 X175.836 Y172.668 E151.14006
M204 S3000
M205 X10 Y10
G0 F6000 X176.627 Y172.668
M204 S300
M205 X8 Y8
G1 F2700 X167.644 Y163.684 E151.81446
M204 S3000
M205 X10 Y10
G0 F6000 X168.472 Y163.72
M204 S300
M205 X8 Y8
G1 F2700 X177.419 Y172.668 E152.48616
M204 S3000
M205 X10 Y10
G0 F6000 X178.211 Y172.668
M204 S300
M205 X8 Y8
G1 F2700 X169.264 Y163.72 E153.15785
M204 S3000
M205 X10 Y10
G0 F6000 X170.055 Y163.719
M204 S300
M205 X8 Y8
G1 F2700 X179.003 Y172.668 E153.82963
M204 S3000
M205 X10 Y10
G0 F6000 X179.795 Y172.668
M204 S300
M205 X8 Y8
G1 F2700 X170.847 Y163.719 E154.5014
M204 S3000
M205 X10 Y10
G0 F6000 X171.639 Y163.719
M204 S300
M205 X8 Y8
G1 F2700 X180.587 Y172.668 E155.17317
M204 S3000
M205 X10 Y10
G0 F6000 X181.379 Y172.668
M204 S300
M205 X8 Y8
G1 F2700 X172.43 Y163.719 E155.84498
M204 S3000
M205 X10 Y10
G0 F6000 X173.222 Y163.719
M204 S300
M205 X8 Y8
G1 F2700 X182.171 Y172.668 E156.51679
M204 S3000
M205 X10 Y10
G0 F6000 X182.963 Y172.668
M204 S300
M205 X8 Y8
G1 F2700 X174.014 Y163.719 E157.1886
M204 S3000
M205 X10 Y10
G0 F6000 X174.805 Y163.718
M204 S300
M205 X8 Y8
G1 F2700 X183.755 Y172.668 E157.86049
M204 S3000
M205 X10 Y10
G0 F6000 X184.547 Y172.668
M204 S300
M205 X8 Y8
G1 F2700 X175.597 Y163.718 E158.53237
M204 S3000
M205 X10 Y10
G0 F6000 X176.389 Y163.718
M204 S300
M205 X8 Y8
G1 F2700 X185.168 Y172.497 E159.19142
M204 S3000
M205 X10 Y10
G0 F6000 X185.168 Y171.705
M204 S300
M205 X8 Y8
G1 F2700 X177.18 Y163.717 E159.79109
M204 S3000
M205 X10 Y10
G0 F6000 X177.972 Y163.717
M204 S300
M205 X8 Y8
G1 F2700 X185.168 Y170.913 E160.3313
M204 S3000
M205 X10 Y10
G0 F6000 X185.168 Y170.121
M204 S300
M205 X8 Y8
G1 F2700 X178.764 Y163.717 E160.81205
M204 S3000
M205 X10 Y10
