;FLAVOR:Marlin
;TIME:1887
;Filament used: 1.89259m
;Layer height: 0.2
;MINX:116.177
;MINY:139.684
;MINZ:0.2
;MAXX:185.84
;MAXY:162.34
;MAXZ:20
;TARGET_MACHINE.NAME:Unknown
;Generated with Cura_SteamEngine 5.8.0
M140 S60
M105
M190 S60
M104 S195
M105
M109 S195
M82 ;absolute extrusion mode
G28 ;Home
G1 Z15.0 F6000 ;Move the platform down 15mm
;Prime the extruder
G92 E0
G1 F200 E3
G92 E0
G92 E0
G92 E0
G1 F2400 E-6
;LAYER_COUNT:100
;LAYER:0
M107
M204 S3000
M205 X10 Y10
G1 F1200 Z0.275
G0 F6000 X118.357 Y145.568 Z0.275
M204 S300
M205 X8 Y8
;TYPE:SKIRT
G1 F1200 Z0.2
G1 F2400 E0
G1 X119.157 Y145.057 E0.05039
G1 X119.539 Y144.86 E0.07321
G1 X120.345 Y144.554 E0.11897
G1 X120.825 Y144.434 E0.14523
G1 X121.633 Y144.327 E0.1885
G1 X122.201 Y144.318 E0.21866
G1 X122.978 Y144.39 E0.26008
G1 X125.539 Y144.904 E0.39873
G1 X128.206 Y145.363 E0.54239
G1 X130.896 Y145.749 E0.68665
G1 X133.613 Y146.06 E0.83181
G1 X136.312 Y146.292 E0.97561
G1 X139.026 Y146.447 E1.11992
G1 X141.774 Y146.528 E1.26585
G1 X144.458 Y146.53 E1.40833
G1 X147.203 Y146.455 E1.5541
G1 X149.923 Y146.303 E1.69871
G1 X152.619 Y146.076 E1.84233
G1 X155.304 Y145.773 E1.98576
G1 X158.028 Y145.388 E2.13179
G1 X160.68 Y144.936 E2.2746
G1 X163.325 Y144.409 E2.41777
G1 X166.036 Y143.786 E2.56543
G1 X168.646 Y143.11 E2.70854
G1 X171.258 Y142.353 E2.8529
G1 X173.836 Y141.527 E2.9966
G1 X176.411 Y140.62 E3.14152
G1 X178.038 Y140.003 E3.23389
G1 X178.608 Y139.839 E3.26538
G1 X179.616 Y139.685 E3.31951
G1 X180.529 Y139.684 E3.36797
G1 X181.592 Y139.882 E3.42537
G1 X182.436 Y140.207 E3.47338
G1 X183.221 Y140.629 E3.52069
G1 X184.06 Y141.304 E3.57785
G1 X184.628 Y141.964 E3.62407
G1 X185.202 Y142.831 E3.67927
G1 X185.558 Y143.747 E3.73143
G1 X185.7 Y144.28 E3.76071
G1 X185.838 Y145.213 E3.81078
G1 X185.84 Y153.996 E4.27701
G1 X185.833 Y155.948 E4.38063
G1 X185.84 Y157.817 E4.47984
G1 X185.828 Y158.587 E4.52072
G1 X185.766 Y159.184 E4.55258
G1 X185.612 Y159.762 E4.58433
G1 X185.411 Y160.233 E4.61152
G1 X185.098 Y160.744 E4.64333
G1 X184.709 Y161.2 E4.67514
G1 X184.223 Y161.618 E4.70917
G1 X183.746 Y161.905 E4.73872
G1 X183.153 Y162.152 E4.77282
G1 X182.534 Y162.292 E4.80651
G1 X182.032 Y162.337 E4.83327
G1 X172.652 Y162.34 E5.33119
G1 X171.903 Y162.328 E5.37095
G1 X171.278 Y162.269 E5.40428
G1 X168.257 Y161.483 E5.56998
G1 X165.548 Y160.86 E5.71753
G1 X162.903 Y160.331 E5.86072
G1 X160.216 Y159.871 E6.00543
G1 X157.543 Y159.491 E6.14875
G1 X154.841 Y159.186 E6.29309
G1 X152.139 Y158.956 E6.43704
G1 X149.422 Y158.804 E6.58149
G1 X146.679 Y158.728 E6.72715
G1 X143.693 Y158.731 E6.88566
G1 X142.457 Y158.71 E6.95128
G1 X139.474 Y158.61 E7.10972
G1 X138.4 Y158.558 E7.1668
G1 X134.916 Y158.278 E7.35233
G1 X133.854 Y158.175 E7.40897
G1 X130.331 Y157.724 E7.59751
G1 X129.307 Y157.576 E7.65243
G1 X125.83 Y156.963 E7.83985
G1 X124.756 Y156.754 E7.89793
G1 X121.125 Y155.933 E8.09554
G1 X120.451 Y155.767 E8.13239
G1 X119.711 Y155.501 E8.17413
G1 X119.31 Y155.309 E8.19773
G1 X118.582 Y154.855 E8.24327
G1 X118.144 Y154.503 E8.2731
G1 X117.583 Y153.941 E8.31525
G1 X117.338 Y153.636 E8.33602
G1 X116.875 Y152.902 E8.38209
G1 X116.637 Y152.403 E8.41144
G1 X116.355 Y151.64 E8.45462
G1 X116.177 Y150.616 E8.50979
G1 X116.199 Y149.447 E8.57185
G1 X116.383 Y148.564 E8.61973
G1 X116.618 Y147.915 E8.65637
G1 X117.004 Y147.145 E8.70209
G1 X117.508 Y146.4 E8.74984
G1 X118.357 Y145.568 E8.81294
M204 S3000
M205 X10 Y10
G0 F6000 X118.708 Y146.009
M204 S300
M205 X8 Y8
G1 F2400 X119.414 Y145.555 E8.8575
G1 X119.796 Y145.358 E8.88031
G1 X120.484 Y145.096 E8.91939
G1 X120.901 Y144.989 E8.94225
G1 X121.645 Y144.887 E8.98211
G1 X122.152 Y144.876 E9.00903
G1 X122.868 Y144.939 E9.04718
G1 X125.444 Y145.456 E9.18665
G1 X128.111 Y145.915 E9.33031
G1 X130.827 Y146.304 E9.47595
G1 X133.565 Y146.618 E9.62225
G1 X136.267 Y146.85 E9.7662
G1 X139.01 Y147.007 E9.91205
G1 X141.758 Y147.088 E10.05799
G1 X144.473 Y147.09 E10.20211
G1 X147.218 Y147.015 E10.34787
G1 X149.966 Y146.861 E10.49398
G1 X152.666 Y146.634 E10.63781
G1 X155.371 Y146.329 E10.78231
G1 X158.122 Y145.94 E10.92979
G1 X160.774 Y145.488 E11.0726
G1 X163.45 Y144.955 E11.21744
G1 X166.161 Y144.332 E11.3651
G1 X168.802 Y143.648 E11.50992
G1 X171.414 Y142.891 E11.65428
G1 X174.016 Y142.057 E11.79932
G1 X176.61 Y141.144 E11.9453
G1 X178.237 Y140.527 E12.03766
G1 X178.762 Y140.377 E12.06665
G1 X179.617 Y140.245 E12.11257
G1 X180.475 Y140.244 E12.15812
G1 X181.441 Y140.424 E12.21028
G1 X182.171 Y140.7 E12.25171
G1 X182.91 Y141.097 E12.29624
G1 X183.668 Y141.707 E12.34789
G1 X184.161 Y142.273 E12.38773
G1 X184.702 Y143.09 E12.43975
G1 X185.018 Y143.895 E12.48565
G1 X185.147 Y144.365 E12.51152
G1 X185.278 Y145.213 E12.55707
G1 X185.28 Y153.994 E13.0232
G1 X185.273 Y155.946 E13.12681
G1 X185.28 Y157.809 E13.22571
G1 X185.27 Y158.536 E13.2643
G1 X185.223 Y159.046 E13.29149
G1 X185.097 Y159.542 E13.31866
G1 X184.896 Y160.013 E13.34584
G1 X184.624 Y160.446 E13.37298
G1 X184.287 Y160.832 E13.40018
G1 X183.895 Y161.161 E13.42735
G1 X183.457 Y161.425 E13.4545
G1 X182.982 Y161.617 E13.48169
G1 X182.484 Y161.734 E13.50885
G1 X181.982 Y161.779 E13.5356
G1 X172.66 Y161.78 E14.03045
G1 X171.956 Y161.77 E14.06782
G1 X171.373 Y161.715 E14.09891
G1 X168.387 Y160.938 E14.26269
G1 X165.673 Y160.314 E14.41052
G1 X163.004 Y159.78 E14.555
G1 X160.31 Y159.319 E14.70009
G1 X157.615 Y158.936 E14.84458
G1 X154.888 Y158.628 E14.99026
G1 X152.182 Y158.398 E15.13442
G1 X149.438 Y158.244 E15.28031
G1 X146.694 Y158.168 E15.42603
G1 X143.703 Y158.171 E15.5848
G1 X142.476 Y158.15 E15.64994
G1 X139.501 Y158.051 E15.80795
G1 X138.445 Y158 E15.86407
G1 X134.97 Y157.721 E16.04913
G1 X133.925 Y157.62 E16.10486
G1 X130.411 Y157.17 E16.29292
G1 X129.404 Y157.024 E16.34693
G1 X125.937 Y156.413 E16.53381
G1 X124.88 Y156.208 E16.59096
G1 X121.259 Y155.389 E16.78803
G1 X120.585 Y155.223 E16.82488
G1 X119.953 Y154.996 E16.86053
G1 X119.552 Y154.804 E16.88413
G1 X118.93 Y154.416 E16.92304
G1 X118.539 Y154.106 E16.94953
G1 X118.02 Y153.59 E16.98838
G1 X117.775 Y153.285 E17.00915
G1 X117.379 Y152.658 E17.04851
G1 X117.162 Y152.209 E17.07498
G1 X116.899 Y151.497 E17.11528
G1 X116.738 Y150.572 E17.16512
G1 X116.758 Y149.509 E17.22155
G1 X116.91 Y148.752 E17.26254
G1 X117.12 Y148.163 E17.29573
G1 X117.468 Y147.459 E17.33742
G1 X117.941 Y146.76 E17.38222
G1 X118.708 Y146.009 E17.4392
M204 S3000
M205 X10 Y10
G1 F2400 E11.4392
;MESH:Case_1-Clip.stl
G0 F6000 X147.077 Y150.244
G0 X147.11 Y151.327
G0 X165.675 Y151.965
G0 X166.248 Y152.488
M204 S300
M205 X8 Y8
;TYPE:WALL-INNER
G1 F2400 E17.4392
G1 F1718.2 X166.248 Y155.748 E17.71114
M204 S3000
M205 X10 Y10
G0 F6000 X166.419 Y151.359
G0 X170.664 Y150.187
G0 X171.881 Y150.362
G0 X172.479 Y150.882
G0 X172.762 Y151.444
G0 X173.006 Y156.675
M204 S300
M205 X8 Y8
G1 F1698.9 X172.999 Y156.5 E17.72592
G1 F1714.3 X172.999 Y154.5 E17.89313
M204 S3000
M205 X10 Y10
G0 F6000 X173.1 Y157.112
G0 X173.387 Y157.112
M204 S300
M205 X8 Y8
G1 F2002.6 X173.006 Y156.675 E17.93462
G1 X172.865 Y157.328 E17.98243
G1 F2470.6 X172.866 Y157.634 E18.00018
G1 X173.171 Y157.634 E18.01788
G1 F2026.8 X174 Y157.5 E18.07726
G1 X173.387 Y157.112 E18.12856
M204 S3000
M205 X10 Y10
G0 F6000 X174 Y157.5
M204 S300
M205 X8 Y8
G1 F1718.2 X181 Y157.5 E18.71248
M204 S3000
M205 X10 Y10
G0 F6000 X173.172 Y157.328
G0 X173.172 Y155.255
G0 X173.241 Y151.146
M204 S300
M205 X8 Y8
G1 F2700 X173.338 Y151.48 E18.73094
G1 X173.396 Y151.95 E18.75608
G1 X173.397 Y153.258 E18.82551
G1 X173.462 Y153.207 E18.8299
G1 X174 Y153.1 E18.85901
G1 X180.599 Y153.1 E19.20931
G1 X180.596 Y145.453 E19.61524
G1 X180.467 Y145.133 E19.63355
G1 X180.184 Y144.937 E19.65183
G1 X179.801 Y144.932 E19.67216
G1 X175.836 Y146.548 E19.89944
G1 X171.933 Y147.933 E20.11929
G1 X167.875 Y149.155 E20.34425
G1 X163.853 Y150.163 E20.56436
G1 X159.668 Y151.004 E20.79095
G1 X155.488 Y151.641 E21.0154
G1 X151.324 Y152.07 E21.23761
G1 X147.105 Y152.308 E21.46192
G1 X142.921 Y152.344 E21.68403
G1 X138.704 Y152.18 E21.90805
G1 X134.596 Y151.828 E22.12692
G1 X130.308 Y151.254 E22.35657
G1 X126.272 Y150.519 E22.57433
G1 X122.199 Y149.576 E22.79626
G1 X121.906 Y149.56 E22.81184
G1 X121.633 Y149.678 E22.82762
G1 X121.522 Y149.792 E22.83607
G1 X121.429 Y149.996 E22.84797
G1 X121.427 Y150.303 E22.86427
G1 X121.561 Y150.539 E22.87867
G1 X121.847 Y150.722 E22.8967
G1 X126.132 Y151.693 E23.12993
G1 X130.461 Y152.461 E23.36331
G1 X134.727 Y153.003 E23.59159
G1 X139.025 Y153.349 E23.82047
G1 X143.359 Y153.496 E24.05067
G1 X147.727 Y153.432 E24.28256
G1 X152.064 Y153.16 E24.51324
G1 X156.33 Y152.692 E24.74105
G1 X160.686 Y152.003 E24.97515
G1 X164.963 Y151.117 E25.20701
G1 X165.612 Y151.135 E25.24147
G1 X165.955 Y151.28 E25.26124
G1 X166.03 Y151.36 E25.26706
G1 X166.06 Y151.253 E25.27296
G1 X166.298 Y150.967 E25.29271
G1 X166.728 Y150.684 E25.32004
G1 X167.993 Y150.355 E25.38942
G1 X169.188 Y150.027 E25.4552
G1 X170.414 Y149.671 E25.52297
G1 X170.961 Y149.602 E25.55224
G1 X171.425 Y149.65 E25.577
G1 X171.936 Y149.794 E25.60518
G1 X172.39 Y150.058 E25.63306
G1 X172.92 Y150.557 E25.6717
G1 X173.241 Y151.146 E25.70731
M204 S3000
M205 X10 Y10
G0 F6000 X171.881 Y150.362
G0 X171.139 Y150.154
G0 X165.617 Y151.493
G0 X165.672 Y151.763
M204 S300
M205 X8 Y8
G1 F2700 X165.992 Y152.098 E25.7319
G1 F2100 X166.248 Y152.488 E25.76374
G1 X166.408 Y151.996 E25.79905
G1 F2700 X166.535 Y151.55 E25.82367
G1 X166.678 Y151.378 E25.83554
G1 X166.934 Y151.21 E25.85179
G1 X168.14 Y150.895 E25.91796
G1 X169.344 Y150.565 E25.98423
G1 X170.57 Y150.209 E26.052
G1 X170.997 Y150.161 E26.07481
G1 X171.276 Y150.19 E26.0897
G1 X171.751 Y150.323 E26.11588
G1 X172.023 Y150.481 E26.13258
G1 X172.474 Y150.896 E26.16511
G1 X172.727 Y151.369 E26.19359
G1 X172.836 Y151.951 E26.22502
G1 X172.836 Y153.832 E26.32487
G1 F2097.1 X172.999 Y154.5 E26.37186
G1 X173.328 Y153.996 E26.413
G1 F2700 X173.677 Y153.724 E26.43649
G1 X174 Y153.66 E26.45396
G1 X181.159 Y153.66 E26.83399
G1 X181.156 Y145.384 E27.2733
G1 X181.086 Y145.104 E27.28862
G1 X180.895 Y144.768 E27.30914
G1 X180.736 Y144.612 E27.32096
G1 X180.406 Y144.419 E27.34126
G1 X180.222 Y144.366 E27.35142
G1 X179.909 Y144.348 E27.36806
G1 X179.649 Y144.39 E27.38205
G1 X175.649 Y146.02 E27.61133
G1 X171.745 Y147.405 E27.83122
G1 X167.727 Y148.615 E28.05397
G1 X163.678 Y149.628 E28.27553
G1 X159.583 Y150.451 E28.49725
G1 X155.471 Y151.079 E28.71806
G1 X151.292 Y151.511 E28.94108
G1 X147.1 Y151.748 E29.16396
G1 X142.943 Y151.784 E29.38463
G1 X138.752 Y151.622 E29.60727
G1 X134.644 Y151.27 E29.82614
G1 X130.409 Y150.703 E30.05295
G1 X126.334 Y149.959 E30.27284
G1 X122.277 Y149.019 E30.4939
G1 X121.864 Y148.997 E30.51586
G1 X121.682 Y149.035 E30.52573
G1 X121.327 Y149.204 E30.5466
G1 X121.041 Y149.496 E30.56829
G1 X120.887 Y149.838 E30.5882
G1 X120.845 Y150.13 E30.60386
G1 X120.898 Y150.495 E30.62344
G1 X121.036 Y150.78 E30.64025
G1 X121.164 Y150.939 E30.65109
G1 X121.402 Y151.127 E30.66719
G1 X121.66 Y151.254 E30.68245
G1 X126.007 Y152.24 E30.91907
G1 X130.363 Y153.013 E31.15391
G1 X134.655 Y153.559 E31.38358
G1 X138.993 Y153.908 E31.6146
G1 X143.367 Y154.056 E31.84691
G1 X147.762 Y153.991 E32.08024
G1 X152.125 Y153.717 E32.3123
G1 X156.404 Y153.247 E32.54081
G1 X160.799 Y152.552 E32.77701
G1 X165.077 Y151.665 E33.00893
G1 X165.467 Y151.676 E33.02964
G1 X165.672 Y151.763 E33.04146
M204 S3000
M205 X10 Y10
G0 F6000 X165.496 Y152.358
M204 S300
M205 X8 Y8
;TYPE:WALL-OUTER
G1 F2700 X165.528 Y152.488 E33.04857
G1 X165.528 Y156.136 E33.24221
G1 X165.349 Y156.399 E33.2591
G1 X165.278 Y156.411 E33.26292
G1 X165.349 Y156.468 E33.26776
G1 X166.968 Y156.468 E33.3537
G1 X166.968 Y151.996 E33.59109
G1 X167.01 Y151.847 E33.5993
G1 X167.134 Y151.74 E33.608
G1 X169.5 Y151.103 E33.73807
G1 X170.786 Y150.736 E33.80906
G1 X171.127 Y150.73 E33.82716
G1 X171.565 Y150.851 E33.85128
G1 X172.028 Y151.234 E33.88318
G1 X172.213 Y151.592 E33.90457
G1 X172.273 Y151.907 E33.92159
G1 X172.28 Y158.22 E34.25671
G1 X181.72 Y158.22 E34.75781
G1 X181.72 Y156.78 E34.83425
G1 X174 Y156.78 E35.24405
G1 X173.801 Y156.698 E35.25548
G1 X173.724 Y156.549 E35.26438
G1 X173.72 Y154.5 E35.37315
G1 X173.776 Y154.332 E35.38255
G1 X173.919 Y154.22 E35.39219
G1 X181.719 Y154.22 E35.80624
G1 X181.716 Y145.315 E36.27895
G1 X181.615 Y144.912 E36.301
G1 X181.322 Y144.403 E36.33218
G1 X181.08 Y144.164 E36.35023
G1 X180.628 Y143.9 E36.37802
G1 X180.316 Y143.81 E36.39525
G1 X179.879 Y143.786 E36.41849
G1 X179.497 Y143.848 E36.43903
G1 X175.462 Y145.492 E36.67032
G1 X171.545 Y146.881 E36.89093
G1 X167.585 Y148.072 E37.11044
G1 X163.568 Y149.079 E37.33027
G1 X159.499 Y149.897 E37.55059
G1 X155.373 Y150.527 E37.77215
G1 X151.26 Y150.952 E37.99164
G1 X147.095 Y151.188 E38.21309
G1 X142.965 Y151.224 E38.43233
G1 X138.8 Y151.064 E38.65359
G1 X134.678 Y150.71 E38.8732
G1 X130.509 Y150.152 E39.09648
G1 X126.46 Y149.413 E39.31496
G1 X122.356 Y148.463 E39.53857
G1 X121.822 Y148.434 E39.56696
G1 X121.502 Y148.5 E39.58431
G1 X121.021 Y148.73 E39.61261
G1 X120.769 Y148.941 E39.63006
G1 X120.561 Y149.2 E39.64769
G1 X120.344 Y149.68 E39.67565
G1 X120.282 Y150.11 E39.69871
G1 X120.369 Y150.687 E39.72969
G1 X120.559 Y151.081 E39.75291
G1 X120.767 Y151.339 E39.7705
G1 X121.102 Y151.605 E39.79321
G1 X121.474 Y151.786 E39.81517
G1 X125.896 Y152.789 E40.05586
G1 X130.279 Y153.567 E40.29216
G1 X134.597 Y154.117 E40.52323
G1 X138.961 Y154.468 E40.75563
G1 X143.335 Y154.616 E40.98795
G1 X147.757 Y154.552 E41.22271
G1 X152.147 Y154.277 E41.4562
G1 X156.478 Y153.802 E41.68748
G1 X160.873 Y153.108 E41.92368
G1 X165.191 Y152.213 E42.15776
G1 X165.39 Y152.246 E42.16847
G1 X165.496 Y152.358 E42.17665
M204 S3000
M205 X10 Y10
G0 F6000 X165.528 Y152.488
G0 X165.528 Y152.554
G0 X166.15 Y152.554
G0 X166.419 Y151.359
G0 X170.664 Y150.187
G0 X171.74 Y150.322
G0 X173.862 Y151.359
M204 S300
M205 X8 Y8
;TYPE:SKIN
G1 F2700 X173.737 Y150.932 E42.20027
G1 X173.35 Y150.224 E42.2431
G1 X172.728 Y149.633 E42.28865
G1 X172.132 Y149.289 E42.32518
G1 F2430.9 X170.867 Y148.936 E42.40261
G1 X171.478 Y148.634 E42.4428
G1 F2700 X172.069 Y148.457 E42.47555
G1 X176.018 Y147.056 E42.69797
G1 X179.93 Y145.459 E42.92227
G1 X180.056 Y145.496 E42.92924
G1 X180.056 Y152.56 E43.30422
G1 X173.936 Y152.56 E43.62909
G1 X173.934 Y151.909 E43.66365
G1 X173.862 Y151.359 E43.69309
M204 S3000
M205 X10 Y10
G0 F6000 X171.881 Y150.362
G0 X171.139 Y150.154
G0 X151.315 Y151.511
G0 X147.124 Y151.747
G0 X142.967 Y151.784
G0 X139.569 Y151.654
G0 X122.116 Y150.168
M204 S300
M205 X8 Y8
G1 F2266.9 X126.246 Y151.112 E43.96095
G1 F2290.9 X130.407 Y151.862 E44.22547
G1 F2322.6 X134.781 Y152.424 E44.4976
G1 F2362.5 X138.878 Y152.763 E44.747
G1 F2369.9 X143.145 Y152.921 E45.00523
G1 F2423.1 X147.117 Y152.874 E45.24019
G1 F2415.3 X147.696 Y152.853 E45.27457
G1 F2407.6 X151.444 Y152.629 E45.49809
G1 F2411.5 X152.005 Y152.583 E45.53154
G1 F2415.3 X155.562 Y152.203 E45.74381
G1 F2407.6 X156.21 Y152.118 E45.78272
G1 F2384.9 X159.77 Y151.566 E45.99922
G1 F2347.8 X160.569 Y151.423 E46.04877
G1 F2319 X163.918 Y150.739 E46.26003
G1 F2290.9 X164.839 Y150.528 E46.31914
G1 F1859.8 X165.801 Y150.426 E46.39369
G1 F1841.7 X166.487 Y150.123 E46.45205
G1 F2226.8 X168.035 Y149.721 E46.55499
G1 F2200.9 X170.292 Y149.068 E46.708
G1 F1989.5 X170.889 Y148.942 E46.75196
M204 S3000
M205 X10 Y10
G0 F6000 X179.286 Y146.024
M204 S300
M205 X8 Y8
G1 F2700 X179.776 Y146.514 E46.78874
M204 S3000
M205 X10 Y10
G0 F6000 X179.776 Y147.306
M204 S300
M205 X8 Y8
G1 F2700 X178.724 Y146.254 E46.86772
M204 S3000
M205 X10 Y10
G0 F6000 X178.162 Y146.484
M204 S300
M205 X8 Y8
G1 F2700 X179.776 Y148.098 E46.98888
M204 S3000
M205 X10 Y10
G0 F6000 X179.776 Y148.89
M204 S300
M205 X8 Y8
G1 F2700 X177.6 Y146.713 E47.15227
M204 S3000
M205 X10 Y10
G0 F6000 X177.037 Y146.942
M204 S300
M205 X8 Y8
G1 F2700 X179.776 Y149.682 E47.35793
M204 S3000
M205 X10 Y10
G0 F6000 X179.776 Y150.474
M204 S300
M205 X8 Y8
G1 F2700 X176.475 Y147.172 E47.60578
M204 S3000
M205 X10 Y10
G0 F6000 X175.905 Y147.394
M204 S300
M205 X8 Y8
G1 F2700 X179.776 Y151.266 E47.89641
M204 S3000
M205 X10 Y10
G0 F6000 X179.776 Y152.058
M204 S300
M205 X8 Y8
G1 F2700 X175.32 Y147.601 E48.23097
