;FLAVOR:Marlin
;TIME:4303
;Filament used: 4.25751m
;Layer height: 0.2
;MINX:106.2
;MINY:118.7
;MINZ:0.2
;MAXX:195.8
;MAXY:183.3
;MAXZ:12
;TARGET_MACHINE.NAME:Unknown
;Generated with Cura_SteamEngine 5.8.0
M140 S60
M105
M190 S60
M104 S195
M105
M109 S195
M82 ;absolute extrusion mode
G28 ;Home
G1 Z15.0 F6000 ;Move the platform down 15mm
;Prime the extruder
G92 E0
G1 F200 E3
G92 E0
G92 E0
G92 E0
G1 F2400 E-6
;LAYER_COUNT:60
;LAYER:0
M107
M204 S3000
M205 X10 Y10
G1 F1200 Z0.275
G0 F6000 X111.252 Y123.531 Z0.275
M204 S300
M205 X8 Y8
;TYPE:SKIRT
G1 F1200 Z0.2
G1 F2400 E0
G1 X111.64 Y123.197 E0.02718
G1 X112.256 Y122.84 E0.06497
G1 X112.949 Y122.534 E0.10518
G1 X113.536 Y122.339 E0.13802
G1 X114.375 Y122.169 E0.18346
G1 X114.934 Y122.112 E0.21329
G1 X115.667 Y122.101 E0.2522
G1 X186.351 Y122.101 E4.00433
G1 X187.034 Y122.111 E4.04059
G1 X187.623 Y122.173 E4.07203
G1 X188.33 Y122.313 E4.11029
G1 X188.957 Y122.504 E4.14508
G1 X189.649 Y122.793 E4.18489
G1 X190.105 Y123.027 E4.2121
G1 X190.802 Y123.57 E4.259
G1 X191.294 Y124.129 E4.29853
G1 X191.576 Y124.575 E4.32654
G1 X191.985 Y125.43 E4.37685
G1 X192.183 Y126.136 E4.41577
G1 X192.325 Y126.845 E4.45416
G1 X192.389 Y127.438 E4.48582
G1 X192.399 Y128.084 E4.52011
G1 X192.399 Y173.849 E6.94947
G1 X192.389 Y174.546 E6.98647
G1 X192.325 Y175.143 E7.01834
G1 X192.181 Y175.862 E7.05727
G1 X191.962 Y176.592 E7.09772
G1 X191.603 Y177.374 E7.1434
G1 X191.339 Y177.812 E7.17055
G1 X190.894 Y178.342 E7.20728
G1 X190.371 Y178.796 E7.24405
G1 X189.754 Y179.156 E7.28197
G1 X189.134 Y179.432 E7.31799
G1 X188.516 Y179.636 E7.35254
G1 X187.743 Y179.809 E7.39459
G1 X187.076 Y179.888 E7.43024
G1 X186.284 Y179.899 E7.47229
G1 X115.649 Y179.9 E11.22182
G1 X114.964 Y179.89 E11.25818
G1 X114.411 Y179.834 E11.28769
G1 X113.649 Y179.689 E11.32886
G1 X112.876 Y179.451 E11.3718
G1 X112.102 Y179.091 E11.41711
G1 X111.666 Y178.824 E11.44425
G1 X111.133 Y178.368 E11.48148
G1 X110.679 Y177.838 E11.51853
G1 X110.415 Y177.409 E11.54527
G1 X110.058 Y176.646 E11.58998
G1 X109.831 Y175.928 E11.62996
G1 X109.667 Y175.108 E11.67435
G1 X109.612 Y174.559 E11.70364
G1 X109.601 Y173.779 E11.74504
G1 X109.598 Y162.51 E12.34324
G1 X109.61 Y161.726 E12.38486
G1 X109.726 Y160.551 E12.44754
G1 X109.955 Y157.843 E12.5918
G1 X110.111 Y155.093 E12.73801
G1 X110.188 Y152.347 E12.88384
G1 X110.188 Y149.633 E13.0279
G1 X110.109 Y146.885 E13.17384
G1 X109.954 Y144.139 E13.31984
G1 X109.722 Y141.423 E13.46453
G1 X109.614 Y140.305 E13.52416
G1 X109.6 Y139.563 E13.56355
G1 X109.599 Y128.152 E14.16928
G1 X109.609 Y127.475 E14.20523
G1 X109.672 Y126.883 E14.23683
G1 X109.825 Y126.114 E14.27845
G1 X110.045 Y125.385 E14.31887
G1 X110.414 Y124.596 E14.36511
G1 X110.682 Y124.16 E14.39227
G1 X111.252 Y123.531 E14.43733
M204 S3000
M205 X10 Y10
G1 F2400 E8.43733
;MESH:Case_1-Top Case.stl
G0 F6000 X114.327 Y127.023
G0 X115.162 Y127.768
G0 X136.28 Y135.618
G0 X137.166 Y136.496
G0 X136.686 Y139.335
M204 S300
M205 X8 Y8
;TYPE:WALL-INNER
G1 F2400 E14.43733
G1 F2700 X137.078 Y139.605 E14.4626
G1 X137.556 Y140.075 E14.49819
G1 X137.556 Y137.474 E14.63626
G1 X137.086 Y137.943 E14.6715
G1 X136.686 Y138.221 E14.69736
G1 F2381.1 X136.1 Y138.423 E14.73467
G1 F2129.6 X134.163 Y138.423 E14.86503
G1 X134.163 Y139.133 E14.91282
G1 X136.1 Y139.133 E15.04318
G1 F2381.1 X136.686 Y139.335 E15.08049
M204 S3000
M205 X10 Y10
G0 F6000 X138.075 Y141.386
G0 X138.096 Y141.732
M204 S300
M205 X8 Y8
G1 F2507.5 X138.096 Y145.007 E15.26769
M204 S3000
M205 X10 Y10
G0 F6000 X138.139 Y145.007
G0 X139.914 Y146.492
G0 X143.453 Y146.492
G0 X144.337 Y145.609
G0 X143.509 Y143.685
M204 S300
M205 X8 Y8
G1 F2071.2 X143.952 Y143.913 E15.30216
G1 F2054.3 X143.952 Y142.747 E15.38351
G1 F2071.2 X143.509 Y142.975 E15.41799
G1 F2111.7 X141.335 Y142.975 E15.56554
G1 F2129.6 X141.335 Y143.685 E15.61332
G1 F2111.7 X143.509 Y143.685 E15.76087
M204 S3000
M205 X10 Y10
G0 F6000 X143.864 Y144.563
M204 S300
M205 X8 Y8
G1 F2700 X144.316 Y145.011 E15.79466
G1 F2615.9 X144.582 Y145.608 E15.83046
G1 X144.6 Y144.893 E15.86965
G1 F2700 X144.6 Y142.404 E16.00178
G1 F2615.9 X144.583 Y141.8 E16.03488
G1 F2236.7 X144.55 Y141.5 E16.05422
G1 X144.304 Y141.684 E16.07391
G1 F2615.9 X143.864 Y142.097 E16.10697
G1 F2700 X143.393 Y142.34 E16.1351
G1 X140.7 Y142.34 E16.27806
G1 X140.7 Y144.32 E16.38316
G1 X143.393 Y144.32 E16.52611
G1 X143.864 Y144.563 E16.55425
M204 S3000
M205 X10 Y10
G0 F6000 X143.906 Y144.522
G0 X144.54 Y141.5
G0 X144.55 Y141.5
M204 S300
M205 X8 Y8
G1 F1857.5 X144.717 Y141.116 E16.58656
G1 F1913.9 X144.556 Y140.668 E16.62221
M204 S3000
M205 X10 Y10
G0 F6000 X144.587 Y140.638
G0 X143.509 Y139.133
M204 S300
M205 X8 Y8
G1 F2071.2 X143.952 Y139.361 E16.65668
G1 F2054.3 X143.952 Y138.193 E16.73817
G1 F2071.2 X143.51 Y138.423 E16.77265
G1 F2111.7 X141.335 Y138.423 E16.92027
G1 F2129.6 X141.335 Y139.133 E16.96805
G1 F2111.7 X143.509 Y139.133 E17.1156
M204 S3000
M205 X10 Y10
G0 F6000 X143.393 Y139.768
M204 S300
M205 X8 Y8
G1 F2700 X143.861 Y140.009 E17.14355
G1 F2381.1 X144.556 Y140.668 E17.2012
G1 F2355.1 X144.593 Y140.332 E17.22177
G1 F2662 X144.6 Y137.207 E17.39002
G1 F2589 X144.576 Y136.645 E17.42116
G1 X144.319 Y137.091 E17.44966
G1 F2700 X143.866 Y137.542 E17.48359
G1 X143.393 Y137.788 E17.51189
G1 X140.7 Y137.788 E17.65484
G1 X140.7 Y139.768 E17.75995
G1 X143.393 Y139.768 E17.9029
M204 S3000
M205 X10 Y10
G0 F6000 X143.393 Y139.709
G0 X145.004 Y136.329
G0 X145.893 Y135.449
G0 X146.782 Y136.329
G0 X147.164 Y140.478
G0 X147.206 Y140.478
M204 S300
M205 X8 Y8
G1 F2503.3 X147.204 Y137.172 E18.09218
M204 S3000
M205 X10 Y10
G0 F6000 X147.246 Y137.172
G0 X147.228 Y140.724
G0 X147.391 Y141.264
M204 S300
M205 X8 Y8
G1 F2913.3 X147.584 Y141.054 E18.10621
G1 F2831.5 X147.298 Y140.707 E18.12898
G1 F2615.9 X147.206 Y140.478 E18.1425
G1 X147.13 Y140.713 E18.15603
G1 F2831.5 X146.82 Y141.117 E18.18181
G1 F2863.6 X147.1 Y141.464 E18.20412
G1 F2652.6 X147.203 Y141.732 E18.21964
G1 X147.283 Y141.456 E18.23516
G1 F2863.6 X147.391 Y141.264 E18.24619
M204 S3000
M205 X10 Y10
G0 F6000 X147.203 Y141.732
M204 S300
M205 X8 Y8
G1 F2486.8 X147.21 Y145.081 E18.4392
M204 S3000
M205 X10 Y10
G1 F2400 E12.4392
G0 F6000 X147.164 Y145.081
G0 X147.664 Y143.689
G0 X149.391 Y143.689
G0 X151.141 Y143.689
M204 S300
M205 X8 Y8
G1 F2400 E18.4392
G1 F2153.8 X151.141 Y142.971 E18.48698
G1 X150.439 Y142.971 E18.53369
G1 X150.439 Y143.689 E18.58147
G1 X151.141 Y143.689 E18.62819
M204 S3000
M205 X10 Y10
G0 F6000 X151.772 Y144.32
M204 S300
M205 X8 Y8
G1 F2700 X151.772 Y142.34 E18.73329
G1 X149.808 Y142.34 E18.83755
G1 X149.808 Y144.32 E18.94265
G1 X151.772 Y144.32 E19.04691
M204 S3000
M205 X10 Y10
G1 F2400 E13.04691
G0 F6000 X151.712 Y144.32
G0 X152.198 Y144.748
G0 X153.242 Y145.799
G0 X154.419 Y145.007
G0 X154.376 Y145.007
M204 S300
M205 X8 Y8
G1 F2400 E19.04691
G1 F2507.5 X154.376 Y141.736 E19.23387
M204 S3000
M205 X10 Y10
G0 F6000 X154.587 Y141.22
M204 S300
M205 X8 Y8
G1 F2820.9 X154.749 Y141.05 E19.2458
G1 F2759.1 X154.458 Y140.681 E19.27022
G1 F2589 X154.376 Y140.445 E19.28405
G1 X154.298 Y140.682 E19.29786
G1 F2759.1 X154.009 Y141.054 E19.32233
G1 F2820.9 X154.168 Y141.219 E19.33397
G1 F2800 X154.291 Y141.427 E19.34634
G1 F2643.4 X154.376 Y141.736 E19.36372
G1 X154.463 Y141.427 E19.38112
G1 F2800 X154.587 Y141.22 E19.39347
M204 S3000
M205 X10 Y10
G0 F6000 X154.376 Y140.445
M204 S300
M205 X8 Y8
G1 F2503.3 X154.376 Y137.172 E19.58087
M204 S3000
M205 X10 Y10
G1 F2400 E13.58087
G1 F1200 Z0.275
G0 F6000 X151.141 Y139.137 Z0.275
M204 S300
M205 X8 Y8
G1 F1200 Z0.2
G1 F2400 E19.58087
G1 F2153.8 X151.141 Y138.419 E19.62864
G1 X150.439 Y138.419 E19.67536
G1 X150.439 Y139.137 E19.72314
G1 X151.141 Y139.137 E19.76985
M204 S3000
M205 X10 Y10
G0 F6000 X151.772 Y139.768
M204 S300
M205 X8 Y8
G1 F2700 X151.772 Y137.788 E19.87495
G1 X149.808 Y137.788 E19.97921
G1 X149.808 Y139.768 E20.08431
G1 X151.772 Y139.768 E20.18857
M204 S3000
M205 X10 Y10
G1 F2400 E14.18857
G1 F1200 Z0.275
G0 F6000 X151.252 Y139.249 Z0.275
G0 X158.314 Y141.548
M204 S300
M205 X8 Y8
G1 F1200 Z0.2
G1 F2400 E20.18857
G1 F1963.6 X158.35 Y141.195 E20.21447
G1 F1832.7 X158.417 Y141.05 E20.22696
G1 X158.35 Y140.905 E20.23945
G1 F1973.9 X158.316 Y140.493 E20.26947
G1 F2147.7 X158.314 Y138.418 E20.40794
G1 F2160 X157.614 Y138.418 E20.45439
G1 F2147.7 X157.612 Y140.493 E20.59286
G1 F1973.9 X157.578 Y140.905 E20.62288
G1 F1832.7 X157.512 Y141.05 E20.63533
G1 X157.578 Y141.195 E20.64779
G1 F1963.6 X157.614 Y141.548 E20.67369
G1 F2135.6 X157.614 Y143.69 E20.81745
G1 F2160 X158.314 Y143.69 E20.86389
G1 F2135.6 X158.314 Y141.548 E21.00765
M204 S3000
M205 X10 Y10
G0 F6000 X158.944 Y141.619
M204 S300
M205 X8 Y8
G1 F2700 X159.046 Y141.333 E21.02377
G1 X159.28 Y141.05 E21.04326
G1 X159.046 Y140.767 E21.06275
G1 X158.947 Y140.438 E21.08099
G1 X158.944 Y137.788 E21.22166
G1 X156.984 Y137.788 E21.3257
G1 X156.981 Y140.438 E21.46638
G1 X156.882 Y140.768 E21.48466
G1 X156.647 Y141.05 E21.50415
G1 X156.882 Y141.332 E21.52364
G1 X156.984 Y141.619 E21.5398
G1 X156.984 Y144.32 E21.68318
G1 X158.944 Y144.32 E21.78722
G1 X158.944 Y141.619 E21.9306
M204 S3000
M205 X10 Y10
G1 F2400 E15.9306
G0 F6000 X158.885 Y141.619
G0 X159.884 Y141.052
G0 X160.573 Y141.052
G0 X161.392 Y141.167
G0 X161.34 Y141.218
M204 S300
M205 X8 Y8
G1 F2400 E21.9306
G1 F2784.5 X161.466 Y141.426 E21.94312
G1 F2643.4 X161.55 Y141.736 E21.96053
G1 X161.634 Y141.426 E21.97795
G1 F2784.5 X161.92 Y141.05 E22.00226
G1 F2754.1 X161.628 Y140.676 E22.02696
G1 F2606.9 X161.55 Y140.439 E22.04067
G1 X161.472 Y140.676 E22.05439
G1 F2754.1 X161.179 Y141.05 E22.07912
G1 F2805.2 X161.34 Y141.218 E22.09101
M204 S3000
M205 X10 Y10
G0 F6000 X161.55 Y141.736
M204 S300
M205 X8 Y8
G1 F2524.2 X161.55 Y145.007 E22.27673
M204 S3000
M205 X10 Y10
G0 F6000 X161.592 Y145.007
G0 X161.592 Y140.439
G0 X161.55 Y140.439
M204 S300
M205 X8 Y8
G1 F2524.2 X161.55 Y137.168 E22.46246
M204 S3000
M205 X10 Y10
G1 F2400 E16.46246
G0 F6000 X161.592 Y137.168
G0 X162.009 Y140.531
G0 X163.217 Y141.052
G0 X165.486 Y141.548
M204 S300
M205 X8 Y8
G1 F2400 E22.46246
G1 F1963.6 X165.522 Y141.195 E22.48836
G1 F1832.7 X165.589 Y141.05 E22.50085
G1 X165.522 Y140.905 E22.51334
G1 F1973.9 X165.488 Y140.493 E22.54336
G1 F2147.7 X165.486 Y138.418 E22.68183
G1 F2160 X164.786 Y138.418 E22.72828
G1 F2147.7 X164.784 Y140.493 E22.86675
G1 F1973.9 X164.75 Y140.905 E22.89677
G1 F1832.7 X164.684 Y141.05 E22.90923
G1 X164.75 Y141.195 E22.92168
G1 F1963.6 X164.786 Y141.548 E22.94758
G1 F2135.6 X164.786 Y143.69 E23.09134
G1 F2160 X165.486 Y143.69 E23.13779
G1 F2135.6 X165.486 Y141.548 E23.28154
M204 S3000
M205 X10 Y10
G0 F6000 X166.116 Y141.619
M204 S300
M205 X8 Y8
G1 F2700 X166.218 Y141.333 E23.29766
G1 X166.452 Y141.05 E23.31715
G1 X166.218 Y140.767 E23.33664
G1 X166.119 Y140.438 E23.35488
G1 X166.116 Y137.788 E23.49555
G1 X164.156 Y137.788 E23.5996
G1 X164.153 Y140.438 E23.74027
G1 X164.054 Y140.768 E23.75856
G1 X163.819 Y141.05 E23.77804
G1 X164.054 Y141.332 E23.79753
G1 X164.156 Y141.619 E23.8137
G1 X164.156 Y144.32 E23.95707
G1 X166.116 Y144.32 E24.06112
G1 X166.116 Y141.619 E24.20449
M204 S3000
M205 X10 Y10
G1 F2400 E18.20449
G0 F6000 X166.057 Y141.619
G0 X167.056 Y141.052
G0 X167.745 Y141.052
G0 X168.764 Y141.736
G0 X168.722 Y141.736
M204 S300
M205 X8 Y8
G1 F2400 E24.20449
G1 F2524.2 X168.722 Y145.007 E24.39022
M204 S3000
M205 X10 Y10
G0 F6000 X168.764 Y145.007
G0 X168.746 Y141.385
G0 X168.93 Y141.219
M204 S300
M205 X8 Y8
G1 F2826.2 X169.089 Y141.054 E24.40184
G1 F2769.2 X168.8 Y140.682 E24.42622
G1 F2606.9 X168.722 Y140.445 E24.43994
G1 X168.641 Y140.681 E24.45366
G1 F2769.2 X168.348 Y141.05 E24.47804
G1 F2826.2 X168.511 Y141.22 E24.48999
G1 F2805.2 X168.636 Y141.427 E24.50234
G1 F2652.6 X168.722 Y141.736 E24.51967
G1 X168.806 Y141.426 E24.53703
G1 F2805.2 X168.93 Y141.219 E24.54936
M204 S3000
M205 X10 Y10
G0 F6000 X168.722 Y140.445
M204 S300
M205 X8 Y8
G1 F2524.2 X168.722 Y137.172 E24.7352
M204 S3000
M205 X10 Y10
G0 F6000 X168.764 Y137.172
G0 X167.068 Y135.218
G0 X163.205 Y135.218
G0 X161.573 Y136.823
G0 X161.528 Y145.279
G0 X159.898 Y146.892
G0 X145.752 Y147.477
M204 S300
M205 X8 Y8
G1 F2700 X145.536 Y147.439 E24.74684
G1 X145.135 Y147.262 E24.77011
G1 X144.573 Y146.737 E24.81093
G1 X144 Y147.249 E24.85172
G1 X143.595 Y147.415 E24.87496
G1 X143.371 Y147.452 E24.88701
G1 X139.957 Y147.446 E25.06823
G1 X139.585 Y147.358 E25.08853
G1 X139.227 Y147.166 E25.11009
G1 X138.659 Y146.607 E25.15239
G1 X138.549 Y146.486 E25.16107
G1 X138.096 Y146.051 E25.19441
G1 X137.654 Y146.478 E25.22704
G1 X137.533 Y146.612 E25.23662
G1 X136.963 Y147.167 E25.27885
G1 X136.607 Y147.358 E25.3003
G1 X136.204 Y147.449 E25.32223
G1 X132.752 Y147.452 E25.50547
G1 X132.417 Y147.359 E25.52393
G1 X132.013 Y147.124 E25.54874
G1 X131.421 Y146.543 E25.59277
G1 X131.219 Y146.242 E25.61201
G1 X131.106 Y145.937 E25.62928
G1 X131.068 Y145.604 E25.64707
G1 X131.144 Y145.15 E25.6715
G1 X131.386 Y144.718 E25.69779
G1 X131.934 Y144.165 E25.73911
G1 X132.298 Y143.905 E25.76286
G1 F2369.9 X132.791 Y143.687 E25.79546
G1 F2117.6 X134.857 Y143.685 E25.93529
G1 F2129.6 X134.857 Y142.975 E25.98307
G1 F2117.6 X132.791 Y142.973 E26.1229
G1 F2369.9 X132.298 Y142.755 E26.1555
G1 F2700 X131.934 Y142.495 E26.17925
G1 X131.386 Y141.94 E26.22065
G1 X131.313 Y141.882 E26.2256
G1 X130.719 Y141.286 E26.27027
G1 X130.456 Y140.822 E26.29858
G1 X130.388 Y140.486 E26.31678
G1 X130.384 Y137.035 E26.49997
G1 X130.45 Y136.744 E26.51581
G1 X130.708 Y136.268 E26.54455
G1 X132.035 Y134.957 E26.64357
G1 X132.474 Y134.724 E26.66995
G1 X132.765 Y134.652 E26.68586
G1 X136.1 Y134.652 E26.86289
G1 X136.409 Y134.686 E26.8794
G1 X136.927 Y134.901 E26.90917
G1 X137.67 Y135.631 E26.96446
G1 X137.936 Y136.212 E26.99838
G1 X139.115 Y135.048 E27.08633
G1 X139.496 Y134.785 E27.1109
G1 X139.783 Y134.686 E27.12702
G1 X140.092 Y134.652 E27.14352
G1 X143.414 Y134.652 E27.31986
G1 X143.674 Y134.71 E27.334
G1 X144.015 Y134.865 E27.35389
G1 X144.586 Y135.38 E27.3947
G1 X145.149 Y134.865 E27.43521
G1 X145.49 Y134.71 E27.45509
G1 X145.946 Y134.652 E27.47949
G1 X146.393 Y134.744 E27.50372
G1 X146.766 Y134.943 E27.52616
G1 X147.406 Y135.594 E27.57462
G1 X147.512 Y135.744 E27.58437
G1 X148.334 Y134.939 E27.64544
G1 X148.699 Y134.744 E27.66741
G1 X149.024 Y134.652 E27.68534
G1 X152.38 Y134.652 E27.86349
G1 X152.689 Y134.686 E27.87999
G1 X152.976 Y134.785 E27.8961
G1 X153.272 Y134.965 E27.91449
G1 X153.814 Y135.496 E27.95477
G1 X153.914 Y135.607 E27.9627
G1 X154.375 Y136.05 E27.99664
G1 X154.838 Y135.608 E28.03062
G1 X154.938 Y135.496 E28.03859
G1 X155.469 Y134.976 E28.07804
G1 X155.776 Y134.785 E28.09724
G1 X156.063 Y134.686 E28.11335
G1 X156.372 Y134.652 E28.12985
G1 X159.552 Y134.652 E28.29866
G1 X159.861 Y134.686 E28.31516
G1 X160.384 Y134.903 E28.34522
G1 X161.097 Y135.615 E28.3987
G1 X161.549 Y136.047 E28.43189
G1 X162.01 Y135.607 E28.46572
G1 X162.117 Y135.49 E28.47414
G1 X162.567 Y135.048 E28.50762
G1 X162.948 Y134.785 E28.5322
G1 X163.235 Y134.686 E28.54831
G1 X163.544 Y134.652 E28.56482
G1 X166.724 Y134.652 E28.73362
G1 X167.033 Y134.686 E28.75012
G1 X167.549 Y134.9 E28.77977
G1 X168.161 Y135.497 E28.82516
G1 X168.269 Y135.616 E28.83369
G1 X168.723 Y136.049 E28.86699
G1 X169.174 Y135.616 E28.90018
G1 X169.289 Y135.49 E28.90924
G1 X169.739 Y135.048 E28.94272
G1 X170.12 Y134.785 E28.96729
G1 X170.407 Y134.686 E28.98341
G1 X170.716 Y134.652 E28.99991
G1 X174.055 Y134.652 E29.17716
G1 X174.347 Y134.724 E29.19312
G1 X174.786 Y134.958 E29.21953
G1 X176.11 Y136.264 E29.31825
G1 X176.322 Y136.617 E29.34011
G1 X176.436 Y136.997 E29.36117
G1 X176.436 Y140.376 E29.54053
G1 X176.366 Y140.817 E29.56424
G1 X176.251 Y141.054 E29.57822
G1 X176.366 Y141.291 E29.5922
G1 X176.436 Y141.732 E29.61591
G1 X176.431 Y145.059 E29.79252
G1 X176.282 Y145.572 E29.82087
G1 X176.018 Y145.931 E29.84453
G1 X174.73 Y147.196 E29.94036
G1 X174.351 Y147.378 E29.96268
G1 X174.027 Y147.446 E29.98025
G1 X170.72 Y147.452 E30.1558
G1 X170.216 Y147.359 E30.183
G1 X169.857 Y147.167 E30.20461
G1 X169.287 Y146.611 E30.24688
G1 X169.166 Y146.478 E30.25643
G1 X168.722 Y146.052 E30.28909
G1 X168.278 Y146.478 E30.32175
