;FLAVOR:Marlin
;TIME:1407
;Filament used: 1.46714m
;Layer height: 0.15
;MINX:116.414
;MINY:139.908
;MINZ:0.3
;MAXX:185.6
;MAXY:162.1
;MAXZ:19.95
;TARGET_MACHINE.NAME:Unknown
;Generated with Cura_SteamEngine 5.7.2
M140 S70
M105
M190 S70
M104 S215
M105
M109 S215
M82 ;absolute extrusion mode
; Script based on an original created by tjjfvi (https://github.com/tjjfvi)
; An up-to-date version of the tjjfvi's original script can be found
; here:  https://csi.t6.fyi/
; Note - This script will only work in Cura V4.2 and above!
; --- Global Settings
; layer_height = 0.15
; smooth_spiralized_contours = True
; magic_mesh_surface_mode = normal
; machine_extruder_count = 1
; --- Single Extruder Settings
; speed_z_hop = 10
; retraction_amount = 6.5
; retraction_hop = 1
; retraction_hop_enabled = False
; retraction_enable = True
; retraction_speed = 25
; retraction_retract_speed = 25
; retraction_prime_speed = 25
; speed_travel = 120

G28 ;Home
G1 Z15.0 F6000 ;Move the platform down 15mm
;Prime the extruder
G92 E0
G1 F200 E3
G92 E0
G92 E0
G92 E0
G1 F1500 E-6.5
;LAYER_COUNT:132
;LAYER:0
M107
G0 F3600 X118.395 Y145.876 Z0.3
;TYPE:SKIRT
G1 F1500 E0
G1 F1800 X118.751 Y145.601 E0.02244
G1 X119.577 Y145.097 E0.07072
G1 X120.356 Y144.798 E0.11235
G1 X121.099 Y144.634 E0.15031
G1 X121.783 Y144.557 E0.18465
G1 X122.852 Y144.616 E0.23806
G1 X125.642 Y145.174 E0.38001
G1 X128.367 Y145.638 E0.51792
G1 X131.03 Y146.014 E0.65209
G1 X133.736 Y146.318 E0.78795
G1 X136.483 Y146.55 E0.92548
G1 X139.176 Y146.699 E1.06004
G1 X141.927 Y146.774 E1.19734
G1 X144.622 Y146.772 E1.3318
G1 X147.375 Y146.691 E1.4692
G1 X150.098 Y146.535 E1.60528
G1 X152.814 Y146.301 E1.74128
G1 X155.487 Y145.994 E1.87551
G1 X158.245 Y145.599 E2.01452
G1 X160.881 Y145.143 E2.14798
G1 X163.575 Y144.6 E2.28509
G1 X166.199 Y143.995 E2.41943
G1 X168.875 Y143.295 E2.55743
G1 X171.487 Y142.533 E2.69318
G1 X174.063 Y141.702 E2.82822
G1 X178.184 Y140.205 E3.04696
G1 X178.864 Y140.031 E3.08198
G1 X179.421 Y139.947 E3.11008
G1 X180.377 Y139.908 E3.15781
G1 X181.453 Y140.088 E3.21224
G1 X182.452 Y140.462 E3.26546
G1 X183.289 Y140.985 E3.3147
G1 X183.942 Y141.528 E3.35707
G1 X184.459 Y142.134 E3.39681
G1 X184.82 Y142.676 E3.4293
G1 X185.17 Y143.38 E3.46852
G1 X185.403 Y144.081 E3.50538
G1 X185.505 Y144.529 E3.5283
G1 X185.593 Y145.282 E3.56612
G1 X185.6 Y146.023 E3.60309
G1 X185.593 Y155.936 E4.09766
G1 X185.6 Y157.814 E4.19135
G1 X185.59 Y158.541 E4.22762
G1 X185.53 Y159.138 E4.25756
G1 X185.384 Y159.687 E4.2859
G1 X185.153 Y160.207 E4.31429
G1 X184.844 Y160.683 E4.3426
G1 X184.462 Y161.107 E4.37107
G1 X184.071 Y161.427 E4.39628
G1 X183.528 Y161.745 E4.42767
G1 X183.057 Y161.929 E4.4529
G1 X182.449 Y162.061 E4.48394
G1 X182.005 Y162.098 E4.50617
G1 X172.656 Y162.1 E4.97259
G1 X171.952 Y162.09 E5.00772
G1 X171.288 Y162.024 E5.04101
G1 X168.3 Y161.246 E5.19505
G1 X165.615 Y160.629 E5.3325
G1 X162.935 Y160.093 E5.46885
G1 X160.272 Y159.637 E5.60364
G1 X157.583 Y159.255 E5.73915
G1 X154.869 Y158.948 E5.87541
G1 X152.126 Y158.715 E6.01275
G1 X149.433 Y158.564 E6.14732
G1 X146.683 Y158.488 E6.28457
G1 X143.019 Y158.485 E6.46737
G1 X139.534 Y158.373 E6.64132
G1 X138.394 Y158.318 E6.69826
G1 X134.914 Y158.037 E6.87245
G1 X133.844 Y157.933 E6.92608
G1 X130.342 Y157.484 E7.10223
G1 X129.416 Y157.351 E7.1489
G1 X126.091 Y156.765 E7.31734
G1 X124.693 Y156.492 E7.38841
G1 X121.232 Y155.711 E7.56542
G1 X120.509 Y155.534 E7.60255
G1 X119.658 Y155.236 E7.64754
G1 X118.945 Y154.837 E7.6883
G1 X118.246 Y154.278 E7.73295
G1 X117.786 Y153.808 E7.76576
G1 X117.228 Y153.05 E7.81272
G1 X116.938 Y152.508 E7.84339
G1 X116.593 Y151.604 E7.89166
G1 X116.414 Y150.577 E7.94367
G1 X116.45 Y149.56 E7.99444
G1 X116.526 Y149.055 E8.01992
G1 X116.744 Y148.254 E8.06134
G1 X116.921 Y147.817 E8.08486
G1 X117.254 Y147.19 E8.12028
G1 X117.755 Y146.485 E8.16343
G1 X118.395 Y145.876 E8.2075
G0 F3600 X118.671 Y146.166
G1 F1800 X118.994 Y145.919 E8.22779
G1 X119.722 Y145.47 E8.27046
G1 X120.442 Y145.189 E8.30902
G1 X121.185 Y145.025 E8.34698
G1 X121.762 Y144.956 E8.37597
G1 X122.774 Y145.008 E8.42653
G1 X125.568 Y145.567 E8.56869
G1 X128.311 Y146.034 E8.7075
G1 X130.974 Y146.41 E8.84168
G1 X133.702 Y146.717 E8.97864
G1 X136.449 Y146.948 E9.11617
G1 X139.165 Y147.099 E9.25188
G1 X141.916 Y147.174 E9.38918
G1 X144.634 Y147.172 E9.52478
G1 X147.387 Y147.091 E9.66219
G1 X150.132 Y146.933 E9.79936
G1 X152.848 Y146.699 E9.93537
G1 X155.544 Y146.39 E10.07075
G1 X158.302 Y145.995 E10.20975
G1 X160.957 Y145.536 E10.34418
G1 X163.665 Y144.99 E10.482
G1 X166.289 Y144.385 E10.61635
G1 X168.98 Y143.681 E10.75512
G1 X171.61 Y142.914 E10.8918
G1 X174.186 Y142.083 E11.02683
G1 X178.321 Y140.581 E11.24632
G1 X178.925 Y140.426 E11.27743
G1 X179.437 Y140.347 E11.30327
G1 X180.351 Y140.31 E11.34891
G1 X181.35 Y140.477 E11.39944
G1 X182.275 Y140.823 E11.44871
G1 X183.035 Y141.294 E11.49332
G1 X183.639 Y141.789 E11.53228
G1 X184.126 Y142.356 E11.56957
G1 X184.487 Y142.898 E11.60206
G1 X184.79 Y143.506 E11.63595
G1 X185.023 Y144.207 E11.67281
G1 X185.115 Y144.617 E11.69377
G1 X185.193 Y145.286 E11.72737
G1 X185.2 Y146.023 E11.76414
G1 X185.193 Y155.936 E12.25871
G1 X185.2 Y157.808 E12.3521
G1 X185.19 Y158.535 E12.38837
G1 X185.143 Y159.038 E12.41358
G1 X185.017 Y159.528 E12.43882
G1 X184.816 Y159.992 E12.46405
G1 X184.544 Y160.418 E12.48926
G1 X184.209 Y160.797 E12.5145
G1 X183.818 Y161.117 E12.53971
G1 X183.382 Y161.372 E12.56491
G1 X182.911 Y161.556 E12.59013
G1 X182.416 Y161.662 E12.61539
G1 X181.972 Y161.699 E12.63762
G1 X172.662 Y161.7 E13.1021
G1 X171.958 Y161.69 E13.13722
G1 X171.389 Y161.637 E13.16573
G1 X168.39 Y160.856 E13.32034
G1 X165.705 Y160.239 E13.45779
G1 X163.003 Y159.699 E13.59526
G1 X160.328 Y159.241 E13.73066
G1 X157.639 Y158.859 E13.86616
G1 X154.903 Y158.549 E14.00353
G1 X152.16 Y158.317 E14.14087
G1 X149.444 Y158.164 E14.27659
G1 X146.694 Y158.088 E14.41384
G1 X143.032 Y158.085 E14.59653
G1 X139.553 Y157.973 E14.77019
G1 X138.426 Y157.919 E14.82648
G1 X134.953 Y157.639 E15.00031
G1 X133.895 Y157.536 E15.05335
G1 X130.399 Y157.088 E15.22919
G1 X129.485 Y156.957 E15.27526
G1 X126.167 Y156.372 E15.44334
G1 X124.781 Y156.102 E15.51379
G1 X121.327 Y155.322 E15.69045
G1 X120.604 Y155.145 E15.72759
G1 X119.851 Y154.886 E15.76732
G1 X119.194 Y154.524 E15.80474
G1 X118.532 Y153.998 E15.84692
G1 X118.072 Y153.528 E15.87973
G1 X117.581 Y152.861 E15.92105
G1 X117.291 Y152.319 E15.95172
G1 X116.981 Y151.499 E15.99546
G1 X116.815 Y150.55 E16.04352
G1 X116.846 Y149.62 E16.08995
G1 X116.922 Y149.115 E16.11542
G1 X117.115 Y148.403 E16.15223
G1 X117.275 Y148.003 E16.17372
G1 X117.58 Y147.422 E16.20646
G1 X118.058 Y146.749 E16.24764
G1 X118.671 Y146.166 E16.28985
G1 F1500 E9.78985
;MESH:Case_1-Clip.stl
G0 F3600 X151.166 Y150.014
G0 X151.261 Y151.094
G0 X165.46 Y151.526
G0 X165.551 Y151.97
;TYPE:WALL-INNER
G1 F1500 E16.28985
G1 F1800 X165.78 Y152.209 E16.30636
G1 X165.848 Y152.488 E16.32069
G1 X165.848 Y156.148 E16.50329
G1 X166.648 Y156.148 E16.5432
G1 X166.648 Y151.996 E16.75034
G1 X166.738 Y151.678 E16.76683
G1 X166.84 Y151.555 E16.7748
G1 X167.025 Y151.433 E16.78586
G1 X168.203 Y151.127 E16.84658
G1 X169.41 Y150.796 E16.90902
G1 X170.641 Y150.439 E16.97297
G1 X171.075 Y150.404 E16.99469
G1 X171.671 Y150.549 E17.02529
G1 X171.866 Y150.662 E17.03653
G1 X172.282 Y151.041 E17.06461
G1 X172.507 Y151.465 E17.08856
G1 X172.594 Y151.899 E17.11064
G1 X172.6 Y157.9 E17.41003
G1 X181.4 Y157.9 E17.84907
G1 X181.4 Y157.1 E17.88898
G1 X175 Y157.1 E18.20827
G1 X174.612 Y156.958 E18.22889
G1 X174.4 Y156.64 E18.24796
G1 X174.4 Y154.5 E18.35472
G1 X174.488 Y154.185 E18.37104
G1 X174.691 Y153.985 E18.38525
G1 X174.902 Y153.907 E18.39648
G1 X181.399 Y153.9 E18.72061
G1 X181.396 Y145.354 E19.14698
G1 X181.312 Y145.022 E19.16406
G1 X181.078 Y144.612 E19.18761
G1 X180.883 Y144.42 E19.20127
G1 X180.501 Y144.196 E19.22336
G1 X180.263 Y144.128 E19.23571
G1 X179.896 Y144.107 E19.25405
G1 X179.584 Y144.158 E19.26982
G1 X175.569 Y145.794 E19.48612
G1 X171.665 Y147.178 E19.69277
G1 X167.651 Y148.386 E19.9019
G1 X163.642 Y149.393 E20.10812
G1 X159.527 Y150.218 E20.31751
G1 X155.439 Y150.841 E20.52381
G1 X151.258 Y151.276 E20.73353
G1 X147.158 Y151.504 E20.9384
G1 X142.932 Y151.544 E21.14924
G1 X138.772 Y151.382 E21.35694
G1 X134.616 Y151.027 E21.56504
G1 X130.452 Y150.467 E21.77465
G1 X126.388 Y149.725 E21.98076
G1 X122.311 Y148.781 E22.18954
G1 X121.846 Y148.756 E22.21277
G1 X121.605 Y148.806 E22.22505
G1 X121.196 Y149.001 E22.24766
G1 X120.835 Y149.369 E22.27338
G1 X120.654 Y149.77 E22.29533
G1 X120.604 Y150.122 E22.31307
G1 X120.671 Y150.577 E22.33601
G1 X120.831 Y150.909 E22.3544
G1 X120.994 Y151.111 E22.36735
G1 X121.274 Y151.332 E22.38514
G1 X121.58 Y151.482 E22.40215
G1 X125.971 Y152.476 E22.62676
G1 X130.303 Y153.246 E22.84627
G1 X134.607 Y153.794 E23.06273
G1 X138.947 Y154.148 E23.27997
G1 X143.358 Y154.296 E23.50016
G1 X147.777 Y154.231 E23.72065
G1 X152.12 Y153.958 E23.93775
G1 X156.436 Y153.485 E24.15437
G1 X160.848 Y152.787 E24.37722
G1 X165.126 Y151.9 E24.59519
G1 X165.404 Y151.908 E24.60906
G1 X165.551 Y151.97 E24.61702
G0 F3600 X165.448 Y152.418
;TYPE:WALL-OUTER
G1 F1800 X165.448 Y156.136 E24.80252
G1 X165.32 Y156.324 E24.81386
G1 X165.06 Y156.336 E24.82685
G1 X165.32 Y156.548 E24.84358
G1 X167.048 Y156.548 E24.92979
G1 X167.048 Y151.996 E25.15689
G1 X167.078 Y151.89 E25.16239
G1 X167.166 Y151.813 E25.16822
G1 X168.309 Y151.513 E25.22718
G1 X169.521 Y151.18 E25.28989
G1 X170.752 Y150.823 E25.35383
G1 X171.158 Y150.812 E25.3741
G1 X171.539 Y150.927 E25.39395
G1 X171.936 Y151.252 E25.41955
G1 X172.14 Y151.624 E25.44072
G1 X172.196 Y151.934 E25.45643
G1 X172.2 Y158.3 E25.77403
G1 X181.8 Y158.3 E26.25298
G1 X181.8 Y156.7 E26.3328
G1 X175 Y156.7 E26.67206
G1 X174.87 Y156.653 E26.67895
G1 X174.8 Y156.547 E26.68529
G1 X174.8 Y154.5 E26.78742
G1 X174.829 Y154.395 E26.79285
G1 X174.967 Y154.302 E26.80115
G1 X181.799 Y154.3 E27.142
G1 X181.796 Y145.305 E27.59076
G1 X181.69 Y144.885 E27.61238
G1 X181.535 Y144.563 E27.6302
G1 X181.129 Y144.1 E27.66093
G1 X180.66 Y143.826 E27.68803
G1 X180.33 Y143.731 E27.70516
G1 X179.875 Y143.705 E27.7279
G1 X179.475 Y143.77 E27.74811
G1 X175.435 Y145.417 E27.96577
G1 X171.522 Y146.804 E28.1729
G1 X167.553 Y147.998 E28.37968
G1 X163.564 Y149.001 E28.58488
G1 X159.467 Y149.822 E28.79335
G1 X155.397 Y150.443 E28.99875
G1 X151.236 Y150.876 E29.20746
G1 X147.126 Y151.104 E29.41283
G1 X142.948 Y151.144 E29.62128
G1 X138.806 Y150.984 E29.82808
G1 X134.669 Y150.631 E30.03522
G1 X130.524 Y150.073 E30.24388
G1 X126.478 Y149.335 E30.44907
G1 X122.367 Y148.383 E30.6596
G1 X121.816 Y148.354 E30.68712
G1 X121.477 Y148.424 E30.70439
G1 X120.978 Y148.662 E30.73198
G1 X120.712 Y148.885 E30.74929
G1 X120.492 Y149.158 E30.76679
G1 X120.266 Y149.657 E30.79411
G1 X120.202 Y150.108 E30.81684
G1 X120.227 Y150.451 E30.834
G1 X120.293 Y150.715 E30.84757
G1 X120.491 Y151.124 E30.87025
G1 X120.71 Y151.397 E30.88771
G1 X121.06 Y151.673 E30.90994
G1 X121.447 Y151.862 E30.93143
G1 X125.892 Y152.868 E31.1588
G1 X130.243 Y153.642 E31.37928
G1 X134.565 Y154.192 E31.59665
G1 X138.924 Y154.548 E31.81484
G1 X143.354 Y154.696 E32.03598
G1 X147.76 Y154.632 E32.25582
G1 X152.194 Y154.353 E32.47747
G1 X156.446 Y153.887 E32.69087
G1 X160.888 Y153.187 E32.91522
G1 X165.207 Y152.292 E33.13527
G1 X165.349 Y152.315 E33.14245
G1 X165.448 Y152.418 E33.14958
G0 F3600 X165.448 Y152.618
G0 X166.15 Y152.618
G0 X166.419 Y151.359
G0 X170.674 Y150.184
G0 X171.89 Y150.37
G0 X172.762 Y151.444
G0 X174.172 Y157.328
G0 X181 Y157.5
;TYPE:SKIN
G1 F1636.4 X175 Y157.5 E33.47885
G0 F3600 X174.172 Y157.328
G0 X174.1 Y153.946
G0 X174.194 Y153.946
G1 F1800 X174.02 Y154.47 E33.5064
G1 X174.022 Y156.527 E33.60902
G1 X174.065 Y156.793 E33.62247
G1 X174.329 Y157.203 E33.64679
G1 X174.426 Y157.28 E33.65297
G1 F1756.1 X174.968 Y157.501 E33.6829
G1 X174.383 Y157.52 E33.71284
G1 F1800 X172.976 Y157.52 E33.78303
G1 X172.972 Y151.868 E34.06501
G1 X172.852 Y151.308 E34.09358
G1 X172.586 Y150.809 E34.1218
G1 X172.085 Y150.35 E34.15569
G1 X171.829 Y150.202 E34.17045
G1 X171.381 Y150.064 E34.19383
G1 X171.093 Y150.025 E34.20833
G1 X170.565 Y150.068 E34.23476
G1 X169.308 Y150.429 E34.30001
G1 X168.111 Y150.757 E34.36193
G1 X166.906 Y151.066 E34.42399
G1 X166.58 Y151.276 E34.44334
G1 X166.391 Y151.526 E34.45897
G1 X166.275 Y151.942 E34.48052
G1 F1702.1 X166.245 Y152.435 E34.50658
G1 X166.118 Y152.033 E34.52882
G1 F1800 X165.788 Y151.676 E34.55308
G1 X165.505 Y151.538 E34.56878
G1 X165.043 Y151.528 E34.59184
G1 X160.795 Y152.411 E34.8083
G1 X156.31 Y153.113 E35.03478
G1 X152.105 Y153.574 E35.24583
G1 X147.774 Y153.847 E35.46233
G1 X143.385 Y153.916 E35.68133
G1 X138.972 Y153.768 E35.90162
G1 X134.649 Y153.413 E36.11802
G1 X130.41 Y152.878 E36.33118
G1 X126.072 Y152.108 E36.55099
G1 X121.703 Y151.117 E36.77449
G1 X121.476 Y151.009 E36.78704
G1 X121.263 Y150.838 E36.80066
G1 X121.034 Y150.459 E36.82276
G1 X120.986 Y150.127 E36.83949
G1 X121.023 Y149.873 E36.8523
G1 X121.156 Y149.575 E36.86858
G1 X121.407 Y149.318 E36.8865
G1 X121.871 Y149.138 E36.91133
G1 X122.255 Y149.159 E36.93052
G1 X126.334 Y150.103 E37.1394
G1 X130.38 Y150.841 E37.34458
G1 X134.601 Y151.407 E37.55705
G1 X138.743 Y151.76 E37.76445
G1 X142.916 Y151.924 E37.9728
G1 X147.167 Y151.88 E38.1849
G1 X151.276 Y151.652 E38.39021
G1 X155.477 Y151.219 E38.60091
G1 X159.623 Y150.586 E38.81015
G1 X163.72 Y149.765 E39.01862
G1 X167.757 Y148.75 E39.22629
G1 X171.718 Y147.56 E39.43263
G1 X175.695 Y146.149 E39.64316
G1 X179.69 Y144.523 E39.85835
G1 X179.911 Y144.489 E39.8695
G1 X180.344 Y144.545 E39.89129
G1 X180.643 Y144.721 E39.9086
G1 X180.863 Y144.968 E39.9251
G1 X181.016 Y145.406 E39.94825
G1 X181.016 Y153.52 E40.35305
G1 X174.863 Y153.522 E40.66003
G1 X174.527 Y153.64 E40.6778
G1 X174.194 Y153.946 E40.70036
G0 F3600 X174.1 Y153.946
G0 X172.479 Y150.882
G0 X171.209 Y150.161
G0 X166.419 Y151.359
G0 X166.248 Y155.748
G1 F1625.3 X166.245 Y152.435 E40.88341
G0 F3600 X166.419 Y151.359
G0 X179.784 Y144.712
G1 F1800 X180.816 Y145.744 E40.95623
G0 F3600 X180.816 Y146.31
G1 F1800 X179.375 Y144.868 E41.05793
G0 F3600 X178.972 Y145.031
G1 F1800 X180.816 Y146.875 E41.18804
G0 F3600 X180.816 Y147.441
G1 F1800 X178.57 Y145.194 E41.34654
G0 F3600 X178.168 Y145.359
G1 F1800 X180.816 Y148.007 E41.53337
G0 F3600 X180.816 Y148.572
G1 F1800 X177.766 Y145.522 E41.74856
G0 F3600 X177.364 Y145.685
G1 F1800 X180.816 Y149.138 E41.99216
G0 F3600 X180.816 Y149.704
G1 F1800 X176.962 Y145.849 E42.26411
G0 F3600 X176.56 Y146.013
G1 F1800 X180.816 Y150.269 E42.5644
G0 F3600 X180.816 Y150.835
G1 F1800 X176.157 Y146.176 E42.89311
G0 F3600 X175.755 Y146.339
G1 F1800 X180.816 Y151.401 E43.25023
G0 F3600 X180.816 Y151.966
G1 F1800 X175.338 Y146.488 E43.63673
G0 F3600 X174.92 Y146.636
G1 F1800 X180.816 Y152.532 E44.05273
G0 F3600 X180.816 Y153.098
G1 F1800 X174.503 Y146.784 E44.49818
G0 F3600 X174.085 Y146.933
G1 F1800 X180.473 Y153.32 E44.94885
G0 F3600 X179.907 Y153.32
G1 F1800 X173.668 Y147.08 E45.38908
G0 F3600 X173.25 Y147.229
G1 F1800 X179.341 Y153.32 E45.81883
G0 F3600 X178.776 Y153.32
G1 F1800 X172.832 Y147.377 E46.23818
G0 F3600 X172.415 Y147.525
G1 F1800 X178.21 Y153.32 E46.64705
G0 F3600 X177.644 Y153.32
G1 F1800 X171.997 Y147.673 E47.04548
G0 F3600 X171.572 Y147.813
G1 F1800 X177.079 Y153.32 E47.43402
G0 F3600 X176.513 Y153.32
G1 F1800 X171.137 Y147.944 E47.81333
G0 F3600 X170.702 Y148.075
G1 F1800 X175.947 Y153.32 E48.18339
G0 F3600 X175.382 Y153.32
G1 F1800 X170.267 Y148.205 E48.54428
G0 F3600 X169.832 Y148.336
G1 F1800 X171.356 Y149.86 E48.65181
G0 F3600 X170.78 Y149.85
G1 F1800 X169.397 Y148.466 E48.74942
G0 F3600 X168.962 Y148.597
G1 F1800 X170.297 Y149.933 E48.84365
G0 F3600 X169.859 Y150.06
G1 F1800 X168.527 Y148.728 E48.93763
G0 F3600 X168.092 Y148.859
G1 F1800 X169.421 Y150.188 E49.0314
G0 F3600 X168.979 Y150.312
G1 F1800 X167.651 Y148.984 E49.1251
G0 F3600 X167.199 Y149.097
G1 F1800 X168.535 Y150.433 E49.21936
G0 F3600 X168.091 Y150.555
G1 F1800 X166.747 Y149.211 E49.31418
G0 F3600 X166.295 Y149.325
G1 F1800 X167.642 Y150.672 E49.40922
