;FLAVOR:Marlin
;TIME:6513
;Filament used: 5.79084m
;Layer height: 0.15
;MINX:106.2
;MINY:118.7
;MINZ:0.3
;MAXX:195.8
;MAXY:183.3
;MAXZ:19.05
;TARGET_MACHINE.NAME:Unknown
;Generated with Cura_SteamEngine 5.7.2
M140 S70
M105
M190 S70
M104 S215
M105
M109 S215
M82 ;absolute extrusion mode
; Script based on an original created by tjjfvi (https://github.com/tjjfvi)
; An up-to-date version of the tjjfvi's original script can be found
; here:  https://csi.t6.fyi/
; Note - This script will only work in Cura V4.2 and above!
; --- Global Settings
; layer_height = 0.15
; smooth_spiralized_contours = True
; magic_mesh_surface_mode = normal
; machine_extruder_count = 1
; --- Single Extruder Settings
; speed_z_hop = 10
; retraction_amount = 6.5
; retraction_hop = 1
; retraction_hop_enabled = False
; retraction_enable = True
; retraction_speed = 25
; retraction_retract_speed = 25
; retraction_prime_speed = 25
; speed_travel = 120

G28 ;Home
G1 Z15.0 F6000 ;Move the platform down 15mm
;Prime the extruder
G92 E0
G1 F200 E3
G92 E0
G92 E0
G92 E0
G1 F1500 E-6.5
;LAYER_COUNT:126
;LAYER:0
M107
G0 F3600 X111.258 Y123.515 Z0.3
;TYPE:SKIRT
G1 F1500 E0
G1 F1800 X111.639 Y123.183 E0.02521
G1 X112.364 Y122.743 E0.06752
G1 X112.821 Y122.527 E0.09274
G1 X113.272 Y122.383 E0.11636
G1 X114.083 Y122.2 E0.15784
G1 X114.73 Y122.122 E0.19035
G1 X115.619 Y122.107 E0.23471
G1 X186.543 Y122.107 E3.77312
G1 X187.196 Y122.116 E3.8057
G1 X187.864 Y122.196 E3.83927
G1 X188.723 Y122.392 E3.88323
G1 X189.328 Y122.581 E3.91485
G1 X190.034 Y122.978 E3.95526
G1 X190.453 Y123.259 E3.98043
G1 X190.977 Y123.75 E4.01625
G1 X191.36 Y124.197 E4.04562
G1 X191.731 Y124.818 E4.08171
G1 X191.955 Y125.271 E4.10692
G1 X192.111 Y125.743 E4.13172
G1 X192.298 Y126.565 E4.17378
G1 X192.376 Y127.21 E4.20619
G1 X192.394 Y128.17 E4.2541
G1 X192.394 Y174.039 E6.54251
G1 X192.385 Y174.696 E6.57529
G1 X192.304 Y175.366 E6.60896
G1 X192.108 Y176.222 E6.65277
G1 X191.919 Y176.828 E6.68444
G1 X191.515 Y177.544 E6.72546
G1 X191.233 Y177.963 E6.75066
G1 X190.739 Y178.487 E6.78658
G1 X190.293 Y178.867 E6.81582
G1 X189.646 Y179.25 E6.85333
G1 X189.051 Y179.542 E6.88639
G1 X187.943 Y179.796 E6.94311
G1 X187.288 Y179.876 E6.97603
G1 X186.305 Y179.894 E7.02508
G1 X115.461 Y179.894 E10.5595
G1 X114.804 Y179.885 E10.59228
G1 X114.133 Y179.804 E10.626
G1 X113.274 Y179.607 E10.66997
G1 X112.668 Y179.416 E10.70167
G1 X111.968 Y179.022 E10.74174
G1 X111.548 Y178.74 E10.76698
G1 X111.043 Y178.269 E10.80143
G1 X110.711 Y177.888 E10.82665
G1 X110.298 Y177.228 E10.86549
G1 X110.016 Y176.664 E10.89695
G1 X109.724 Y175.533 E10.95522
G1 X109.623 Y174.792 E10.99253
G1 X109.604 Y173.752 E11.04443
G1 X109.603 Y127.968 E13.3286
G1 X109.612 Y127.317 E13.36108
G1 X109.692 Y126.649 E13.39465
G1 X109.892 Y125.773 E13.43948
G1 X110.084 Y125.159 E13.47157
G1 X110.485 Y124.455 E13.51199
G1 X110.769 Y124.037 E13.5372
G1 X111.258 Y123.515 E13.57289
G1 F1500 E7.07289
;MESH:Case_1-Bottom Case.stl
G0 F3600 X115.043 Y126.175
G0 X115.483 Y127.195
G0 X167.732 Y162.4
G0 X167.732 Y162.038
;TYPE:WALL-INNER
G1 F1500 E13.57289
G1 F1800 X167.503 Y161.838 E13.58806
G1 X167.404 Y161.575 E13.60208
G1 X167.404 Y140.425 E14.65726
G1 X167.452 Y140.254 E14.66612
G1 X167.577 Y140.073 E14.67709
G1 X167.732 Y139.962 E14.6866
G1 X167.929 Y139.904 E14.69685
G1 X179.077 Y139.904 E15.25302
G1 X179.373 Y140.029 E15.26905
G1 X179.507 Y140.178 E15.27905
G1 X179.6 Y140.409 E15.29148
G1 X179.6 Y161.578 E16.3476
G1 X179.507 Y161.821 E16.36058
G1 X179.373 Y161.971 E16.37062
G1 X179.077 Y162.096 E16.38665
G1 X167.929 Y162.096 E16.94282
G1 X167.732 Y162.038 E16.95307
G0 F3600 X167.732 Y162.4
G0 X186.496 Y174.319
G0 X186.551 Y174.62
G1 F1800 X186.93 Y174.438 E16.97404
G1 X187.124 Y174 E16.99794
G1 X187.12 Y127.942 E19.29579
G1 X186.92 Y127.547 E19.31788
G1 X186.55 Y127.376 E19.33821
G1 X115.496 Y127.376 E22.88311
G1 X115.161 Y127.498 E22.9009
G1 X115.05 Y127.577 E22.90769
G1 X114.888 Y127.945 E22.92775
G1 X114.888 Y174.049 E25.22789
G1 X115.028 Y174.379 E25.24578
G1 X115.122 Y174.468 E25.25223
G1 X115.458 Y174.624 E25.27072
G1 X186.551 Y174.62 E28.81756
G0 F3600 X186.534 Y175.02
;TYPE:WALL-OUTER
G1 F1800 X186.7 Y174.991 E28.82597
G1 X187.107 Y174.807 E28.84825
G1 X187.227 Y174.714 E28.85582
G1 X187.351 Y174.528 E28.86698
G1 X187.524 Y174.04 E28.89281
G1 X187.52 Y127.958 E31.19185
G1 X187.352 Y127.463 E31.21793
G1 X187.184 Y127.228 E31.23234
G1 X186.7 Y127.005 E31.25893
G1 X186.534 Y126.976 E31.26733
G1 X115.462 Y126.976 E34.81313
G1 X115.294 Y127.006 E34.82164
G1 X114.963 Y127.148 E34.83961
G1 X114.723 Y127.319 E34.85432
G1 X114.488 Y127.862 E34.88383
G1 X114.488 Y174.131 E37.1922
G1 X114.692 Y174.611 E37.21822
G1 X114.894 Y174.804 E37.23216
G1 X115.302 Y174.992 E37.25457
G1 X115.464 Y175.024 E37.26281
G1 X186.534 Y175.02 E40.80851
G0 F3600 X186.7 Y174.991
G0 X186.728 Y174.979
G0 X186.496 Y174.319
G0 X179.026 Y162.4
G0 X179.026 Y161.699
G1 F1800 X167.976 Y161.699 E41.3598
G1 X167.845 Y161.628 E41.36723
G1 X167.806 Y161.553 E41.37145
G1 X167.801 Y140.475 E42.42303
G1 X167.845 Y140.372 E42.42862
G1 X167.976 Y140.301 E42.43606
G1 X179.026 Y140.301 E42.98734
G1 X179.125 Y140.343 E42.99271
G1 X179.197 Y140.461 E42.9996
G1 X179.197 Y161.539 E44.05119
G1 X179.148 Y161.635 E44.05657
G1 X179.026 Y161.699 E44.06344
G0 F3600 X178.826 Y161.699
G0 X178.826 Y162.4
G0 X186.464 Y174.24
;TYPE:SKIN
G1 F1800 X115.546 Y174.244 E47.60155
G1 X115.337 Y174.132 E47.61338
G1 X115.268 Y173.971 E47.62212
G1 X115.268 Y128.021 E49.91458
G1 X115.343 Y127.845 E49.92412
G1 X115.529 Y127.756 E49.93441
G1 X186.463 Y127.756 E53.47332
G1 X186.652 Y127.844 E53.48372
G1 X186.74 Y128.023 E53.49367
G1 X186.744 Y173.941 E55.78453
G1 X186.648 Y174.157 E55.79632
G1 X186.464 Y174.24 E55.80639
G0 F3600 X179.479 Y162.4
G0 X179.479 Y162.353
G1 F1800 X179.725 Y162.154 E55.82218
G1 X179.893 Y161.896 E55.83754
G1 X179.977 Y161.639 E55.85103
G1 X179.977 Y140.345 E56.91339
G1 X179.826 Y139.973 E56.93342
G1 X179.611 Y139.732 E56.94953
G1 X179.364 Y139.586 E56.96385
G1 X179.126 Y139.525 E56.97611
G1 X167.874 Y139.526 E57.53747
G1 X167.548 Y139.628 E57.55451
G1 X167.256 Y139.856 E57.573
G1 X167.075 Y140.167 E57.59095
G1 X167.02 Y140.439 E57.60479
G1 X167.021 Y161.57 E58.65902
G1 X167.071 Y161.816 E58.67155
G1 X167.288 Y162.174 E58.69243
G1 X167.553 Y162.375 E58.70903
G1 X167.88 Y162.471 E58.72603
G1 X179.123 Y162.471 E59.28694
G1 X179.479 Y162.353 E59.30566
G0 F3600 X179.479 Y162.4
G0 X186.222 Y127.956
G1 F1800 X186.54 Y128.275 E59.32813
G0 F3600 X186.54 Y128.841
G1 F1800 X185.656 Y127.956 E59.39053
G0 F3600 X185.09 Y127.956
G1 F1800 X186.54 Y129.406 E59.49284
G0 F3600 X186.54 Y129.972
G1 F1800 X184.524 Y127.956 E59.63508
G0 F3600 X183.959 Y127.956
G1 F1800 X186.54 Y130.538 E59.81722
G0 F3600 X186.54 Y131.103
G1 F1800 X183.393 Y127.956 E60.03925
G0 F3600 X182.827 Y127.956
G1 F1800 X186.54 Y131.669 E60.30123
G0 F3600 X186.54 Y132.235
G1 F1800 X182.262 Y127.956 E60.6031
G0 F3600 X181.696 Y127.956
G1 F1800 X186.54 Y132.8 E60.94487
G0 F3600 X186.54 Y133.366
G1 F1800 X181.13 Y127.956 E61.32657
G0 F3600 X180.565 Y127.956
G1 F1800 X186.54 Y133.932 E61.74818
G0 F3600 X186.54 Y134.497
G1 F1800 X179.999 Y127.956 E62.20968
G0 F3600 X179.433 Y127.956
G1 F1800 X186.54 Y135.063 E62.71112
G0 F3600 X186.54 Y135.629
G1 F1800 X178.868 Y127.956 E63.25245
G0 F3600 X178.302 Y127.956
G1 F1800 X186.541 Y136.195 E63.83376
G0 F3600 X186.541 Y136.761
G1 F1800 X177.736 Y127.956 E64.455
G0 F3600 X177.171 Y127.956
G1 F1800 X186.541 Y137.327 E65.11614
G0 F3600 X186.541 Y137.892
G1 F1800 X176.605 Y127.956 E65.81718
G0 F3600 X176.039 Y127.956
G1 F1800 X186.541 Y138.458 E66.55815
G0 F3600 X186.541 Y139.024
G1 F1800 X175.473 Y127.956 E67.33906
G0 F3600 X174.908 Y127.956
G1 F1800 X186.541 Y139.589 E68.15983
G0 F3600 X186.541 Y140.155
G1 F1800 X174.342 Y127.956 E69.02053
G0 F3600 X173.776 Y127.956
G1 F1800 X186.541 Y140.721 E69.92117
G0 F3600 X186.541 Y141.286
G1 F1800 X173.211 Y127.956 E70.86168
G0 F3600 X172.645 Y127.956
G1 F1800 X186.541 Y141.852 E71.84212
G0 F3600 X186.541 Y142.418
G1 F1800 X172.079 Y127.956 E72.86249
G0 F3600 X171.514 Y127.956
G1 F1800 X186.541 Y142.983 E73.92272
G0 F3600 X186.542 Y143.55
G1 F1800 X170.948 Y127.956 E75.02296
G0 F3600 X170.382 Y127.956
G1 F1800 X186.542 Y144.115 E76.1631
G0 F3600 X186.542 Y144.681
G1 F1800 X169.817 Y127.956 E77.34314
G0 F3600 X169.251 Y127.956
G1 F1800 X186.542 Y145.247 E78.56312
G0 F3600 X186.542 Y145.812
G1 F1800 X168.685 Y127.956 E79.82299
G0 F3600 X168.12 Y127.956
G1 F1800 X186.542 Y146.378 E81.12276
G0 F3600 X186.542 Y146.944
G1 F1800 X180.179 Y140.581 E81.5717
G0 F3600 X180.179 Y141.147
G1 F1800 X186.542 Y147.51 E82.02065
G0 F3600 X186.542 Y148.075
G1 F1800 X180.179 Y141.713 E82.46956
G0 F3600 X180.179 Y142.278
G1 F1800 X186.542 Y148.641 E82.9185
G0 F3600 X186.542 Y149.207
G1 F1800 X180.179 Y142.843 E83.36748
G0 F3600 X180.179 Y143.409
G1 F1800 X186.542 Y149.772 E83.81643
G0 F3600 X186.542 Y150.338
G1 F1800 X180.179 Y143.975 E84.26537
G0 F3600 X180.179 Y144.54
G1 F1800 X186.542 Y150.904 E84.71435
G0 F3600 X186.543 Y151.47
G1 F1800 X180.178 Y145.105 E85.16343
G0 F3600 X180.178 Y145.671
G1 F1800 X186.543 Y152.036 E85.61252
G0 F3600 X186.543 Y152.601
G1 F1800 X180.178 Y146.237 E86.06157
G0 F3600 X180.178 Y146.802
G1 F1800 X186.543 Y153.167 E86.51065
G0 F3600 X186.543 Y153.733
G1 F1800 X180.178 Y147.368 E86.95974
G0 F3600 X180.177 Y147.933
G1 F1800 X186.543 Y154.298 E87.40886
G0 F3600 X186.543 Y154.864
G1 F1800 X180.177 Y148.499 E87.85798
G0 F3600 X180.177 Y149.064
G1 F1800 X186.543 Y155.43 E88.30714
G0 F3600 X186.543 Y155.996
G1 F1800 X180.177 Y149.63 E88.75629
G0 F3600 X180.176 Y150.195
G1 F1800 X186.543 Y156.561 E89.20548
G0 F3600 X186.543 Y157.127
G1 F1800 X180.176 Y150.761 E89.65467
G0 F3600 X180.176 Y151.327
G1 F1800 X186.543 Y157.693 E90.10386
G0 F3600 X186.543 Y158.258
G1 F1800 X180.176 Y151.892 E90.55305
G0 F3600 X180.176 Y152.457
G1 F1800 X186.543 Y158.825 E91.00232
G0 F3600 X186.543 Y159.39
G1 F1800 X180.176 Y153.023 E91.45154
G0 F3600 X180.176 Y153.589
G1 F1800 X186.543 Y159.956 E91.90077
G0 F3600 X186.543 Y160.522
G1 F1800 X180.176 Y154.154 E92.35003
G0 F3600 X180.175 Y154.719
G1 F1800 X186.543 Y161.087 E92.79933
G0 F3600 X186.543 Y161.653
G1 F1800 X180.175 Y155.285 E93.24862
G0 F3600 X180.175 Y155.851
G1 F1800 X186.543 Y162.219 E93.69792
G0 F3600 X186.543 Y162.784
G1 F1800 X180.175 Y156.416 E94.14722
G0 F3600 X180.174 Y156.981
G1 F1800 X186.543 Y163.35 E94.59658
G0 F3600 X186.543 Y163.916
G1 F1800 X180.174 Y157.547 E95.04595
G0 F3600 X180.174 Y158.113
G1 F1800 X186.543 Y164.482 E95.49532
G0 F3600 X186.543 Y165.047
G1 F1800 X180.174 Y158.678 E95.94469
G0 F3600 X180.174 Y159.244
G1 F1800 X186.543 Y165.613 E96.39405
G0 F3600 X186.543 Y166.179
G1 F1800 X180.174 Y159.809 E96.84346
G0 F3600 X180.174 Y160.375
G1 F1800 X186.544 Y166.745 E97.29289
G0 F3600 X186.544 Y167.311
G1 F1800 X180.174 Y160.94 E97.74237
G0 F3600 X180.174 Y161.506
G1 F1800 X186.544 Y167.876 E98.19181
G0 F3600 X186.544 Y168.442
G1 F1800 X180.073 Y161.971 E98.64837
G0 F3600 X179.847 Y162.311
G1 F1800 X186.544 Y169.008 E99.12088
G0 F3600 X186.544 Y169.573
G1 F1800 X179.518 Y162.548 E99.61657
G0 F3600 X179.074 Y162.669
G1 F1800 X186.544 Y170.139 E100.14362
G0 F3600 X186.544 Y170.705
G1 F1800 X178.508 Y162.669 E100.7106
G0 F3600 X177.943 Y162.669
G1 F1800 X186.544 Y171.27 E101.31745
G0 F3600 X186.544 Y171.836
G1 F1800 X177.377 Y162.669 E101.96423
G0 F3600 X176.811 Y162.669
G1 F1800 X186.544 Y172.402 E102.65094
G0 F3600 X186.544 Y172.968
G1 F1800 X176.246 Y162.669 E103.37756
G0 F3600 X175.68 Y162.669
G1 F1800 X186.544 Y173.533 E104.14407
G0 F3600 X186.464 Y174.019
G1 F1800 X175.114 Y162.669 E104.94487
G0 F3600 X174.549 Y162.669
G1 F1800 X185.919 Y174.039 E105.74709
G0 F3600 X185.353 Y174.039
G1 F1800 X173.983 Y162.669 E106.5493
G0 F3600 X173.417 Y162.669
G1 F1800 X184.788 Y174.039 E107.35155
G0 F3600 X184.222 Y174.039
G1 F1800 X172.852 Y162.669 E108.15377
G0 F3600 X172.286 Y162.669
G1 F1800 X183.656 Y174.039 E108.95598
G0 F3600 X183.09 Y174.039
G1 F1800 X171.72 Y162.669 E109.7582
G0 F3600 X171.154 Y162.669
G1 F1800 X182.525 Y174.039 E110.56045
G0 F3600 X181.959 Y174.039
G1 F1800 X170.589 Y162.669 E111.36266
G0 F3600 X170.023 Y162.669
G1 F1800 X181.393 Y174.039 E112.16488
G0 F3600 X180.828 Y174.039
G1 F1800 X169.457 Y162.669 E112.96713
G0 F3600 X168.892 Y162.669
G1 F1800 X180.262 Y174.039 E113.76934
G0 F3600 X179.696 Y174.039
G1 F1800 X168.326 Y162.669 E114.57156
G0 F3600 X167.72 Y162.629
G1 F1800 X179.131 Y174.039 E115.37663
G0 F3600 X178.565 Y174.039
G1 F1800 X132.481 Y127.956 E118.62807
G0 F3600 X131.916 Y127.956
G1 F1800 X177.999 Y174.039 E121.87948
G0 F3600 X177.434 Y174.039
G1 F1800 X131.35 Y127.956 E125.13092
G0 F3600 X130.784 Y127.956
G1 F1800 X176.868 Y174.039 E128.38236
G0 F3600 X176.302 Y174.039
G1 F1800 X130.219 Y127.956 E131.63376
G0 F3600 X129.653 Y127.956
G1 F1800 X175.737 Y174.039 E134.8852
G0 F3600 X175.171 Y174.039
G1 F1800 X129.087 Y127.956 E138.13664
G0 F3600 X128.522 Y127.956
G1 F1800 X174.606 Y174.04 E141.38812
G0 F3600 X174.04 Y174.04
G1 F1800 X127.956 Y127.956 E144.63959
G0 F3600 X127.39 Y127.956
G1 F1800 X173.475 Y174.04 E147.8911
G0 F3600 X172.909 Y174.04
G1 F1800 X126.825 Y127.956 E151.14258
G0 F3600 X126.259 Y127.956
G1 F1800 X172.343 Y174.04 E154.39405
G0 F3600 X171.777 Y174.04
G1 F1800 X125.693 Y127.956 E157.64553
G0 F3600 X125.127 Y127.956
G1 F1800 X171.212 Y174.04 E160.89704
G0 F3600 X170.646 Y174.04
G1 F1800 X124.562 Y127.956 E164.14851
G0 F3600 X123.996 Y127.956
G1 F1800 X170.08 Y174.04 E167.39999
G0 F3600 X169.515 Y174.04
G1 F1800 X123.43 Y127.956 E170.6515
G0 F3600 X122.865 Y127.956
G1 F1800 X168.949 Y174.04 E173.90297
G0 F3600 X168.383 Y174.04
G1 F1800 X122.299 Y127.956 E177.15445
G0 F3600 X121.733 Y127.956
G1 F1800 X167.818 Y174.04 E180.40596
G0 F3600 X167.252 Y174.04
G1 F1800 X121.168 Y127.956 E183.65743
G0 F3600 X120.602 Y127.956
G1 F1800 X166.686 Y174.04 E186.90891
G0 F3600 X166.121 Y174.04
G1 F1800 X120.036 Y127.956 E190.16042
G0 F3600 X119.471 Y127.956
G1 F1800 X165.555 Y174.04 E193.41189
G0 F3600 X164.989 Y174.04
G1 F1800 X118.905 Y127.956 E196.66337
G0 F3600 X118.339 Y127.956
G1 F1800 X164.424 Y174.04 E199.91488
G0 F3600 X163.858 Y174.04
G1 F1800 X117.774 Y127.956 E203.16635
G0 F3600 X117.208 Y127.956
G1 F1800 X163.292 Y174.04 E206.41783
G0 F3600 X162.727 Y174.041
G1 F1800 X116.642 Y127.956 E209.66937
G0 F3600 X116.077 Y127.956
G1 F1800 X162.162 Y174.041 E212.92092
G0 F3600 X161.596 Y174.041
G1 F1800 X115.532 Y127.977 E216.17098
G0 F3600 X115.468 Y128.478
G1 F1800 X161.03 Y174.041 E219.38567
G0 F3600 X160.464 Y174.041
G1 F1800 X115.468 Y129.044 E222.56041
G0 F3600 X115.468 Y129.61
G1 F1800 X159.899 Y174.041 E225.69526
G0 F3600 X159.333 Y174.041
G1 F1800 X115.468 Y130.176 E228.79017
G0 F3600 X115.468 Y130.741
G1 F1800 X158.767 Y174.041 E231.84518
G0 F3600 X158.202 Y174.041
G1 F1800 X115.468 Y131.307 E234.8603
G0 F3600 X115.468 Y131.873
G1 F1800 X157.636 Y174.041 E237.83548
G0 F3600 X157.07 Y174.041
G1 F1800 X115.468 Y132.438 E240.77076
G0 F3600 X115.468 Y133.004
G1 F1800 X156.505 Y174.041 E243.66614
G0 F3600 X155.939 Y174.041
G1 F1800 X115.468 Y133.57 E246.52159
G0 F3600 X115.468 Y134.135
G1 F1800 X155.373 Y174.041 E249.33714
G0 F3600 X154.808 Y174.041
G1 F1800 X115.468 Y134.701 E252.11279
G0 F3600 X115.468 Y135.267
G1 F1800 X154.242 Y174.041 E254.8485
G0 F3600 X153.676 Y174.041
G1 F1800 X115.468 Y135.832 E257.54432
G0 F3600 X115.468 Y136.398
G1 F1800 X153.111 Y174.041 E260.20024
G0 F3600 X152.545 Y174.041
G1 F1800 X115.468 Y136.964 E262.81622
G0 F3600 X115.468 Y137.529
G1 F1800 X151.979 Y174.041 E265.3923
G0 F3600 X151.413 Y174.041
G1 F1800 X115.468 Y138.095 E267.92845
G0 F3600 X115.468 Y138.661
G1 F1800 X150.849 Y174.042 E270.42477
G0 F3600 X150.283 Y174.042
G1 F1800 X115.468 Y139.226 E272.88119
G0 F3600 X115.468 Y139.792
G1 F1800 X149.717 Y174.042 E275.29768
G0 F3600 X149.151 Y174.042
G1 F1800 X115.468 Y140.358 E277.67423
G0 F3600 X115.468 Y140.924
G1 F1800 X148.586 Y174.042 E280.01089
G0 F3600 X148.02 Y174.042
G1 F1800 X115.468 Y141.489 E282.30764
