;FLAVOR:Marlin
;TIME:3848
;Filament used: 4.2559m
;Layer height: 0.2
;MINX:106.2
;MINY:118.7
;MINZ:0.2
;MAXX:195.8
;MAXY:183.3
;MAXZ:12
;TARGET_MACHINE.NAME:Unknown
;Generated with Cura_SteamEngine 5.8.0
M140 S60
M105
M190 S60
M104 S195
M105
M109 S195
M82 ;absolute extrusion mode
G28 ;Home
G1 Z15.0 F6000 ;Move the platform down 15mm
;Prime the extruder
G92 E0
G1 F200 E3
G92 E0
G92 E0
G92 E0
G1 F2400 E-6
;LAYER_COUNT:60
;LAYER:0
M107
M204 S3000
M205 X10 Y10
G1 F1200 Z0.275
G0 F6000 X111.252 Y123.531 Z0.275
M204 S300
M205 X8 Y8
;TYPE:SKIRT
G1 F1200 Z0.2
G1 F2400 E0
G1 X111.64 Y123.197 E0.02718
G1 X112.256 Y122.84 E0.06497
G1 X112.949 Y122.534 E0.10518
G1 X113.536 Y122.339 E0.13802
G1 X114.375 Y122.169 E0.18346
G1 X114.934 Y122.112 E0.21329
G1 X115.667 Y122.101 E0.2522
G1 X186.351 Y122.101 E4.00433
G1 X187.034 Y122.111 E4.04059
G1 X187.623 Y122.173 E4.07203
G1 X188.33 Y122.313 E4.11029
G1 X188.957 Y122.504 E4.14508
G1 X189.649 Y122.793 E4.18489
G1 X190.105 Y123.027 E4.2121
G1 X190.802 Y123.57 E4.259
G1 X191.294 Y124.129 E4.29853
G1 X191.576 Y124.575 E4.32654
G1 X191.985 Y125.43 E4.37685
G1 X192.183 Y126.136 E4.41577
G1 X192.325 Y126.845 E4.45416
G1 X192.389 Y127.438 E4.48582
G1 X192.399 Y128.084 E4.52011
G1 X192.399 Y173.849 E6.94947
G1 X192.389 Y174.546 E6.98647
G1 X192.325 Y175.143 E7.01834
G1 X192.181 Y175.862 E7.05727
G1 X191.962 Y176.592 E7.09772
G1 X191.603 Y177.374 E7.1434
G1 X191.339 Y177.812 E7.17055
G1 X190.894 Y178.342 E7.20728
G1 X190.371 Y178.796 E7.24405
G1 X189.754 Y179.156 E7.28197
G1 X189.134 Y179.432 E7.31799
G1 X188.516 Y179.636 E7.35254
G1 X187.743 Y179.809 E7.39459
G1 X187.076 Y179.888 E7.43024
G1 X186.284 Y179.899 E7.47229
G1 X115.649 Y179.9 E11.22182
G1 X114.964 Y179.89 E11.25818
G1 X114.411 Y179.834 E11.28769
G1 X113.649 Y179.689 E11.32886
G1 X112.876 Y179.451 E11.3718
G1 X112.102 Y179.091 E11.41711
G1 X111.666 Y178.824 E11.44425
G1 X111.133 Y178.368 E11.48148
G1 X110.679 Y177.838 E11.51853
G1 X110.415 Y177.409 E11.54527
G1 X110.058 Y176.646 E11.58998
G1 X109.831 Y175.928 E11.62996
G1 X109.667 Y175.108 E11.67435
G1 X109.612 Y174.559 E11.70364
G1 X109.601 Y173.779 E11.74504
G1 X109.598 Y162.51 E12.34324
G1 X109.61 Y161.726 E12.38486
G1 X109.726 Y160.551 E12.44754
G1 X109.955 Y157.843 E12.5918
G1 X110.111 Y155.093 E12.73801
G1 X110.188 Y152.347 E12.88384
G1 X110.188 Y149.633 E13.0279
G1 X110.109 Y146.885 E13.17384
G1 X109.954 Y144.139 E13.31984
G1 X109.722 Y141.423 E13.46453
G1 X109.614 Y140.305 E13.52416
G1 X109.6 Y139.563 E13.56355
G1 X109.599 Y128.152 E14.16928
G1 X109.609 Y127.475 E14.20523
G1 X109.672 Y126.883 E14.23683
G1 X109.825 Y126.114 E14.27845
G1 X110.045 Y125.385 E14.31887
G1 X110.414 Y124.596 E14.36511
G1 X110.682 Y124.16 E14.39227
G1 X111.252 Y123.531 E14.43733
M204 S3000
M205 X10 Y10
G1 F2400 E8.43733
;MESH:Case_1-Top Case.stl
G0 F6000 X114.033 Y127.659
G0 X115.031 Y128.08
G0 X120.311 Y144.72
G0 X123.119 Y168.621
G0 X122.509 Y168.87
G0 X122.061 Y169.709
G0 X123.563 Y173.689
G0 X124.305 Y174.316
G0 X126.351 Y173.944
G0 X126.385 Y173.944
M204 S300
M205 X8 Y8
;TYPE:WALL-INNER
G1 F2400 E14.43733
G1 F1875.9 X126.335 Y173.857 E14.445
G1 X126.235 Y173.857 E14.45264
G1 X126.185 Y173.944 E14.46031
G1 X126.235 Y174.031 E14.46797
G1 X126.335 Y174.031 E14.47561
G1 X126.385 Y173.944 E14.48328
M204 S3000
M205 X10 Y10
G0 F6000 X126.351 Y173.944
G0 X124.655 Y174.363
G0 X123.817 Y174.038
G0 X122.077 Y170.047
G0 X122.164 Y169.303
G0 X123.641 Y165.797
G0 X127.743 Y163.892
G0 X132.013 Y165.451
G0 X133.923 Y169.573
G0 X133.836 Y170.317
G0 X132.322 Y173.874
G0 X131.594 Y174.342
G0 X129.806 Y173.946
G0 X129.811 Y173.943
M204 S300
M205 X8 Y8
G1 F1871.3 X129.76 Y173.856 E14.491
G1 X129.659 Y173.856 E14.49874
G1 X129.609 Y173.943 E14.50643
G1 X129.66 Y174.03 E14.51415
G1 X129.761 Y174.03 E14.52189
G1 X129.811 Y173.943 E14.52957
M204 S3000
M205 X10 Y10
G0 F6000 X129.806 Y173.946
G0 X131.213 Y174.355
G0 X141.217 Y174.137
G0 X141.223 Y174.072
M204 S300
M205 X8 Y8
G1 F2852.8 X141.7 Y174.094 E14.55356
G1 F2964.7 X167.8 Y174.092 E15.81533
G1 F2836.8 X168.192 Y174.071 E15.83516
M204 S3000
M205 X10 Y10
G1 F2400 E9.83516
G1 F1200 Z0.275
G0 F6000 X174.061 Y171.98 Z0.275
M204 S300
M205 X8 Y8
G1 F1200 Z0.2
G1 F2400 E15.83516
G1 F1958.5 X180.325 Y171.98 E16.29356
M204 S3000
M205 X10 Y10
G0 F6000 X181.191 Y172.498
M204 S300
M205 X8 Y8
G1 F2700 X181.541 Y172.854 E16.32006
G1 X181.96 Y173.044 E16.34448
G1 X182.161 Y173.067 E16.35522
G1 X182.472 Y173.033 E16.37182
G1 X182.674 Y172.961 E16.38321
G1 X182.963 Y172.749 E16.40223
G1 X183.177 Y172.439 E16.42223
G1 X183.265 Y172.189 E16.4363
G1 X183.253 Y171.713 E16.46158
G1 X183.077 Y171.34 E16.48347
G1 X182.775 Y171.057 E16.50544
G1 X182.398 Y170.904 E16.52704
G1 X182.077 Y170.893 E16.54409
G1 X181.697 Y171.006 E16.56513
G1 X181.454 Y171.176 E16.58087
G1 X181.192 Y171.464 E16.60154
G1 X180.829 Y171.73 E16.62543
G1 F2270.3 X180.325 Y171.98 E16.66095
G1 X180.828 Y172.232 E16.69646
G1 F2700 X181.191 Y172.498 E16.72035
M204 S3000
M205 X10 Y10
G0 F6000 X173.615 Y171.312
G0 X173.23 Y170.287
G0 X173.266 Y169.524
G0 X173.642 Y168.647
G0 X181.851 Y167.906
G0 X182.631 Y167.905
G0 X183.799 Y168.184
G0 X184.861 Y168.808
G0 X185.542 Y169.517
G0 X185.969 Y170.222
G0 X186.285 Y171.164
G0 X186.364 Y171.941
G0 X186.07 Y173.64
G0 X186.021 Y173.614
M204 S300
M205 X8 Y8
G1 F2652.6 X185.798 Y174.045 E16.74657
G1 X186.329 Y174.039 E16.77526
G1 X186.429 Y173.998 E16.7811
G1 X186.559 Y173.801 E16.79386
G1 X186.559 Y173.499 E16.81017
G1 F2284 X186.467 Y172.698 E16.86077
G1 F2094.2 X186.433 Y172.588 E16.86865
G1 F2400 X186.021 Y173.614 E16.93468
M204 S3000
M205 X10 Y10
G0 F6000 X186.07 Y173.64
G0 X186.439 Y172.606
M204 S300
M205 X8 Y8
G1 F1921.2 X186.462 Y171.952 E16.9835
G1 F1892.4 X186.427 Y171.235 E17.03786
M204 S3000
M205 X10 Y10
G0 F6000 X185.969 Y170.222
G0 X185.542 Y169.517
G0 X184.861 Y168.808
G0 X184.2 Y168.372
G0 X183.069 Y167.966
G0 X173.386 Y168.334
M204 S300
M205 X8 Y8
G1 F2700 X173.676 Y168.178 E17.05534
G1 X174.023 Y168.08 E17.07448
G1 X179.734 Y168.08 E17.37764
G1 X180.668 Y167.602 E17.43334
G1 X181.805 Y167.345 E17.49522
G1 X182.572 Y167.344 E17.53593
G1 X183.172 Y167.411 E17.56798
G1 X184.016 Y167.661 E17.61471
G1 X184.555 Y167.936 E17.64683
G1 X185.222 Y168.373 E17.68915
G1 X186.004 Y169.182 E17.74888
G1 X186.004 Y157.639 E18.36162
G1 X185.789 Y157.908 E18.3799
G1 X185.212 Y158.468 E18.42258
G1 X184.939 Y158.675 E18.44077
G1 X184.105 Y159.159 E18.49196
G1 X183.33 Y159.401 E18.53506
G1 X182.7 Y159.515 E18.56904
G1 X181.61 Y159.491 E18.62692
G1 X180.875 Y159.315 E18.66703
G1 X180.19 Y159.033 E18.70636
G1 X179.766 Y158.78 E18.73257
G1 X174.016 Y158.78 E19.0378
G1 X173.659 Y158.675 E19.05755
G1 X173.36 Y158.507 E19.07575
G1 X173.082 Y158.234 E19.09644
G1 X172.875 Y157.856 E19.11931
G1 X172.717 Y157.395 E19.14518
G1 X172.679 Y157.156 E19.15803
G1 X172.7 Y156.439 E19.19611
G1 X172.796 Y156.09 E19.21532
G1 X172.967 Y155.701 E19.23788
G1 X173.254 Y155.34 E19.26236
G1 X173.616 Y155.103 E19.28533
G1 F2270.3 X174.061 Y154.88 E19.31675
G1 X173.616 Y154.657 E19.34817
G1 F2700 X173.254 Y154.42 E19.37114
G1 X172.967 Y154.059 E19.39562
G1 X172.759 Y153.572 E19.42373
G1 X172.7 Y153.299 E19.43856
G1 X172.676 Y152.693 E19.47075
G1 X172.72 Y152.352 E19.489
G1 X172.878 Y151.894 E19.51472
G1 X173.026 Y151.603 E19.53205
G1 X173.174 Y151.418 E19.54463
G1 X173.432 Y151.203 E19.56246
G1 X173.745 Y151.053 E19.58088
G1 X174.1 Y150.982 E19.6001
G1 X179.747 Y150.98 E19.89986
G1 X180.012 Y150.823 E19.91621
G1 X180.91 Y150.421 E19.96844
G1 X181.827 Y150.246 E20.01799
G1 X182.732 Y150.244 E20.06603
G1 X183.341 Y150.359 E20.09893
G1 X184.105 Y150.597 E20.14141
G1 X185.077 Y151.158 E20.20098
G1 X185.658 Y151.699 E20.24312
G1 X186.004 Y152.12 E20.27205
G1 X186.004 Y128.512 E21.52524
G1 X116.012 Y128.512 E25.24064
G1 X115.991 Y138.884 E25.79122
G1 X116.604 Y139.059 E25.82506
G1 X117.453 Y139.453 E25.87474
G1 X118.12 Y139.855 E25.91608
G1 X118.616 Y140.216 E25.94865
G1 X119.224 Y140.752 E25.99167
G1 X119.651 Y141.224 E26.02546
G1 X120.129 Y141.848 E26.06718
G1 X120.479 Y142.427 E26.1031
G1 X120.826 Y143.139 E26.14514
G1 X121.052 Y143.772 E26.18082
G1 X121.247 Y144.515 E26.2216
G1 X121.399 Y145.472 E26.27304
G1 X121.395 Y156.523 E26.85966
G1 X121.265 Y157.388 E26.90609
G1 X121.082 Y158.142 E26.94728
G1 X120.844 Y158.817 E26.98527
G1 X120.517 Y159.5 E27.02547
G1 X120.138 Y160.13 E27.06449
G1 X119.715 Y160.701 E27.10222
G1 X119.215 Y161.25 E27.14163
G1 X118.72 Y161.694 E27.17693
G1 X118.096 Y162.163 E27.21837
G1 X117.404 Y162.568 E27.26093
G1 X116.876 Y162.816 E27.2919
G1 X115.99 Y163.145 E27.34207
G1 X116.012 Y173.488 E27.89111
G1 X122.528 Y173.5 E28.237
G1 X122.496 Y173.017 E28.26269
G1 X122.605 Y172.478 E28.29188
G1 X122.896 Y171.928 E28.32491
G1 X122.641 Y171.856 E28.33898
G1 X122.106 Y171.634 E28.36973
G1 X121.674 Y171.266 E28.39985
G1 X121.394 Y170.866 E28.42577
G1 X121.147 Y170.271 E28.45997
G1 X121.1 Y169.755 E28.48747
G1 X121.144 Y169.402 E28.50635
G1 X121.343 Y168.782 E28.54092
G1 X121.805 Y168.222 E28.57946
G1 X122.151 Y167.969 E28.60221
G1 X122.869 Y167.67 E28.6435
G1 X122.584 Y167.107 E28.67699
G1 X122.488 Y166.489 E28.71019
G1 X122.591 Y165.802 E28.74707
G1 X122.775 Y165.38 E28.77151
G1 X122.906 Y165.183 E28.78406
G1 X123.37 Y164.718 E28.81894
G1 X123.657 Y164.542 E28.83681
G1 X124.115 Y164.364 E28.86289
G1 X124.44 Y164.316 E28.88033
G1 X125.162 Y164.363 E28.91874
G1 X125.508 Y164.486 E28.93823
G1 X125.867 Y164.693 E28.96023
G1 X126.07 Y164.111 E28.99295
G1 X126.412 Y163.608 E29.02524
G1 X126.812 Y163.267 E29.05314
G1 X127.065 Y163.123 E29.06859
G1 X127.475 Y162.974 E29.09175
G1 X128.209 Y162.922 E29.13081
G1 X128.46 Y162.959 E29.14428
G1 X129.079 Y163.207 E29.17967
G1 X129.484 Y163.522 E29.20691
G1 X129.813 Y163.911 E29.23395
G1 X129.985 Y164.256 E29.25442
G1 X130.118 Y164.688 E29.27841
G1 X130.716 Y164.399 E29.31367
G1 X131.418 Y164.3 E29.3513
G1 X131.997 Y164.396 E29.38245
G1 X132.632 Y164.703 E29.4199
G1 X133.125 Y165.227 E29.45809
G1 X133.333 Y165.647 E29.48297
G1 X133.497 Y166.25 E29.51614
G1 X133.507 Y166.508 E29.52984
G1 X133.425 Y167.028 E29.55779
G1 X133.132 Y167.667 E29.5951
G1 X133.851 Y167.972 E29.63656
G1 X134.122 Y168.157 E29.65398
G1 X134.469 Y168.522 E29.68071
G1 X134.759 Y169.086 E29.71438
G1 X134.848 Y169.342 E29.72877
G1 X134.896 Y169.868 E29.7568
G1 X134.876 Y170.11 E29.76969
G1 X134.684 Y170.743 E29.80481
G1 X134.297 Y171.28 E29.83994
G1 X133.88 Y171.647 E29.86943
G1 X133.111 Y171.944 E29.91319
G1 X133.394 Y172.483 E29.94551
G1 X133.501 Y173.02 E29.97457
G1 X133.47 Y173.507 E30.00048
G1 X139.138 Y173.508 E30.30135
G1 X138.712 Y172.901 E30.34072
G1 X138.572 Y172.622 E30.35729
G1 X138.366 Y171.971 E30.39353
G1 X138.298 Y171.475 E30.42011
G1 X138.3 Y158.077 E31.13132
G1 X138.426 Y157.315 E31.17232
G1 X138.685 Y156.682 E31.20862
G1 X139.083 Y156.093 E31.24636
G1 X139.776 Y155.463 E31.29607
G1 X140.376 Y155.143 E31.33217
G1 X140.965 Y154.956 E31.36497
G1 X141.5 Y154.882 E31.39364
G1 X167.867 Y154.882 E32.79329
G1 X168.446 Y154.959 E32.82429
G1 X169.245 Y155.247 E32.86938
G1 X169.849 Y155.634 E32.90746
G1 X170.357 Y156.164 E32.94643
G1 X170.796 Y156.877 E32.99087
G1 X170.995 Y157.471 E33.02413
G1 X171.092 Y158.168 E33.06148
G1 X171.088 Y171.49 E33.76866
G1 X170.964 Y172.207 E33.80728
G1 X170.753 Y172.75 E33.83821
G1 X170.418 Y173.308 E33.87276
G1 X170.255 Y173.507 E33.88641
G1 X172.727 Y173.507 E34.01763
G1 X172.97 Y172.796 E34.05752
G1 X173.192 Y172.499 E34.0772
G1 X173.405 Y172.321 E34.09194
G1 F2270.3 X174.061 Y171.98 E34.13861
G1 X173.405 Y171.639 E34.18529
G1 F2700 X173.192 Y171.461 E34.20002
G1 X173.005 Y171.225 E34.216
G1 X172.896 Y171.012 E34.22871
G1 X172.669 Y170.316 E34.26757
G1 X172.697 Y169.649 E34.303
G1 X172.802 Y169.176 E34.32872
G1 X173.111 Y168.589 E34.36394
G1 X173.386 Y168.334 E34.38385
M204 S3000
M205 X10 Y10
G0 F6000 X173.23 Y157.187
G0 X173.266 Y156.424
G0 X173.57 Y155.714
G0 X174.061 Y154.88
M204 S300
M205 X8 Y8
G1 F1973.9 X180.192 Y154.88 E34.82902
M204 S3000
M205 X10 Y10
G0 F6000 X181.196 Y155.403
M204 S300
M205 X8 Y8
G1 F2700 X181.502 Y155.72 E34.85241
G1 X181.735 Y155.865 E34.86697
G1 X181.999 Y155.947 E34.88165
G1 X182.274 Y155.963 E34.89627
G1 X182.55 Y155.909 E34.9112
G1 X182.859 Y155.748 E34.9297
G1 X183.042 Y155.571 E34.94321
G1 X183.187 Y155.333 E34.958
G1 X183.268 Y155.049 E34.97368
G1 X183.276 Y154.75 E34.98956
G1 X183.125 Y154.312 E35.01415
G1 X182.945 Y154.087 E35.02945
G1 X182.668 Y153.893 E35.0474
G1 X182.402 Y153.811 E35.06218
G1 X182.046 Y153.802 E35.08108
G1 X181.758 Y153.877 E35.09688
G1 X181.539 Y154.003 E35.11029
G1 X181.196 Y154.357 E35.13645
G1 X180.832 Y154.625 E35.16045
G1 F2290.9 X180.192 Y154.88 E35.20355
G1 X180.832 Y155.135 E35.24665
G1 F2700 X181.196 Y155.403 E35.27065
M204 S3000
M205 X10 Y10
G0 F6000 X173.642 Y155.547
G0 X173.266 Y156.424
G0 X173.23 Y170.287
G0 X173.46 Y172.847
G0 X173.592 Y172.891
M204 S300
M205 X8 Y8
G1 F2700 X173.922 Y172.684 E35.29132
G1 X174.118 Y172.643 E35.30195
G1 X180.267 Y172.643 E35.62836
G1 X180.574 Y172.731 E35.64531
G1 X180.792 Y172.891 E35.65967
G1 X181.184 Y173.29 E35.68936
G1 X181.409 Y173.437 E35.70363
G1 X181.829 Y173.593 E35.72741
G1 X182.159 Y173.631 E35.74504
G1 X182.598 Y173.583 E35.76849
G1 X182.916 Y173.469 E35.78642
G1 X183.167 Y173.317 E35.802
G1 X183.386 Y173.123 E35.81753
G1 X183.68 Y172.695 E35.84509
G1 X183.815 Y172.313 E35.8666
G1 X183.847 Y172.011 E35.88272
G1 X183.803 Y171.59 E35.90519
G1 X183.698 Y171.291 E35.92201
G1 X183.533 Y171.009 E35.93935
G1 X183.314 Y170.764 E35.9568
G1 X183.065 Y170.573 E35.97345
G1 X182.666 Y170.391 E35.99673
G1 X182.472 Y170.346 E36.00731
G1 X182.032 Y170.331 E36.03068
G1 X181.73 Y170.39 E36.04701
G1 X181.43 Y170.509 E36.06414
G1 X181.081 Y170.754 E36.08678
G1 X180.794 Y171.071 E36.10948
G1 X180.576 Y171.23 E36.1238
G1 X180.268 Y171.317 E36.14079
G1 X174.118 Y171.317 E36.46725
G1 X173.922 Y171.276 E36.47788
G1 X173.719 Y171.175 E36.48992
G1 X173.515 Y170.978 E36.50497
G1 X173.414 Y170.8 E36.51583
G1 X173.248 Y170.301 E36.54375
G1 X173.256 Y169.674 E36.57704
G1 X173.319 Y169.39 E36.59248
G1 X173.543 Y168.945 E36.61892
G1 X173.708 Y168.792 E36.63087
G1 X174.089 Y168.64 E36.65264
G1 X179.912 Y168.64 E36.96175
G1 X180.064 Y168.54 E36.9714
G1 X180.863 Y168.131 E37.01905
G1 X181.861 Y167.904 E37.07338
G1 X182.688 Y167.911 E37.11728
G1 X183.127 Y167.982 E37.14089
G1 X183.806 Y168.183 E37.17848
G1 X184.248 Y168.404 E37.20471
G1 X184.859 Y168.804 E37.24348
G1 X185.543 Y169.512 E37.29573
G1 X185.923 Y170.141 E37.33474
G1 F2427 X186.314 Y171.051 E37.39324
G1 F1989.5 X186.427 Y171.235 E37.40879
G1 X186.501 Y171.021 E37.4251
G1 F2427 X186.564 Y170.221 E37.47249
G1 F2700 X186.564 Y156.752 E38.18747
G1 F2351.5 X186.481 Y155.94 E38.23722
G1 F1909.1 X186.415 Y155.766 E38.25119
G1 X186.309 Y155.91 E38.26462
G1 F2351.5 X185.869 Y156.817 E38.32606
G1 F2700 X185.467 Y157.44 E38.36542
G1 X184.746 Y158.14 E38.41876
G1 X183.881 Y158.642 E38.47185
G1 X183.163 Y158.866 E38.51178
G1 X182.655 Y158.954 E38.53914
G1 X181.686 Y158.933 E38.59059
G1 X181.054 Y158.784 E38.62506
G1 X180.405 Y158.516 E38.66234
G1 X179.938 Y158.22 E38.69169
G1 X174.085 Y158.22 E39.00238
G1 X173.693 Y158.056 E39.02494
G1 X173.526 Y157.893 E39.03733
G1 X173.401 Y157.664 E39.05117
G1 X173.233 Y157.081 E39.08338
G1 X173.265 Y156.482 E39.11522
G1 X173.457 Y155.972 E39.14415
G1 X173.629 Y155.756 E39.15881
G1 X173.846 Y155.614 E39.17257
G1 X174.118 Y155.543 E39.1875
G1 X180.192 Y155.54 E39.50992
G1 X180.576 Y155.633 E39.5309
G1 X180.795 Y155.793 E39.54529
G1 X181.148 Y156.16 E39.57232
G1 X181.5 Y156.378 E39.5943
G1 X181.897 Y156.502 E39.61638
G1 X182.313 Y156.526 E39.6385
G1 X182.72 Y156.446 E39.66052
G1 X183.213 Y156.184 E39.69015
G1 X183.466 Y155.939 E39.70885
G1 X183.71 Y155.539 E39.73372
G1 X183.826 Y155.135 E39.75603
G1 X183.837 Y154.701 E39.77908
G1 X183.778 Y154.404 E39.79515
G1 X183.607 Y154.019 E39.81752
G1 X183.345 Y153.689 E39.83988
G1 X182.887 Y153.374 E39.86939
G1 X182.494 Y153.253 E39.89122
G1 X181.981 Y153.24 E39.91846
G1 X181.564 Y153.349 E39.94134
G1 X181.176 Y153.573 E39.96512
