;FLAVOR:Marlin
;TIME:6057
;Filament used: 7.05119m
;Layer height: 0.2
;MINX:106.2
;MINY:82.963
;MINZ:0.2
;MAXX:196.664
;MAXY:183.3
;MAXZ:20
;TARGET_MACHINE.NAME:Unknown
;Generated with Cura_SteamEngine 5.8.0
M140 S60
M105
M190 S60
M104 S195
M105
M109 S195
M82 ;absolute extrusion mode
G28 ;Home
G1 Z15.0 F6000 ;Move the platform down 15mm
;Prime the extruder
G92 E0
G1 F200 E3
G92 E0
G92 E0
G92 E0
G1 F2400 E-6
;LAYER_COUNT:100
;LAYER:0
M107
M204 S3000
M205 X10 Y10
G1 F1200 Z0.275
G0 F6000 X120.363 Y87.241 Z0.275
M204 S300
M205 X8 Y8
;TYPE:SKIRT
G1 F1200 Z0.2
G1 F2400 E0
G1 X120.783 Y86.689 E0.03682
G1 X121.217 Y86.272 E0.06877
G1 X121.899 Y85.777 E0.1135
G1 X122.521 Y85.486 E0.14995
G1 X123.119 Y85.307 E0.18309
G1 X123.622 Y85.212 E0.21026
G1 X124.133 Y85.196 E0.2374
G1 X124.641 Y85.259 E0.26457
G1 X125.677 Y85.472 E0.32072
G1 X126.58 Y85.67 E0.36979
G1 X129.265 Y86.181 E0.51488
G1 X131.943 Y86.613 E0.65887
G1 X134.699 Y86.977 E0.80644
G1 X137.373 Y87.255 E0.94915
G1 X140.141 Y87.462 E1.09649
G1 X142.854 Y87.589 E1.24067
G1 X145.566 Y87.639 E1.38465
G1 X148.315 Y87.612 E1.53059
G1 X151.062 Y87.507 E1.67651
G1 X153.802 Y87.324 E1.82228
G1 X156.508 Y87.067 E1.96657
G1 X159.205 Y86.733 E2.11083
G1 X161.952 Y86.315 E2.25833
G1 X164.626 Y85.829 E2.4026
G1 X167.296 Y85.266 E2.54745
G1 X169.917 Y84.636 E2.69054
G1 X172.613 Y83.906 E2.83881
G1 X175.107 Y83.156 E2.97705
G1 X175.919 Y82.987 E3.02108
G1 X177.009 Y82.963 E3.07896
G1 X177.855 Y83.111 E3.12455
G1 X178.437 Y83.272 E3.1566
G1 X179.098 Y83.535 E3.19436
G1 X179.895 Y83.999 E3.24332
G1 X180.629 Y84.588 E3.29328
G1 X181.257 Y85.304 E3.34383
G1 X181.691 Y86.024 E3.38846
G1 X181.883 Y86.43 E3.4123
G1 X182.186 Y87.26 E3.4592
G1 X182.341 Y88.215 E3.51056
G1 X182.506 Y90.634 E3.63927
G1 X182.765 Y93.401 E3.78679
G1 X183.101 Y96.137 E3.93312
G1 X183.507 Y98.822 E4.07726
G1 X183.992 Y101.519 E4.22273
G1 X184.551 Y104.187 E4.36743
G1 X185.184 Y106.834 E4.5119
G1 X185.895 Y109.475 E4.65708
G1 X186.69 Y112.122 E4.8038
G1 X187.552 Y114.727 E4.94945
G1 X188.474 Y117.266 E5.09284
G1 X189.49 Y119.838 E5.23964
G1 X190.957 Y123.216 E5.43513
G1 X191.924 Y125.348 E5.5594
G1 X192.14 Y125.996 E5.59566
G1 X192.31 Y126.766 E5.63752
G1 X192.387 Y127.422 E5.67258
G1 X192.4 Y128.261 E5.71712
G1 X192.4 Y173.852 E8.13724
G1 X192.39 Y174.533 E8.17339
G1 X192.328 Y175.118 E8.20462
G1 X192.184 Y175.85 E8.24422
G1 X191.961 Y176.597 E8.2856
G1 X191.585 Y177.406 E8.33296
G1 X191.317 Y177.842 E8.36013
G1 X190.85 Y178.383 E8.39806
G1 X190.314 Y178.836 E8.43532
G1 X189.923 Y179.076 E8.45967
G1 X189.215 Y179.414 E8.50132
G1 X188.471 Y179.658 E8.54288
G1 X187.634 Y179.831 E8.58825
G1 X187.079 Y179.887 E8.61786
G1 X186.239 Y179.9 E8.66246
G1 X115.648 Y179.9 E12.40965
G1 X114.967 Y179.89 E12.4458
G1 X114.413 Y179.834 E12.47536
G1 X113.645 Y179.689 E12.51685
G1 X112.897 Y179.458 E12.55841
G1 X112.118 Y179.099 E12.60394
G1 X111.681 Y178.833 E12.63109
G1 X111.036 Y178.252 E12.67718
G1 X110.699 Y177.866 E12.70438
G1 X110.425 Y177.428 E12.7318
G1 X110.07 Y176.676 E12.77594
G1 X109.81 Y175.832 E12.82282
G1 X109.673 Y175.136 E12.86048
G1 X109.611 Y174.552 E12.89165
G1 X109.601 Y173.833 E12.92982
G1 X109.6 Y128.111 E15.35689
G1 X109.611 Y127.439 E15.39257
G1 X109.676 Y126.842 E15.42445
G1 X109.872 Y125.876 E15.47677
G1 X110.189 Y125.034 E15.52453
G1 X110.875 Y123.574 E15.61016
G1 X112.015 Y121.018 E15.75872
G1 X113.06 Y118.486 E15.90413
G1 X114.026 Y115.945 E16.04843
G1 X114.926 Y113.355 E16.19398
G1 X115.748 Y110.761 E16.33843
G1 X116.502 Y108.121 E16.48417
G1 X117.176 Y105.485 E16.6286
G1 X117.788 Y102.768 E16.77644
G1 X118.308 Y100.11 E16.92021
G1 X118.757 Y97.42 E17.06498
G1 X119.128 Y94.734 E17.20891
G1 X119.426 Y91.999 E17.35495
G1 X119.52 Y90.761 E17.42086
G1 X119.55 Y90.569 E17.43118
G1 X119.657 Y89.302 E17.49867
G1 X119.789 Y88.543 E17.53957
G1 X120.032 Y87.852 E17.57845
G1 X120.363 Y87.241 E17.61534
M204 S3000
M205 X10 Y10
G1 F2400 E11.61534
;MESH:Case_1-Clip.stl
G0 F6000 X123.345 Y87.66
G0 X152.33 Y93.298
G0 X152.413 Y94.378
G0 X165.084 Y93.263
G0 X167.802 Y92.304
G0 X168.829 Y92.481
G0 X172.078 Y96.762
M204 S300
M205 X8 Y8
;TYPE:WALL-INNER
G1 F2400 E17.61534
G1 F2700 X172.433 Y96.492 E17.63901
G1 X172.784 Y96.362 E17.65888
G1 X173.092 Y96.328 E17.67533
G1 X177.691 Y96.328 E17.91946
G1 X177.688 Y88.702 E18.32427
G1 X177.607 Y88.322 E18.3449
G1 X177.495 Y88.117 E18.3573
G1 X177.19 Y87.81 E18.38027
G1 X176.795 Y87.654 E18.40281
G1 X176.367 Y87.66 E18.42553
G1 X176.088 Y87.76 E18.44127
G1 X175.733 Y87.98 E18.46344
G1 X173.417 Y89.268 E18.60411
G1 X170.933 Y90.493 E18.75113
G1 X168.748 Y91.436 E18.87746
G1 X169.052 Y91.54 E18.89451
G1 X169.548 Y91.836 E18.92518
G1 X169.872 Y92.136 E18.94862
G1 X170.17 Y92.532 E18.97492
G1 X170.43 Y93.205 E19.01322
G1 X170.488 Y93.675 E19.03836
G1 X170.492 Y100.328 E19.39152
G1 X171.847 Y100.328 E19.46345
G1 X171.799 Y100.267 E19.46757
G1 X171.692 Y99.728 E19.49674
G1 X171.692 Y97.728 E19.60291
G1 X171.799 Y97.189 E19.63208
G1 X172.078 Y96.762 E19.65915
M204 S3000
M205 X10 Y10
G0 F6000 X172.483 Y97.148
M204 S300
M205 X8 Y8
G1 F2700 X172.696 Y96.986 E19.67336
G1 X172.961 Y96.888 E19.68836
G1 X178.251 Y96.888 E19.96917
G1 X178.248 Y88.66 E20.40594
G1 X178.196 Y88.318 E20.4243
G1 X177.961 Y87.802 E20.4544
G1 X177.742 Y87.537 E20.47265
G1 X177.498 Y87.339 E20.48933
G1 X177.201 Y87.186 E20.50706
G1 X176.894 Y87.1 E20.52398
G1 X176.561 Y87.072 E20.54172
G1 X176.238 Y87.111 E20.55899
G1 X175.842 Y87.253 E20.58133
G1 X175.461 Y87.49 E20.60514
G1 X173.108 Y88.798 E20.74805
G1 X170.682 Y89.992 E20.89158
G1 X168.179 Y91.072 E21.03629
G1 F2629.6 X167.394 Y91.38 E21.08225
G1 F2597.9 X165.663 Y92.019 E21.18405
G1 F2606.9 X164.776 Y92.308 E21.23534
G1 F2597.9 X163.107 Y92.828 E21.33178
G1 X162.283 Y93.053 E21.3789
G1 X160.451 Y93.53 E21.48334
G1 X159.754 Y93.683 E21.52271
G1 X157.836 Y94.08 E21.63076
G1 F2606.9 X157.152 Y94.195 E21.6689
G1 F2597.9 X155.129 Y94.511 E21.78186
G1 F2625 X152.465 Y94.804 E21.92819
G1 F2620.5 X149.777 Y94.96 E22.07546
G1 F2611.4 X147.049 Y94.982 E22.22518
G1 F2606.9 X144.33 Y94.871 E22.3748
G1 X141.631 Y94.622 E22.52382
G1 X138.955 Y94.239 E22.67244
G1 X136.342 Y93.735 E22.81875
G1 F2615.9 X133.713 Y93.089 E22.96707
G1 X131.136 Y92.318 E23.11445
G1 F2620.5 X128.58 Y91.412 E23.26277
G1 F2606.9 X126.601 Y90.605 E23.38027
G1 X126.039 Y90.367 E23.41383
G1 X123.932 Y89.381 E23.54172
G1 F2580.2 X123.81 Y89.527 E23.55229
G1 X123.768 Y89.69 E23.56164
G1 X123.85 Y89.933 E23.57589
G1 X124.048 Y90.083 E23.58969
G1 X126.381 Y91.146 E23.7321
G1 F2584.6 X128.824 Y92.123 E23.878
G1 F2589 X131.27 Y92.97 E24.0213
G1 F2593.5 X133.823 Y93.718 E24.16831
G1 F2597.9 X136.347 Y94.329 E24.31158
G1 X139.043 Y94.844 E24.46301
G1 X141.581 Y95.199 E24.60439
G1 F2606.9 X144.202 Y95.443 E24.74911
G1 F2593.5 X146.816 Y95.56 E24.89371
G1 F2584.6 X149.454 Y95.551 E25.04
G1 F2589 X152.085 Y95.414 E25.18584
G1 F2584.6 X154.701 Y95.152 E25.33163
G1 F2575.8 X157.253 Y94.773 E25.47519
G1 F2597.9 X157.961 Y94.641 E25.51492
G1 X159.885 Y94.257 E25.62316
G1 X160.635 Y94.076 E25.66573
G1 X162.44 Y93.618 E25.76846
G1 X163.27 Y93.378 E25.81613
G1 X164.961 Y92.865 E25.91361
G1 F2606.9 X165.899 Y92.542 E25.96816
G1 F2602.4 X167.595 Y91.934 E26.06738
G1 F2629.6 X168.294 Y91.898 E26.10553
G1 F2700 X168.87 Y92.069 E26.13743
G1 X169.167 Y92.247 E26.15581
G1 X169.491 Y92.547 E26.17925
G1 X169.67 Y92.784 E26.19501
G1 X169.878 Y93.296 E26.22435
G1 X169.928 Y93.675 E26.24464
G1 X169.932 Y100.888 E26.62753
G1 X172.425 Y100.888 E26.75987
G1 F2100 X173.092 Y100.728 E26.80668
G1 X172.587 Y100.401 E26.84774
G1 F2700 X172.316 Y100.052 E26.8712
G1 X172.252 Y99.728 E26.88873
G1 X172.252 Y97.728 E26.99489
G1 X172.316 Y97.404 E27.01243
G1 X172.483 Y97.148 E27.02865
M204 S3000
M205 X10 Y10
G0 F6000 X172.193 Y97.148
G0 X172.265 Y100.556
G0 X173.092 Y100.728
M204 S300
M205 X8 Y8
G1 F1718.2 X178.092 Y100.728 E27.44573
M204 S3000
M205 X10 Y10
G0 F6000 X172.923 Y100.628
G0 X172.923 Y99.953
M204 S300
M205 X8 Y8
;TYPE:WALL-OUTER
G1 F2700 X172.812 Y99.809 E27.45538
G1 X172.812 Y97.652 E27.56988
G1 X172.889 Y97.534 E27.57736
G1 X173.03 Y97.454 E27.58597
G1 X178.811 Y97.448 E27.89284
G1 X178.808 Y88.618 E28.36157
G1 X178.742 Y88.186 E28.38477
G1 X178.638 Y87.873 E28.40227
G1 X178.427 Y87.486 E28.42567
G1 X178.138 Y87.137 E28.44973
G1 X177.806 Y86.868 E28.47241
G1 X177.408 Y86.662 E28.4962
G1 X176.994 Y86.546 E28.51902
G1 X176.55 Y86.51 E28.54267
G1 X176.109 Y86.563 E28.56625
G1 X175.596 Y86.746 E28.59516
G1 X175.189 Y87.001 E28.62065
G1 X172.86 Y88.296 E28.76211
G1 X170.46 Y89.478 E28.90412
G1 X167.983 Y90.547 E29.04733
G1 X165.493 Y91.479 E29.18846
G1 X162.936 Y92.287 E29.33081
G1 X160.334 Y92.975 E29.47368
G1 X157.717 Y93.525 E29.61564
G1 X155.067 Y93.947 E29.75808
G1 X152.397 Y94.24 E29.90066
G1 X149.731 Y94.392 E30.04241
G1 X147.072 Y94.412 E30.18356
G1 X144.382 Y94.303 E30.32647
G1 X141.712 Y94.058 E30.4688
G1 X139.062 Y93.679 E30.6109
G1 X136.437 Y93.172 E30.75282
G1 X133.835 Y92.533 E30.89505
G1 X131.299 Y91.773 E31.03558
G1 X128.757 Y90.872 E31.17875
G1 X126.293 Y89.86 E31.32014
G1 X123.953 Y88.758 E31.45744
G1 X123.792 Y88.802 E31.4663
G1 X123.443 Y89.041 E31.48876
G1 X123.28 Y89.291 E31.5046
G1 X123.191 Y89.63 E31.52321
G1 X123.202 Y89.86 E31.53543
G1 X123.27 Y90.087 E31.54801
G1 X123.422 Y90.327 E31.56309
G1 X123.753 Y90.578 E31.58514
G1 X126.151 Y91.67 E31.72501
G1 X128.618 Y92.657 E31.86606
G1 X131.09 Y93.513 E32.00492
G1 X133.669 Y94.269 E32.14759
G1 X136.24 Y94.889 E32.28798
G1 X138.942 Y95.407 E32.43402
G1 X141.528 Y95.767 E32.57261
G1 X144.176 Y96.013 E32.71378
G1 X146.818 Y96.132 E32.85417
G1 X149.483 Y96.123 E32.99564
G1 X152.141 Y95.983 E33.13693
G1 X154.785 Y95.719 E33.27798
G1 X157.363 Y95.336 E33.41633
G1 X160.023 Y94.814 E33.56022
G1 X162.586 Y94.174 E33.70045
G1 X165.133 Y93.413 E33.84156
G1 X167.786 Y92.476 E33.99092
G1 X168.248 Y92.456 E34.01547
G1 X168.787 Y92.658 E34.04602
G1 X169.17 Y93.037 E34.07462
G1 X169.325 Y93.386 E34.09489
G1 X169.365 Y93.63 E34.10802
G1 X169.372 Y101.448 E34.52302
G1 X178.812 Y101.448 E35.02413
G1 X178.812 Y100.008 E35.10057
G1 X173.092 Y100.008 E35.4042
G1 X172.923 Y99.953 E35.41364
M204 S3000
M205 X10 Y10
G0 F6000 X172.812 Y99.809
G0 X172.812 Y99.791
G0 X172.193 Y99.791
G0 X171.678 Y96.387
M204 S300
M205 X8 Y8
;TYPE:SKIN
G1 F2486.8 X171.306 Y96.963 E35.45316
G1 F2304.9 X171.095 Y97.665 E35.49874
G1 F2423.1 X171.03 Y97.008 E35.53779
G1 F2700 X171.026 Y93.632 E35.717
G1 X170.962 Y93.128 E35.74397
G1 X170.812 Y92.625 E35.77183
G1 X170.652 Y92.289 E35.79159
G1 X170.235 Y91.738 E35.82827
G1 X169.97 Y91.494 E35.84739
G1 X171.151 Y90.986 E35.91563
G1 X173.596 Y89.784 E36.06026
G1 X175.976 Y88.461 E36.2048
G1 X176.312 Y88.253 E36.22578
G1 X176.588 Y88.183 E36.24089
G1 X176.877 Y88.257 E36.25673
G1 X177.043 Y88.425 E36.26927
G1 X177.148 Y88.644 E36.28216
G1 X177.148 Y95.788 E36.66139
G1 X173.057 Y95.789 E36.87855
G1 X172.697 Y95.829 E36.89778
G1 X172.175 Y96.009 E36.92709
G1 F2625 X171.678 Y96.387 E36.96118
M204 S3000
M205 X10 Y10
G0 F6000 X171.095 Y97.665
M204 S300
M205 X8 Y8
G1 F2210.5 X171.092 Y99.728 E37.09494
M204 S3000
M205 X10 Y10
G0 F6000 X171.471 Y96.235
M204 S300
M205 X8 Y8
G1 F2700 X171.309 Y96.072 E37.10714
M204 S3000
M205 X10 Y10
G0 F6000 X171.896 Y95.868
M204 S300
M205 X8 Y8
G1 F2700 X171.307 Y95.279 E37.15136
M204 S3000
M205 X10 Y10
G0 F6000 X171.305 Y94.485
M204 S300
M205 X8 Y8
G1 F2700 X172.44 Y95.62 E37.23656
M204 S3000
M205 X10 Y10
G0 F6000 X173.122 Y95.51
M204 S300
M205 X8 Y8
G1 F2700 X171.304 Y93.692 E37.37304
M204 S3000
M205 X10 Y10
G0 F6000 X171.139 Y92.735
M204 S300
M205 X8 Y8
G1 F2700 X173.914 Y95.51 E37.58136
M204 S3000
M205 X10 Y10
G0 F6000 X174.706 Y95.51
M204 S300
M205 X8 Y8
G1 F2700 X170.686 Y91.49 E37.88315
M204 S3000
M205 X10 Y10
G0 F6000 X171.241 Y91.253
M204 S300
M205 X8 Y8
G1 F2700 X175.497 Y95.509 E38.20265
M204 S3000
M205 X10 Y10
G0 F6000 X176.288 Y95.508
M204 S300
M205 X8 Y8
G1 F2700 X171.773 Y90.993 E38.54159
M204 S3000
M205 X10 Y10
G0 F6000 X172.304 Y90.732
M204 S300
M205 X8 Y8
G1 F2700 X176.868 Y95.296 E38.88422
M204 S3000
M205 X10 Y10
G0 F6000 X176.868 Y94.504
M204 S300
M205 X8 Y8
G1 F2700 X172.835 Y90.471 E39.18698
M204 S3000
M205 X10 Y10
G0 F6000 X173.366 Y90.21
M204 S300
M205 X8 Y8
G1 F2700 X176.868 Y93.712 E39.44988
M204 S3000
M205 X10 Y10
G0 F6000 X176.868 Y92.92
M204 S300
M205 X8 Y8
G1 F2700 X173.89 Y89.942 E39.67344
M204 S3000
M205 X10 Y10
G0 F6000 X174.399 Y89.659
M204 S300
M205 X8 Y8
G1 F2700 X176.868 Y92.128 E39.85879
M204 S3000
M205 X10 Y10
G0 F6000 X176.868 Y91.336
M204 S300
M205 X8 Y8
G1 F2700 X174.908 Y89.376 E40.00593
M204 S3000
M205 X10 Y10
G0 F6000 X175.417 Y89.093
M204 S300
M205 X8 Y8
G1 F2700 X176.868 Y90.544 E40.11486
M204 S3000
M205 X10 Y10
G0 F6000 X176.868 Y89.752
M204 S300
M205 X8 Y8
G1 F2700 X175.926 Y88.81 E40.18557
M204 S3000
M205 X10 Y10
G0 F6000 X176.422 Y88.515
M204 S300
M205 X8 Y8
G1 F2700 X176.868 Y88.96 E40.21902
M204 S3000
M205 X10 Y10
G1 F2400 E34.21902
G1 F1200 Z0.275
;MESH:Case_1-Bottom Case.stl
G0 F6000 X176.868 Y88.96 Z0.275
G0 X167.52 Y162.816
M204 S300
M205 X8 Y8
;TYPE:WALL-INNER
G1 F1200 Z0.2
G1 F2400 E40.21902
G1 F2700 X167.241 Y162.678 E40.23554
G1 X167.014 Y162.495 E40.25102
G1 X166.776 Y162.181 E40.27193
G1 X166.68 Y161.969 E40.28429
G1 X166.602 Y161.585 E40.30509
G1 X166.602 Y140.415 E41.42886
G1 X166.68 Y140.031 E41.44966
G1 X166.921 Y139.607 E41.47555
G1 X167.121 Y139.409 E41.49049
G1 X167.375 Y139.246 E41.50651
G1 X167.885 Y139.1 E41.53467
G1 X179.118 Y139.1 E42.13095
G1 X179.5 Y139.191 E42.1518
G1 X179.855 Y139.39 E42.1734
G1 X180.176 Y139.739 E42.19857
G1 X180.4 Y140.29 E42.23014
G1 X180.4 Y161.673 E43.36522
G1 X180.296 Y162.03 E43.38496
G1 X180.026 Y162.454 E43.41164
G1 X179.678 Y162.726 E43.43509
G1 X179.33 Y162.861 E43.4549
G1 X179 Y162.9 E43.47254
G1 X167.885 Y162.9 E44.06256
G1 X167.52 Y162.816 E44.08244
M204 S3000
M205 X10 Y10
G0 F6000 X179.407 Y162.4
G0 X179.407 Y162.236
M204 S300
M205 X8 Y8
G1 F2700 X179.138 Y162.34 E44.09775
G1 X167.901 Y162.335 E44.69425
G1 X167.712 Y162.29 E44.70456
G1 X167.408 Y162.097 E44.72368
G1 X167.208 Y161.782 E44.74348
G1 X167.161 Y161.551 E44.756
G1 X167.161 Y140.449 E45.87616
G1 X167.208 Y140.218 E45.88867
G1 X167.352 Y139.964 E45.90417
G1 X167.625 Y139.748 E45.92265
G1 X167.901 Y139.665 E45.93795
G1 X179.1 Y139.665 E46.53243
G1 X179.3 Y139.715 E46.54337
G1 X179.513 Y139.834 E46.55632
G1 X179.706 Y140.043 E46.57142
G1 X179.84 Y140.373 E46.59033
G1 X179.84 Y161.615 E47.71792
G1 X179.778 Y161.818 E47.72919
G1 X179.616 Y162.073 E47.74523
G1 X179.407 Y162.236 E47.7593
M204 S3000
M205 X10 Y10
G0 F6000 X179.407 Y162.4
G0 X185.988 Y173.488
M204 S300
M205 X8 Y8
G1 F2700 X185.988 Y128.508 E50.14698
G1 X115.992 Y128.511 E53.86259
G1 X115.992 Y173.488 E56.25011
G1 X185.988 Y173.488 E59.96572
M204 S3000
M205 X10 Y10
G0 F6000 X186.335 Y174.048
M204 S300
M205 X8 Y8
G1 F2700 X186.427 Y174.008 E59.97104
G1 X186.548 Y173.799 E59.98386
G1 X186.548 Y128.164 E62.40632
G1 X186.509 Y128.073 E62.41157
G1 X186.297 Y127.948 E62.42463
G1 X115.666 Y127.952 E66.17395
G1 X115.561 Y127.996 E66.18
G1 X115.432 Y128.192 E66.19245
G1 X115.433 Y173.799 E68.61342
G1 X115.487 Y173.924 E68.62064
G1 X115.696 Y174.048 E68.63354
G1 X186.335 Y174.048 E72.38329
M204 S3000
M205 X10 Y10
G0 F6000 X186.336 Y173.988
G0 X179.9 Y161.691
G0 X179.206 Y161.691
M204 S300
M205 X8 Y8
;TYPE:WALL-OUTER
G1 F2700 X179.048 Y161.78 E72.39291
G1 X167.967 Y161.779 E72.98113
G1 X167.848 Y161.736 E72.98784
G1 X167.72 Y161.555 E72.99961
G1 X167.72 Y140.483 E74.11818
G1 X167.824 Y140.281 E74.13024
G1 X167.967 Y140.221 E74.13847
G1 X179.034 Y140.221 E74.72594
G1 X179.205 Y140.309 E74.73615
G1 X179.275 Y140.445 E74.74427
G1 X179.275 Y161.555 E75.86486
G1 X179.206 Y161.691 E75.87295
M204 S3000
M205 X10 Y10
G0 F6000 X179.048 Y161.78
G0 X179.029 Y161.78
G0 X179.029 Y162.4
G0 X115.708 Y173.991
G0 X115.6 Y174.608
M204 S300
M205 X8 Y8
G1 F2700 X186.45 Y174.608 E79.6339
G1 X186.792 Y174.461 E79.65366
G1 X186.981 Y174.251 E79.66865
G1 X187.108 Y173.895 E79.68872
G1 X187.108 Y128.05 E82.12232
