;FLAVOR:Marlin
;TIME:1412
;Filament used: 1.47815m
;Layer height: 0.15
;MINX:116.418
;MINY:139.916
;MINZ:0.3
;MAXX:185.6
;MAXY:162.1
;MAXZ:19.95
;TARGET_MACHINE.NAME:Unknown
;Generated with Cura_SteamEngine 5.7.2
M140 S70
M105
M190 S70
M104 S215
M105
M109 S215
M82 ;absolute extrusion mode
; Script based on an original created by tjjfvi (https://github.com/tjjfvi)
; An up-to-date version of the tjjfvi's original script can be found
; here:  https://csi.t6.fyi/
; Note - This script will only work in Cura V4.2 and above!
; --- Global Settings
; layer_height = 0.15
; smooth_spiralized_contours = True
; magic_mesh_surface_mode = normal
; machine_extruder_count = 1
; --- Single Extruder Settings
; speed_z_hop = 10
; retraction_amount = 6.5
; retraction_hop = 1
; retraction_hop_enabled = False
; retraction_enable = True
; retraction_speed = 25
; retraction_retract_speed = 25
; retraction_prime_speed = 25
; speed_travel = 120

G28 ;Home
G1 Z15.0 F6000 ;Move the platform down 15mm
;Prime the extruder
G92 E0
G1 F200 E3
G92 E0
G92 E0
G92 E0
G1 F1500 E-6.5
;LAYER_COUNT:132
;LAYER:0
M107
G0 F3600 X118.496 Y145.766 Z0.3
;TYPE:SKIRT
G1 F1500 E0
G1 F1800 X119.401 Y145.18 E0.05379
G1 X120.229 Y144.833 E0.09858
G1 X121.069 Y144.639 E0.14159
G1 X121.797 Y144.565 E0.1781
G1 X122.315 Y144.567 E0.20394
G1 X122.943 Y144.629 E0.23542
G1 X125.461 Y145.131 E0.36352
G1 X128.124 Y145.591 E0.49835
G1 X130.826 Y145.98 E0.63454
G1 X133.539 Y146.291 E0.77078
G1 X136.241 Y146.525 E0.90608
G1 X138.973 Y146.683 E1.04261
G1 X141.724 Y146.765 E1.17992
G1 X144.42 Y146.769 E1.31443
G1 X147.17 Y146.695 E1.45167
G1 X149.863 Y146.547 E1.58623
G1 X152.607 Y146.317 E1.72361
G1 X155.29 Y146.015 E1.85831
G1 X158.011 Y145.632 E1.9954
G1 X160.685 Y145.178 E2.13071
G1 X163.356 Y144.647 E2.26658
G1 X166.031 Y144.034 E2.40349
G1 X168.66 Y143.354 E2.53897
G1 X171.261 Y142.601 E2.67407
G1 X173.899 Y141.757 E2.81225
G1 X176.46 Y140.857 E2.94768
G1 X178.176 Y140.211 E3.03915
G1 X178.962 Y139.998 E3.07978
G1 X179.859 Y139.916 E3.12472
G1 X180.649 Y139.954 E3.16418
G1 X181.559 Y140.127 E3.21039
G1 X182.326 Y140.419 E3.25134
G1 X183.057 Y140.811 E3.29272
G1 X183.897 Y141.48 E3.34629
G1 X184.55 Y142.245 E3.39647
G1 X185.048 Y143.076 E3.44481
G1 X185.345 Y143.887 E3.4879
G1 X185.474 Y144.384 E3.51351
G1 X185.585 Y145.2 E3.5546
G1 X185.597 Y145.796 E3.58434
G1 X185.6 Y153.753 E3.98132
G1 X185.593 Y155.93 E4.08993
G1 X185.6 Y157.809 E4.18367
G1 X185.591 Y158.536 E4.21994
G1 X185.533 Y159.133 E4.24987
G1 X185.387 Y159.683 E4.27826
G1 X185.157 Y160.202 E4.30658
G1 X184.848 Y160.68 E4.33498
G1 X184.467 Y161.103 E4.36338
G1 X184.026 Y161.46 E4.39169
G1 X183.532 Y161.744 E4.42011
G1 X183.001 Y161.945 E4.44844
G1 X182.507 Y162.053 E4.47367
G1 X181.76 Y162.099 E4.51101
G1 X172.656 Y162.1 E4.96521
G1 X171.952 Y162.09 E5.00033
G1 X171.288 Y162.024 E5.03362
G1 X168.3 Y161.246 E5.18767
G1 X165.615 Y160.629 E5.32511
G1 X162.935 Y160.093 E5.46147
G1 X160.272 Y159.637 E5.59626
G1 X157.583 Y159.255 E5.73176
G1 X154.869 Y158.948 E5.86802
G1 X152.126 Y158.715 E6.00537
G1 X149.433 Y158.564 E6.13993
G1 X146.683 Y158.488 E6.27718
G1 X143.019 Y158.485 E6.45998
G1 X139.467 Y158.37 E6.63728
G1 X138.446 Y158.32 E6.68828
G1 X134.985 Y158.043 E6.8615
G1 X133.849 Y157.933 E6.91844
G1 X130.342 Y157.484 E7.09484
G1 X129.416 Y157.351 E7.14151
G1 X126.089 Y156.765 E7.31005
G1 X124.693 Y156.492 E7.38102
G1 X121.248 Y155.715 E7.5572
G1 X120.501 Y155.532 E7.59557
G1 X119.98 Y155.359 E7.62296
G1 X119.241 Y155.014 E7.66365
G1 X118.446 Y154.472 E7.71166
G1 X117.672 Y153.689 E7.76658
G1 X117.244 Y153.078 E7.8038
G1 X116.86 Y152.316 E7.84637
G1 X116.581 Y151.54 E7.88751
G1 X116.418 Y150.595 E7.93536
G1 X116.433 Y149.717 E7.97917
G1 X116.498 Y149.177 E8.0063
G1 X116.695 Y148.385 E8.04702
G1 X117.081 Y147.46 E8.09702
G1 X117.579 Y146.725 E8.14132
G1 X117.834 Y146.418 E8.16123
G1 X118.496 Y145.766 E8.20758
G0 F3600 X118.747 Y146.081
G1 F1800 X119.619 Y145.516 E8.25942
G1 X120.319 Y145.223 E8.29728
G1 X121.159 Y145.029 E8.34029
G1 X121.797 Y144.965 E8.37228
G1 X122.276 Y144.965 E8.39618
G1 X122.904 Y145.027 E8.42766
G1 X125.393 Y145.525 E8.5543
G1 X128.067 Y145.987 E8.68968
G1 X130.769 Y146.376 E8.82588
G1 X133.505 Y146.69 E8.96327
G1 X136.207 Y146.923 E9.09858
G1 X138.961 Y147.083 E9.2362
G1 X141.712 Y147.165 E9.37351
G1 X144.43 Y147.169 E9.50912
G1 X147.181 Y147.095 E9.64641
G1 X149.896 Y146.945 E9.78207
G1 X152.64 Y146.715 E9.91945
G1 X155.346 Y146.411 E10.0553
G1 X158.067 Y146.028 E10.19239
G1 X160.758 Y145.571 E10.32857
G1 X163.445 Y145.037 E10.46524
G1 X166.12 Y144.424 E10.60216
G1 X168.766 Y143.739 E10.73852
G1 X171.383 Y142.982 E10.87444
G1 X174.021 Y142.138 E11.01262
G1 X176.593 Y141.234 E11.14863
G1 X178.284 Y140.596 E11.2388
G1 X179 Y140.396 E11.27589
G1 X179.84 Y140.316 E11.31799
G1 X180.63 Y140.354 E11.35745
G1 X181.418 Y140.501 E11.39744
G1 X182.137 Y140.772 E11.43577
G1 X182.868 Y141.164 E11.47715
G1 X183.617 Y141.768 E11.52516
G1 X184.207 Y142.451 E11.57019
G1 X184.684 Y143.247 E11.61648
G1 X184.969 Y144.025 E11.65782
G1 X185.086 Y144.483 E11.6814
G1 X185.185 Y145.208 E11.71791
G1 X185.197 Y145.796 E11.74725
G1 X185.2 Y153.752 E12.14418
G1 X185.193 Y155.929 E12.25279
G1 X185.2 Y157.804 E12.34634
G1 X185.191 Y158.531 E12.38261
G1 X185.145 Y159.034 E12.40781
G1 X185.02 Y159.524 E12.43304
G1 X184.819 Y159.988 E12.45826
G1 X184.548 Y160.415 E12.4835
G1 X184.213 Y160.794 E12.50873
G1 X183.823 Y161.115 E12.53393
G1 X183.387 Y161.371 E12.55916
G1 X182.916 Y161.554 E12.58437
G1 X182.422 Y161.662 E12.60959
G1 X181.76 Y161.699 E12.64267
G1 X172.662 Y161.7 E13.09657
G1 X171.958 Y161.69 E13.1317
G1 X171.389 Y161.637 E13.16021
G1 X168.39 Y160.856 E13.31482
G1 X165.705 Y160.239 E13.45227
G1 X163.003 Y159.699 E13.58974
G1 X160.328 Y159.241 E13.72514
G1 X157.639 Y158.859 E13.86064
G1 X154.903 Y158.549 E13.99801
G1 X152.16 Y158.317 E14.13535
G1 X149.444 Y158.164 E14.27106
G1 X146.694 Y158.088 E14.40831
G1 X143.032 Y158.085 E14.59101
G1 X139.486 Y157.97 E14.76802
G1 X138.478 Y157.921 E14.81836
G1 X135.024 Y157.645 E14.99124
G1 X133.9 Y157.536 E15.04757
G1 X130.399 Y157.088 E15.22366
G1 X129.485 Y156.957 E15.26973
G1 X126.166 Y156.372 E15.43787
G1 X124.781 Y156.102 E15.50827
G1 X121.342 Y155.326 E15.68415
G1 X120.626 Y155.152 E15.72091
G1 X120.147 Y154.995 E15.74606
G1 X119.466 Y154.683 E15.78343
G1 X118.703 Y154.163 E15.8295
G1 X118 Y153.46 E15.8791
G1 X117.572 Y152.849 E15.91632
G1 X117.235 Y152.178 E15.95378
G1 X116.975 Y151.472 E15.99131
G1 X116.819 Y150.565 E16.03723
G1 X116.833 Y149.724 E16.07919
G1 X116.887 Y149.271 E16.10195
G1 X117.064 Y148.539 E16.13952
G1 X117.435 Y147.65 E16.18758
G1 X117.887 Y146.981 E16.22786
G1 X118.142 Y146.674 E16.24778
G1 X118.747 Y146.081 E16.29004
G1 F1500 E9.79004
;MESH:Case_1-Clip.stl
G0 F3600 X151.167 Y150.014
G0 X151.261 Y151.094
G0 X165.46 Y151.526
G0 X165.551 Y151.97
;TYPE:WALL-INNER
G1 F1500 E16.29004
G1 F1800 X165.78 Y152.209 E16.30655
G1 X165.848 Y152.488 E16.32088
G1 X165.848 Y156.148 E16.50348
G1 X166.648 Y156.148 E16.54339
G1 X166.648 Y151.996 E16.75054
G1 X166.738 Y151.678 E16.76702
G1 X166.84 Y151.555 E16.775
G1 X167.025 Y151.433 E16.78605
G1 X168.203 Y151.127 E16.84677
G1 X169.41 Y150.795 E16.90923
G1 X170.636 Y150.439 E16.97292
G1 X171.013 Y150.401 E16.99182
G1 X171.671 Y150.549 E17.02547
G1 X171.866 Y150.662 E17.03671
G1 X172.282 Y151.041 E17.06479
G1 X172.507 Y151.465 E17.08874
G1 X172.596 Y151.951 E17.11339
G1 X172.6 Y157.9 E17.41018
G1 X181.4 Y157.9 E17.84922
G1 X181.4 Y157.1 E17.88913
G1 X174 Y157.1 E18.25832
G1 X173.575 Y156.924 E18.28127
G1 X173.4 Y156.59 E18.30008
G1 X173.4 Y154.5 E18.40435
G1 X173.52 Y154.14 E18.42328
G1 X173.769 Y153.946 E18.43903
G1 X174 Y153.9 E18.45078
G1 X181.399 Y153.9 E18.81992
G1 X181.396 Y145.354 E19.24628
G1 X181.312 Y145.022 E19.26337
G1 X181.078 Y144.612 E19.28692
G1 X180.883 Y144.42 E19.30057
G1 X180.501 Y144.196 E19.32266
G1 X180.263 Y144.128 E19.33501
G1 X179.896 Y144.107 E19.35335
G1 X179.584 Y144.158 E19.36912
G1 X175.569 Y145.794 E19.58542
G1 X171.638 Y147.187 E19.79349
G1 X167.651 Y148.386 E20.0012
G1 X163.642 Y149.393 E20.20743
G1 X159.527 Y150.218 E20.41681
G1 X155.406 Y150.845 E20.62477
G1 X151.258 Y151.276 E20.83283
G1 X147.098 Y151.508 E21.0407
G1 X142.932 Y151.544 E21.24855
G1 X138.773 Y151.382 E21.4562
G1 X134.616 Y151.027 E21.66435
G1 X130.452 Y150.467 E21.87396
G1 X126.388 Y149.725 E22.08007
G1 X122.311 Y148.781 E22.28885
G1 X121.846 Y148.756 E22.31208
G1 X121.605 Y148.806 E22.32436
G1 X121.196 Y149.001 E22.34697
G1 X120.835 Y149.369 E22.37269
G1 X120.654 Y149.77 E22.39464
G1 X120.604 Y150.122 E22.41237
G1 X120.671 Y150.577 E22.43532
G1 X120.831 Y150.909 E22.45371
G1 X120.994 Y151.111 E22.46666
G1 X121.274 Y151.332 E22.48445
G1 X121.58 Y151.482 E22.50145
G1 X125.971 Y152.476 E22.72606
G1 X130.303 Y153.246 E22.94558
G1 X134.607 Y153.795 E23.16204
G1 X138.979 Y154.148 E23.38087
G1 X143.358 Y154.296 E23.59947
G1 X147.777 Y154.231 E23.81996
G1 X152.12 Y153.958 E24.03706
G1 X156.436 Y153.485 E24.25367
G1 X160.848 Y152.787 E24.47652
G1 X165.126 Y151.9 E24.69449
G1 X165.404 Y151.908 E24.70837
G1 X165.551 Y151.97 E24.71633
G0 F3600 X165.448 Y152.418
;TYPE:WALL-OUTER
G1 F1800 X165.448 Y156.136 E24.90182
G1 X165.32 Y156.324 E24.91317
G1 X165.06 Y156.336 E24.92615
G1 X165.32 Y156.548 E24.94289
G1 X167.048 Y156.548 E25.0291
G1 X167.048 Y151.996 E25.2562
G1 X167.078 Y151.89 E25.2617
G1 X167.166 Y151.813 E25.26753
G1 X168.309 Y151.513 E25.32649
G1 X169.522 Y151.179 E25.38926
G1 X170.748 Y150.823 E25.45295
G1 X171.106 Y150.807 E25.47083
G1 X171.539 Y150.927 E25.49324
G1 X171.936 Y151.252 E25.51884
G1 X172.14 Y151.624 E25.54001
G1 X172.194 Y151.92 E25.55502
G1 X172.2 Y158.3 E25.87332
G1 X181.8 Y158.3 E26.35226
G1 X181.8 Y156.7 E26.43209
G1 X174 Y156.7 E26.82123
G1 X173.858 Y156.642 E26.82888
G1 X173.802 Y156.535 E26.83491
G1 X173.8 Y154.5 E26.93644
G1 X173.84 Y154.38 E26.94275
G1 X173.942 Y154.3 E26.94921
G1 X181.799 Y154.3 E27.3412
G1 X181.796 Y145.305 E27.78996
G1 X181.69 Y144.885 E27.81157
G1 X181.535 Y144.563 E27.8294
G1 X181.129 Y144.1 E27.86012
G1 X180.66 Y143.826 E27.88722
G1 X180.33 Y143.731 E27.90436
G1 X179.875 Y143.705 E27.92709
G1 X179.475 Y143.77 E27.94731
G1 X175.435 Y145.417 E28.16497
G1 X171.522 Y146.804 E28.37209
G1 X167.553 Y147.998 E28.57887
G1 X163.564 Y149.001 E28.78408
G1 X159.467 Y149.822 E28.99255
G1 X155.365 Y150.447 E29.19956
G1 X151.236 Y150.876 E29.40666
G1 X147.094 Y151.108 E29.61363
G1 X142.948 Y151.144 E29.82048
G1 X138.807 Y150.984 E30.02723
G1 X134.669 Y150.631 E30.23443
G1 X130.524 Y150.073 E30.44309
G1 X126.478 Y149.335 E30.64828
G1 X122.367 Y148.383 E30.8588
G1 X121.816 Y148.354 E30.88633
G1 X121.477 Y148.424 E30.9036
G1 X120.978 Y148.662 E30.93118
G1 X120.712 Y148.885 E30.9485
G1 X120.492 Y149.158 E30.96599
G1 X120.266 Y149.657 E30.99332
G1 X120.202 Y150.108 E31.01605
G1 X120.227 Y150.451 E31.0332
G1 X120.293 Y150.715 E31.04678
G1 X120.491 Y151.124 E31.06945
G1 X120.71 Y151.397 E31.08691
G1 X121.06 Y151.673 E31.10915
G1 X121.447 Y151.862 E31.13064
G1 X125.892 Y152.868 E31.35801
G1 X130.243 Y153.642 E31.57849
G1 X134.565 Y154.193 E31.79586
G1 X138.956 Y154.548 E32.01564
G1 X143.354 Y154.696 E32.23518
G1 X147.76 Y154.632 E32.45502
G1 X152.194 Y154.353 E32.67667
G1 X156.446 Y153.887 E32.89007
G1 X160.888 Y153.187 E33.11442
G1 X165.207 Y152.292 E33.33447
G1 X165.349 Y152.315 E33.34165
G1 X165.448 Y152.418 E33.34878
G0 F3600 X165.448 Y152.618
G0 X166.15 Y152.618
G0 X166.419 Y151.359
G0 X170.664 Y150.187
G0 X171.881 Y150.362
G0 X172.762 Y151.444
G0 X173.161 Y154.923
G0 X173.172 Y157.328
G0 X181 Y157.5
;TYPE:SKIN
G1 F1636.4 X174 Y157.5 E33.73293
G0 F3600 X173.32 Y157.205
G1 F1726.6 X173.966 Y157.501 E33.76989
G1 F1710.2 X172.962 Y157.534 E33.82264
G1 F1726.6 X173 Y156.668 E33.86772
G1 F1739.1 X173.32 Y157.205 E33.9
G0 F3600 X173.32 Y157.4
G0 X173.172 Y153.672
G0 X173.66 Y153.583
G1 F1800 X173.253 Y153.874 E33.92496
G1 F1686.2 X173.005 Y154.428 E33.95729
G1 X172.978 Y153.935 E33.98359
G1 F1800 X172.973 Y151.914 E34.08441
G1 X172.852 Y151.308 E34.11524
G1 X172.586 Y150.809 E34.14346
G1 X172.085 Y150.35 E34.17736
G1 X171.791 Y150.185 E34.19417
G1 X171.318 Y150.055 E34.21865
G1 X171.017 Y150.021 E34.23376
G1 X170.528 Y150.071 E34.25828
G1 X169.294 Y150.43 E34.3224
G1 X168.112 Y150.757 E34.38359
G1 X166.906 Y151.066 E34.4457
G1 X166.58 Y151.276 E34.46504
G1 X166.391 Y151.526 E34.48068
G1 X166.275 Y151.942 E34.50223
G1 F1702.1 X166.245 Y152.435 E34.52828
G1 X166.118 Y152.033 E34.55053
G1 F1800 X165.788 Y151.676 E34.57478
G1 X165.505 Y151.538 E34.59049
G1 X165.043 Y151.528 E34.61354
G1 X160.795 Y152.411 E34.83001
G1 X156.31 Y153.113 E35.05649
G1 X152.105 Y153.574 E35.26753
G1 X147.773 Y153.847 E35.48409
G1 X143.413 Y153.916 E35.70164
G1 X139.004 Y153.768 E35.92173
G1 X134.649 Y153.417 E36.1397
G1 X130.411 Y152.878 E36.35284
G1 X126.072 Y152.108 E36.5727
G1 X121.703 Y151.117 E36.7962
G1 X121.476 Y151.009 E36.80874
G1 X121.263 Y150.838 E36.82237
G1 X121.034 Y150.459 E36.84446
G1 X120.986 Y150.127 E36.8612
G1 X121.023 Y149.873 E36.87401
G1 X121.156 Y149.575 E36.89029
G1 X121.407 Y149.318 E36.90821
G1 X121.871 Y149.138 E36.93304
G1 X122.255 Y149.159 E36.95222
G1 X126.334 Y150.103 E37.16111
G1 X130.38 Y150.841 E37.36629
G1 X134.601 Y151.407 E37.57876
G1 X138.743 Y151.76 E37.78616
G1 X142.916 Y151.924 E37.99451
G1 X147.094 Y151.888 E38.20296
G1 X151.276 Y151.652 E38.41193
G1 X155.445 Y151.223 E38.62102
G1 X159.587 Y150.59 E38.83007
G1 X163.72 Y149.765 E39.04033
G1 X167.757 Y148.75 E39.24801
G1 X171.75 Y147.548 E39.45605
G1 X175.695 Y146.149 E39.66487
G1 X179.69 Y144.523 E39.88006
G1 X179.911 Y144.489 E39.89122
G1 X180.344 Y144.545 E39.913
G1 X180.643 Y144.721 E39.93031
G1 X180.863 Y144.968 E39.94681
G1 X181.016 Y145.406 E39.96996
G1 X181.016 Y153.52 E40.37477
G1 X173.96 Y153.523 E40.72679
G1 X173.66 Y153.583 E40.74206
G0 F3600 X173.005 Y154.428
G1 F1603.6 X173.001 Y156.65 E40.86649
G0 F3600 X172.838 Y151.879
G0 X172.479 Y150.882
G0 X171.139 Y150.154
G0 X166.419 Y151.359
G0 X166.248 Y155.748
G1 F1625.3 X166.245 Y152.435 E41.04955
G0 F3600 X166.419 Y151.359
G0 X179.784 Y144.712
G1 F1800 X180.816 Y145.744 E41.12236
G0 F3600 X180.816 Y146.31
G1 F1800 X179.375 Y144.868 E41.22407
G0 F3600 X178.972 Y145.031
G1 F1800 X180.816 Y146.875 E41.35417
G0 F3600 X180.816 Y147.441
G1 F1800 X178.57 Y145.194 E41.51267
G0 F3600 X178.168 Y145.359
G1 F1800 X180.816 Y148.007 E41.6995
G0 F3600 X180.816 Y148.572
G1 F1800 X177.766 Y145.522 E41.9147
G0 F3600 X177.364 Y145.685
G1 F1800 X180.816 Y149.138 E42.15829
G0 F3600 X180.816 Y149.704
G1 F1800 X176.962 Y145.849 E42.43025
G0 F3600 X176.56 Y146.013
G1 F1800 X180.816 Y150.269 E42.73053
G0 F3600 X180.816 Y150.835
G1 F1800 X176.157 Y146.176 E43.05925
G0 F3600 X175.755 Y146.339
G1 F1800 X180.816 Y151.401 E43.41636
G0 F3600 X180.816 Y151.966
G1 F1800 X175.338 Y146.488 E43.80287
G0 F3600 X174.92 Y146.636
G1 F1800 X180.816 Y152.532 E44.21886
G0 F3600 X180.816 Y153.098
G1 F1800 X174.503 Y146.784 E44.66431
G0 F3600 X174.085 Y146.933
G1 F1800 X180.473 Y153.32 E45.11498
G0 F3600 X179.907 Y153.32
G1 F1800 X173.668 Y147.08 E45.55521
G0 F3600 X173.25 Y147.229
G1 F1800 X179.341 Y153.32 E45.98497
G0 F3600 X178.776 Y153.32
G1 F1800 X172.832 Y147.377 E46.40431
G0 F3600 X172.415 Y147.525
G1 F1800 X178.21 Y153.32 E46.81318
G0 F3600 X177.644 Y153.32
G1 F1800 X171.998 Y147.674 E47.21154
G0 F3600 X171.57 Y147.811
G1 F1800 X177.079 Y153.32 E47.60023
G0 F3600 X176.513 Y153.32
G1 F1800 X171.135 Y147.942 E47.97967
G0 F3600 X170.701 Y148.073
G1 F1800 X175.947 Y153.32 E48.34984
G0 F3600 X175.382 Y153.32
G1 F1800 X172.746 Y150.684 E48.53583
G1 X170.266 Y148.204 E48.7108
G0 F3600 X169.831 Y148.335
G1 F1800 X171.356 Y149.86 E48.8184
G0 F3600 X170.778 Y149.848
G1 F1800 X169.396 Y148.466 E48.91591
G0 F3600 X168.962 Y148.597
G1 F1800 X170.295 Y149.93 E49.00996
G0 F3600 X169.856 Y150.057
G1 F1800 X168.527 Y148.728 E49.10373
G0 F3600 X168.092 Y148.859
G1 F1800 X169.419 Y150.185 E49.19732
G0 F3600 X168.977 Y150.309
G1 F1800 X167.651 Y148.984 E49.29084
G0 F3600 X167.199 Y149.097
