;FLAVOR:Marlin
;TIME:5349
;Filament used: 4.46644m
;Layer height: 0.15
;MINX:106.2
;MINY:118.7
;MINZ:0.3
;MAXX:195.8
;MAXY:183.3
;MAXZ:12
;TARGET_MACHINE.NAME:Unknown
;Generated with Cura_SteamEngine 5.7.2
M140 S70
M105
M190 S70
M104 S215
M105
M109 S215
M82 ;absolute extrusion mode
; Script based on an original created by tjjfvi (https://github.com/tjjfvi)
; An up-to-date version of the tjjfvi's original script can be found
; here:  https://csi.t6.fyi/
; Note - This script will only work in Cura V4.2 and above!
; --- Global Settings
; layer_height = 0.15
; smooth_spiralized_contours = True
; magic_mesh_surface_mode = normal
; machine_extruder_count = 1
; --- Single Extruder Settings
; speed_z_hop = 10
; retraction_amount = 6.5
; retraction_hop = 1
; retraction_hop_enabled = False
; retraction_enable = True
; retraction_speed = 25
; retraction_retract_speed = 25
; retraction_prime_speed = 25
; speed_travel = 120

G28 ;Home
G1 Z15.0 F6000 ;Move the platform down 15mm
;Prime the extruder
G92 E0
G1 F200 E3
G92 E0
G92 E0
G92 E0
G1 F1500 E-6.5
;LAYER_COUNT:79
;LAYER:0
M107
G0 F3600 X111.263 Y123.511 Z0.3
;TYPE:SKIRT
G1 F1500 E0
G1 F1800 X111.741 Y123.104 E0.03132
G1 X112.471 Y122.701 E0.07292
G1 X113.094 Y122.419 E0.10704
G1 X114.088 Y122.198 E0.15784
G1 X114.726 Y122.122 E0.1899
G1 X115.643 Y122.107 E0.23565
G1 X186.538 Y122.106 E3.77262
G1 X187.195 Y122.115 E3.8054
G1 X187.866 Y122.196 E3.83912
G1 X188.721 Y122.392 E3.88288
G1 X189.327 Y122.582 E3.91457
G1 X190.045 Y122.987 E3.95569
G1 X190.464 Y123.27 E3.98092
G1 X190.981 Y123.755 E4.01628
G1 X191.394 Y124.237 E4.04795
G1 X191.776 Y124.925 E4.08721
G1 X192.024 Y125.471 E4.11713
G1 X192.282 Y126.495 E4.16981
G1 X192.378 Y127.219 E4.20625
G1 X192.396 Y128.212 E4.2558
G1 X192.396 Y174.037 E6.54202
G1 X192.387 Y174.686 E6.5744
G1 X192.306 Y175.359 E6.60822
G1 X192.105 Y176.233 E6.65296
G1 X191.914 Y176.838 E6.68461
G1 X191.527 Y177.527 E6.72404
G1 X191.245 Y177.947 E6.74928
G1 X190.767 Y178.459 E6.78422
G1 X190.292 Y178.87 E6.81556
G1 X189.542 Y179.29 E6.85845
G1 X189.083 Y179.501 E6.88365
G1 X188.412 Y179.692 E6.91845
G1 X187.918 Y179.802 E6.9437
G1 X187.276 Y179.878 E6.97596
G1 X186.336 Y179.893 E7.02286
G1 X115.626 Y179.894 E10.5506
G1 X114.93 Y179.884 E10.58532
G1 X114.024 Y179.792 E10.63076
G1 X113.225 Y179.596 E10.6718
G1 X112.638 Y179.402 E10.70264
G1 X111.955 Y179.014 E10.74183
G1 X111.536 Y178.731 E10.76706
G1 X111.025 Y178.251 E10.80204
G1 X110.608 Y177.767 E10.83391
G1 X110.197 Y177.019 E10.87649
G1 X109.99 Y176.558 E10.9017
G1 X109.84 Y176.042 E10.92851
G1 X109.698 Y175.411 E10.96078
G1 X109.622 Y174.774 E10.99278
G1 X109.607 Y173.853 E11.03874
G1 X109.604 Y162.491 E11.60559
G1 X109.617 Y161.696 E11.64526
G1 X109.728 Y160.573 E11.70156
G1 X109.959 Y157.861 E11.83735
G1 X110.113 Y155.119 E11.97437
G1 X110.191 Y152.363 E12.11192
G1 X110.191 Y149.646 E12.24747
G1 X110.113 Y146.896 E12.38472
G1 X109.957 Y144.16 E12.52144
G1 X109.759 Y141.788 E12.6402
G1 X109.616 Y140.277 E12.71592
G1 X109.605 Y139.539 E12.75274
G1 X109.606 Y128.118 E13.32254
G1 X109.62 Y127.186 E13.36904
G1 X109.762 Y126.303 E13.41366
G1 X109.906 Y125.718 E13.44371
G1 X110.101 Y125.128 E13.47472
G1 X110.495 Y124.439 E13.51431
G1 X110.78 Y124.021 E13.53955
G1 X111.263 Y123.511 E13.5746
G1 F1500 E7.0746
;MESH:Case_1-Top Case.stl
G0 F3600 X114.237 Y126.624
G0 X114.91 Y127.472
G0 X131.587 Y146.005
G0 X131.876 Y145.712
;TYPE:WALL-INNER
G1 F1500 E13.5746
G1 F1800 X131.911 Y145.383 E13.5911
G1 X132.004 Y145.226 E13.60021
G1 X132.59 Y144.64 E13.64155
G1 X132.867 Y144.562 E13.65591
G1 X135.732 Y144.56 E13.79885
G1 X135.732 Y142.1 E13.92158
G1 X132.867 Y142.098 E14.06451
G1 X132.591 Y142.021 E14.07881
G1 X131.976 Y141.407 E14.12216
G1 X131.979 Y141.327 E14.12616
G1 X131.893 Y141.333 E14.13046
G1 X131.359 Y140.801 E14.16806
G1 X131.233 Y140.616 E14.17923
G1 X131.185 Y140.425 E14.18906
G1 X131.186 Y137.116 E14.35414
G1 X131.31 Y136.803 E14.37094
G1 X131.901 Y136.206 E14.41285
G1 X131.97 Y136.213 E14.41631
G1 X131.965 Y136.15 E14.41946
G1 X132.537 Y135.585 E14.45957
G1 X132.849 Y135.452 E14.4765
G1 X136.192 Y135.452 E14.64328
G1 X136.462 Y135.573 E14.65804
G1 X137.034 Y136.125 E14.6977
G1 X137.139 Y136.355 E14.71031
G1 X137.151 Y136.578 E14.72145
G1 X137.054 Y136.848 E14.73577
G1 X136.523 Y137.375 E14.77309
G1 X136.351 Y137.494 E14.78353
G1 X136.1 Y137.548 E14.79633
G1 X133.288 Y137.548 E14.93663
G1 X133.288 Y140.008 E15.05936
G1 X136.1 Y140.008 E15.19965
G1 X136.351 Y140.062 E15.21246
G1 X136.519 Y140.178 E15.22264
G1 X137.07 Y140.722 E15.26127
G1 X137.064 Y140.772 E15.26378
G1 X137.114 Y140.766 E15.2663
G1 X137.708 Y141.36 E15.30821
G1 F1674.4 X137.866 Y141.732 E15.32988
G1 F1561.8 X137.865 Y144.987 E15.51704
G1 F1662.8 X137.747 Y145.272 E15.5337
G1 F1795.5 X136.472 Y146.527 E15.62318
G1 F1800 X136.174 Y146.648 E15.63922
G1 X132.836 Y146.647 E15.80576
G1 X132.569 Y146.55 E15.81993
G1 X131.973 Y145.964 E15.86163
G1 X131.876 Y145.712 E15.8751
G0 F3600 X131.587 Y146.005
G0 X132.742 Y146.492
G0 X143.453 Y146.492
G0 X144.337 Y145.609
G0 X144.688 Y141.37
G0 X144.42 Y141.097
G1 F1269.8 X144.313 Y141.372 E15.89597
G1 F1493.8 X144.132 Y141.51 E15.90965
G1 F1747.6 X143.695 Y141.927 E15.94069
G1 F1800 X143.357 Y142.1 E15.95963
G1 X140.46 Y142.1 E16.10417
G1 X140.46 Y144.56 E16.2269
G1 X143.357 Y144.56 E16.37143
G1 X143.695 Y144.733 E16.39037
G1 X144.147 Y145.181 E16.42212
G1 F1678.3 X144.353 Y145.608 E16.44749
G1 F1674.4 X144.244 Y145.938 E16.46613
G1 F1795.5 X143.629 Y146.544 E16.50931
G1 F1800 X143.333 Y146.649 E16.52498
G1 X140.063 Y146.652 E16.68812
G1 X139.755 Y146.564 E16.7041
G1 F1795.5 X138.445 Y145.272 E16.79613
G1 F1662.8 X138.327 Y144.987 E16.81279
G1 F1561.8 X138.326 Y141.732 E16.99994
G1 F1674.4 X138.484 Y141.36 E17.02162
G1 F1800 X138.785 Y141.054 E17.04303
G1 X138.444 Y140.69 E17.06792
G1 X138.356 Y140.378 E17.08409
G1 X138.356 Y137.091 E17.24808
G1 X138.406 Y136.93 E17.25649
G1 X138.531 Y136.747 E17.26755
G1 X139.73 Y135.573 E17.35127
G1 X140.012 Y135.452 E17.36657
G1 X143.346 Y135.452 E17.53291
G1 X143.622 Y135.553 E17.54757
G1 X144.156 Y136.079 E17.58497
G1 X144.266 Y136.237 E17.59457
G1 F1678.3 X144.353 Y136.505 E17.60965
G1 F1561.8 X144.348 Y136.605 E17.61541
G1 F1666.7 X144.149 Y136.921 E17.63553
G1 F1800 X143.697 Y137.373 E17.66742
G1 X143.357 Y137.548 E17.6865
G1 X140.46 Y137.548 E17.83103
G1 X140.46 Y140.008 E17.95376
G1 X143.357 Y140.008 E18.09829
G1 X143.693 Y140.18 E18.11712
G1 F1682.2 X144.327 Y140.793 E18.1642
G1 F1368.8 X144.42 Y141.097 E18.18505
G0 F3600 X144.688 Y141.37
G0 X145.003 Y145.803
G0 X145.724 Y146.527
G0 X145.996 Y146.676
G1 F1800 X145.788 Y146.676 E18.19543
G1 X145.531 Y146.575 E18.20921
G1 F1795.5 X144.925 Y145.951 E18.25271
G1 F1666.7 X144.812 Y145.671 E18.26898
G1 F1674.4 X144.84 Y144.893 E18.31073
G1 F1800 X144.84 Y142.404 E18.43491
G1 F1747.6 X144.828 Y141.8 E18.46596
G1 F1493.8 X144.805 Y141.586 E18.47889
G1 F1269.8 X144.933 Y141.32 E18.49977
G1 F1210.1 X145.135 Y141.118 E18.52097
G1 X144.933 Y140.912 E18.54238
G1 F1297.3 X144.805 Y140.602 E18.5656
G1 F1555.1 X144.835 Y140.332 E18.58129
G1 F1773.4 X144.84 Y137.207 E18.73953
G1 F1739.1 X144.802 Y136.535 E18.77429
G1 X144.924 Y136.176 E18.79387
G1 F1800 X145.54 Y135.553 E18.83758
G1 X145.818 Y135.456 E18.85226
G1 X145.996 Y135.46 E18.86115
G1 X146.265 Y135.574 E18.87572
G1 X146.837 Y136.154 E18.91636
G1 X146.944 Y136.478 E18.93339
G1 F1674.4 X146.974 Y137.172 E18.97064
G1 F1558.4 X146.975 Y140.466 E19.16045
G1 F1666.7 X146.834 Y140.778 E19.1789
G1 F1800 X146.513 Y141.119 E19.20227
G1 X146.808 Y141.419 E19.22326
G1 F1674.4 X146.973 Y141.75 E19.24309
G1 F1551.7 X146.977 Y145.081 E19.43587
G1 F1662.8 X146.944 Y145.638 E19.466
G1 F1800 X146.844 Y145.963 E19.48296
G1 X146.27 Y146.557 E19.52418
G1 X145.996 Y146.676 E19.53908
G1 F1500 E13.03908
G0 F3600 X146.289 Y146.965
G0 X149.037 Y146.455
G0 X149.385 Y144.748
G0 X151.742 Y144.292
G0 X152.012 Y144.56
G1 F1500 E19.53908
G1 F1800 X152.012 Y142.1 E19.66181
G1 X149.568 Y142.1 E19.78374
G1 X149.568 Y144.56 E19.90647
G1 X152.012 Y144.56 E20.0284
G1 F1500 E13.5284
G0 F3600 X151.742 Y144.292
G0 X153.064 Y145.944
G0 X152.457 Y146.955
G0 X152.457 Y146.652
G1 F1500 E20.0284
G1 F1800 X149.2 Y146.652 E20.19089
G1 X148.873 Y146.573 E20.20768
G1 X148.247 Y145.958 E20.25146
G1 X148.251 Y145.882 E20.25526
G1 X148.174 Y145.887 E20.25911
G1 X147.629 Y145.347 E20.29738
G1 F1662.8 X147.44 Y145.041 E20.31681
G1 F1551.7 X147.434 Y141.732 E20.50831
G1 F1674.4 X147.571 Y141.389 E20.52812
G1 F1800 X147.893 Y141.054 E20.5513
G1 X147.597 Y140.754 E20.57232
G1 F1666.7 X147.436 Y140.451 E20.59081
G1 F1558.4 X147.434 Y137.172 E20.77976
G1 F1674.4 X147.619 Y136.768 E20.80359
G1 F1800 X148.174 Y136.212 E20.84278
G1 X148.257 Y136.22 E20.84694
G1 X148.252 Y136.141 E20.85089
G1 X148.831 Y135.572 E20.89139
G1 X149.126 Y135.452 E20.90728
G1 X152.476 Y135.452 E21.07441
G1 X152.735 Y135.557 E21.08836
G1 X153.311 Y136.133 E21.129
G1 X153.489 Y136.295 E21.141
G1 X154.03 Y136.836 E21.17917
G1 F1674.4 X154.146 Y137.172 E21.19824
G1 F1558.4 X154.146 Y140.427 E21.3858
G1 F1666.7 X153.988 Y140.748 E21.40508
G1 F1800 X153.687 Y141.054 E21.42649
G1 X153.988 Y141.36 E21.44791
G1 F1674.4 X154.146 Y141.736 E21.46978
G1 F1561.8 X154.145 Y144.987 E21.65671
G1 F1662.8 X154.026 Y145.274 E21.67349
G1 F1795.5 X152.738 Y146.534 E21.76361
G1 F1800 X152.457 Y146.652 E21.77881
G1 F1500 E15.27881
G0 F3600 X152.457 Y146.955
G0 X153.064 Y145.944
G0 X152.198 Y140.195
G0 X152.012 Y140.008
G1 F1500 E21.77881
G1 F1800 X152.012 Y137.548 E21.90154
G1 X149.568 Y137.548 E22.02347
G1 X149.568 Y140.008 E22.1462
G1 X152.012 Y140.008 E22.26813
G1 F1500 E15.76813
G0 F3600 X151.742 Y139.739
G0 X156.045 Y141.052
G0 X158.885 Y141.652
G0 X159.184 Y141.652
G1 F1500 E22.26813
G1 F1800 X159.257 Y141.448 E22.27894
G1 X159.619 Y141.05 E22.30579
G1 X159.357 Y140.787 E22.32431
G1 X159.222 Y140.576 E22.3368
G1 X159.186 Y140.417 E22.34494
G1 X159.184 Y137.548 E22.48807
G1 X156.744 Y137.548 E22.6098
G1 X156.742 Y140.417 E22.75294
G1 X156.671 Y140.653 E22.76523
G1 X156.307 Y141.05 E22.79211
G1 X156.671 Y141.447 E22.81898
G1 X156.744 Y141.652 E22.82983
G1 X156.744 Y144.56 E22.97491
G1 X159.184 Y144.56 E23.09665
G1 X159.184 Y141.652 E23.24173
G1 F1500 E16.74173
G0 F3600 X158.885 Y141.652
G0 X159.371 Y144.748
G0 X160.237 Y145.945
G0 X159.623 Y146.955
G0 X159.623 Y146.652
G1 F1500 E23.24173
G1 F1800 X156.301 Y146.652 E23.40746
G1 X156.014 Y146.534 E23.42294
G1 F1795.5 X154.725 Y145.272 E23.51317
G1 F1662.8 X154.607 Y144.987 E23.52983
G1 F1561.8 X154.606 Y141.736 E23.71675
G1 F1674.4 X154.766 Y141.362 E23.73857
G1 F1800 X155.071 Y141.05 E23.76034
G1 X154.766 Y140.742 E23.78196
G1 F1666.7 X154.606 Y140.424 E23.80114
G1 F1558.4 X154.606 Y137.171 E23.98859
G1 F1674.4 X154.722 Y136.832 E24.00781
G1 F1800 X155.951 Y135.623 E24.09382
G1 X156.125 Y135.505 E24.10431
G1 X156.293 Y135.452 E24.1131
G1 X159.644 Y135.452 E24.28028
G1 X159.914 Y135.573 E24.29504
G1 X160.429 Y136.068 E24.33068
G1 X160.586 Y136.231 E24.34197
G1 X161.115 Y136.741 E24.37863
G1 X161.228 Y136.897 E24.38824
G1 F1678.3 X161.321 Y137.168 E24.40357
G1 F1568.6 X161.32 Y140.419 E24.58968
G1 F1674.4 X161.161 Y140.739 E24.60885
G1 F1800 X160.855 Y141.05 E24.63062
G1 X161.161 Y141.361 E24.65238
G1 F1678.3 X161.321 Y141.736 E24.6742
G1 F1568.6 X161.32 Y144.987 E24.86031
G1 F1666.7 X161.203 Y145.272 E24.87691
G1 F1795.5 X159.895 Y146.555 E24.96855
G1 F1800 X159.623 Y146.652 E24.98296
G0 F3600 X159.623 Y146.955
G0 X166.809 Y146.955
G0 X166.809 Y146.652
G1 F1800 X163.47 Y146.652 E25.14954
G1 X163.197 Y146.554 E25.16401
G1 F1795.5 X161.897 Y145.272 E25.25533
G1 F1666.7 X161.78 Y144.987 E25.27193
G1 F1568.6 X161.779 Y141.736 E25.45805
G1 F1678.3 X161.939 Y141.361 E25.47986
G1 F1800 X162.243 Y141.05 E25.50156
G1 X161.939 Y140.739 E25.52326
G1 F1674.4 X161.78 Y140.419 E25.54242
G1 F1568.6 X161.779 Y137.168 E25.72854
G1 F1678.3 X161.895 Y136.829 E25.74771
G1 F1800 X163.182 Y135.573 E25.83743
G1 X163.464 Y135.452 E25.85274
G1 X166.816 Y135.452 E26.01997
G1 X167.086 Y135.573 E26.03473
G1 X168.289 Y136.743 E26.11845
G1 X168.401 Y136.899 E26.12803
G1 F1678.3 X168.493 Y137.172 E26.14345
G1 F1568.6 X168.492 Y140.424 E26.32962
G1 F1674.4 X168.334 Y140.743 E26.34871
G1 F1800 X168.027 Y141.05 E26.37037
G1 X168.334 Y141.362 E26.39221
G1 F1678.3 X168.493 Y141.736 E26.41396
G1 F1568.6 X168.492 Y144.987 E26.60007
G1 F1670.5 X168.372 Y145.275 E26.61684
G1 F1795.5 X167.062 Y146.561 E26.70866
G1 F1800 X166.809 Y146.652 E26.72207
G1 F1500 E20.22207
G0 F3600 X166.809 Y146.955
G0 X167.41 Y145.945
G0 X166.543 Y144.748
G0 X166.057 Y141.652
G0 X166.356 Y141.652
G1 F1500 E26.72207
G1 F1800 X166.429 Y141.448 E26.73288
G1 X166.791 Y141.05 E26.75972
G1 X166.529 Y140.787 E26.77824
G1 X166.394 Y140.576 E26.79074
G1 X166.358 Y140.417 E26.79887
G1 X166.356 Y137.548 E26.94201
G1 X163.916 Y137.548 E27.06374
G1 X163.914 Y140.417 E27.20688
G1 X163.843 Y140.653 E27.21917
G1 X163.479 Y141.05 E27.24604
G1 X163.843 Y141.447 E27.27291
G1 X163.916 Y141.652 E27.28377
G1 X163.916 Y144.56 E27.42885
G1 X166.356 Y144.56 E27.55058
G1 X166.356 Y141.652 E27.69566
G1 F1500 E21.19566
G0 F3600 X166.057 Y141.652
G0 X167.056 Y141.052
G0 X170.903 Y140.195
G0 X173.26 Y139.739
G0 X173.528 Y140.008
G1 F1500 E27.69566
G1 F1800 X173.528 Y137.548 E27.81839
G1 X171.088 Y137.548 E27.94013
G1 X171.088 Y140.008 E28.06286
G1 X173.528 Y140.008 E28.18459
G1 F1500 E21.68459
G0 F3600 X173.26 Y139.739
G0 X173.26 Y141.922
G0 X173.26 Y144.292
G0 X173.528 Y144.56
G1 F1500 E28.18459
G1 F1800 X173.528 Y142.1 E28.30732
G1 X171.088 Y142.1 E28.42905
G1 X171.088 Y144.56 E28.55178
G1 X173.528 Y144.56 E28.67351
G1 F1500 E22.17351
G0 F3600 X173.26 Y144.292
G0 X174.582 Y145.945
G0 X173.953 Y146.955
G0 X173.953 Y146.65
G1 F1500 E28.67351
G1 F1800 X170.647 Y146.648 E28.83845
G1 X170.384 Y146.563 E28.85224
G1 F1795.5 X169.072 Y145.275 E28.94419
G1 F1670.5 X168.952 Y144.987 E28.96097
G1 F1568.6 X168.951 Y141.735 E29.14714
G1 F1678.3 X169.108 Y141.36 E29.16889
G1 F1800 X169.411 Y141.054 E29.19038
G1 X169.108 Y140.748 E29.21186
G1 F1674.4 X168.952 Y140.427 E29.231
G1 F1568.6 X168.951 Y137.172 E29.41735
G1 F1678.3 X169.067 Y136.834 E29.43647
G1 F1800 X170.354 Y135.573 E29.52636
G1 X170.636 Y135.452 E29.54167
G1 X173.981 Y135.452 E29.70855
G1 X174.237 Y135.541 E29.72208
G1 X174.858 Y136.153 E29.76557
G1 X174.851 Y136.216 E29.76874
G1 X174.913 Y136.209 E29.77185
G1 X175.509 Y136.801 E29.81376
G1 X175.637 Y137.11 E29.83045
G1 X175.631 Y140.459 E29.99753
G1 X175.575 Y140.641 E30.00703
G1 X175.205 Y141.054 E30.03469
G1 X175.575 Y141.467 E30.06236
G1 X175.633 Y141.667 E30.07275
G1 X175.634 Y144.985 E30.23828
G1 X175.518 Y145.301 E30.25508
G1 X174.912 Y145.894 E30.29738
G1 X174.861 Y145.889 E30.29993
G1 X174.866 Y145.945 E30.30274
G1 X174.253 Y146.542 E30.34543
G1 X173.953 Y146.65 E30.36133
G0 F3600 X173.953 Y146.955
G0 X173.214 Y152.989
G0 X173.214 Y156.873
G0 X173.659 Y158.213
G0 X173.962 Y157.935
G1 F1800 X173.762 Y157.8 E30.37337
G1 X173.549 Y157.409 E30.39559
G1 X173.46 Y156.886 E30.42205
G1 X173.502 Y156.507 E30.44108
G1 X173.648 Y156.124 E30.46153
G1 X173.803 Y155.923 E30.47419
G1 X173.957 Y155.827 E30.48325
G1 X174.139 Y155.782 E30.4926
G1 X180.192 Y155.78 E30.79458
G1 X180.522 Y155.86 E30.81152
G1 X181.069 Y156.408 E30.85015
G1 X181.393 Y156.595 E30.86882
G1 X181.85 Y156.741 E30.89275
G1 X182.334 Y156.768 E30.91694
G1 X182.801 Y156.676 E30.94068
G1 X183.124 Y156.532 E30.95833
G1 X183.436 Y156.308 E30.97749
G1 X183.818 Y155.853 E31.00713
G1 X183.977 Y155.531 E31.02504
G1 X184.051 Y155.269 E31.03863
G1 X184.09 Y154.867 E31.05878
G1 X184.011 Y154.33 E31.08586
G1 X183.857 Y153.971 E31.10535
G1 X183.648 Y153.657 E31.12416
G1 X183.464 Y153.47 E31.13725
G1 X183.137 Y153.234 E31.15737
G1 X182.8 Y153.081 E31.17584
G1 X182.253 Y152.982 E31.20357
G1 X181.874 Y153.01 E31.22253
G1 X181.416 Y153.149 E31.24641
G1 X181.004 Y153.403 E31.27056
G1 X180.527 Y153.899 E31.30489
G1 X180.192 Y153.98 E31.32208
G1 X174.139 Y153.978 E31.62407
G1 X173.957 Y153.933 E31.63342
G1 X173.803 Y153.837 E31.64247
