;FLAVOR:Marlin
;TIME:1898
;Filament used: 1.89189m
;Layer height: 0.2
;MINX:116.166
;MINY:139.66
;MINZ:0.2
;MAXX:185.841
;MAXY:162.315
;MAXZ:20
;TARGET_MACHINE.NAME:Unknown
;Generated with Cura_SteamEngine 5.8.0
M140 S60
M105
M190 S60
M104 S195
M105
M109 S195
M82 ;absolute extrusion mode
G28 ;Home
G1 Z15.0 F6000 ;Move the platform down 15mm
;Prime the extruder
G92 E0
G1 F200 E3
G92 E0
G92 E0
G92 E0
G1 F2400 E-6
;LAYER_COUNT:100
;LAYER:0
M107
M204 S3000
M205 X10 Y10
G1 F1200 Z0.275
G0 F6000 X118.419 Y147.263 Z0.275
M204 S300
M205 X8 Y8
;TYPE:SKIRT
G1 F1200 Z0.2
G1 F2400 E0
G1 X119.148 Y146.786 E0.04625
G1 X119.732 Y146.496 E0.08086
G1 X120.41 Y146.244 E0.11925
G1 X120.968 Y146.102 E0.14982
G1 X124.34 Y145.338 E0.33335
G1 X125.339 Y145.129 E0.38753
G1 X128.841 Y144.504 E0.57636
G1 X129.883 Y144.336 E0.63239
G1 X133.4 Y143.88 E0.82065
G1 X134.478 Y143.76 E0.87822
G1 X137.96 Y143.476 E1.06367
G1 X139.044 Y143.406 E1.12134
G1 X142.547 Y143.288 E1.30739
G1 X143.572 Y143.269 E1.36181
G1 X146.582 Y143.273 E1.52159
G1 X149.329 Y143.198 E1.66747
G1 X152.044 Y143.048 E1.81181
G1 X154.751 Y142.82 E1.95601
G1 X157.42 Y142.519 E2.09859
G1 X160.151 Y142.133 E2.245
G1 X162.81 Y141.68 E2.38818
G1 X165.45 Y141.155 E2.53107
G1 X168.151 Y140.535 E2.67817
G1 X171.034 Y139.794 E2.83618
G1 X171.977 Y139.661 E2.88674
G1 X181.348 Y139.66 E3.38418
G1 X182.09 Y139.672 E3.42357
G1 X182.686 Y139.735 E3.45539
G1 X183.264 Y139.889 E3.48714
G1 X183.812 Y140.131 E3.51894
G1 X184.316 Y140.456 E3.55077
G1 X184.762 Y140.854 E3.5825
G1 X185.142 Y141.317 E3.6143
G1 X185.406 Y141.756 E3.64149
G1 X185.653 Y142.348 E3.67554
G1 X185.792 Y142.967 E3.70922
G1 X185.841 Y143.536 E3.73954
G1 X185.833 Y146.927 E3.91954
G1 X185.84 Y147.813 E3.96657
G1 X185.837 Y156.101 E4.40653
G1 X185.828 Y156.756 E4.4413
G1 X185.753 Y157.542 E4.48321
G1 X185.546 Y158.3 E4.52492
G1 X185.196 Y159.171 E4.57475
G1 X184.653 Y160.007 E4.62767
G1 X184.15 Y160.605 E4.66915
G1 X183.321 Y161.31 E4.72692
G1 X182.464 Y161.784 E4.7789
G1 X181.532 Y162.135 E4.83177
G1 X180.521 Y162.315 E4.88628
G1 X179.556 Y162.306 E4.93751
G1 X179.03 Y162.244 E4.96562
G1 X178.234 Y162.059 E5.009
G1 X177.515 Y161.804 E5.0495
G1 X175.906 Y161.197 E5.14079
G1 X173.32 Y160.303 E5.28603
G1 X170.766 Y159.498 E5.42818
G1 X168.131 Y158.752 E5.57355
G1 X165.464 Y158.077 E5.71959
G1 X162.818 Y157.486 E5.86351
G1 X160.157 Y156.97 E6.00739
G1 X157.482 Y156.529 E6.15131
G1 X154.781 Y156.162 E6.296
G1 X152.086 Y155.873 E6.43988
G1 X149.373 Y155.661 E6.58434
G1 X146.648 Y155.524 E6.72917
G1 X143.938 Y155.464 E6.87306
G1 X141.218 Y155.482 E7.01745
G1 X138.469 Y155.577 E7.16346
G1 X135.795 Y155.746 E7.30569
G1 X133.095 Y155.993 E7.44961
G1 X130.346 Y156.324 E7.59659
G1 X127.676 Y156.721 E7.73988
G1 X125.002 Y157.197 E7.88406
G1 X123.127 Y157.581 E7.98566
G1 X122.387 Y157.675 E8.02525
G1 X121.83 Y157.695 E8.05484
G1 X120.96 Y157.585 E8.10139
G1 X120.014 Y157.353 E8.15309
G1 X119.042 Y156.878 E8.21052
G1 X118.327 Y156.401 E8.25615
G1 X117.535 Y155.629 E8.31486
G1 X116.873 Y154.666 E8.37689
G1 X116.486 Y153.748 E8.42977
G1 X116.236 Y152.733 E8.48526
G1 X116.166 Y152.137 E8.51712
G1 X116.194 Y151.365 E8.55813
G1 X116.307 Y150.556 E8.60149
G1 X116.67 Y149.457 E8.66293
G1 X117.195 Y148.57 E8.71764
G1 X117.507 Y148.155 E8.7452
G1 X118.122 Y147.51 E8.79251
G1 X118.419 Y147.263 E8.81301
M204 S3000
M205 X10 Y10
G0 F6000 X118.777 Y147.694
M204 S300
M205 X8 Y8
G1 F2400 X119.4 Y147.286 E8.85255
G1 X119.927 Y147.021 E8.88386
G1 X120.605 Y146.769 E8.92225
G1 X121.092 Y146.648 E8.94889
G1 X124.455 Y145.886 E9.13194
G1 X125.437 Y145.68 E9.1852
G1 X128.931 Y145.057 E9.3736
G1 X129.955 Y144.891 E9.42866
G1 X133.462 Y144.437 E9.61638
G1 X134.523 Y144.318 E9.67305
G1 X137.996 Y144.035 E9.85802
G1 X139.063 Y143.966 E9.91478
G1 X142.557 Y143.848 E10.10036
G1 X143.571 Y143.829 E10.15419
G1 X146.596 Y143.833 E10.31477
G1 X149.344 Y143.758 E10.4607
G1 X152.087 Y143.606 E10.60653
G1 X154.798 Y143.378 E10.75095
G1 X157.487 Y143.075 E10.89459
G1 X160.245 Y142.685 E11.04245
G1 X162.904 Y142.232 E11.18563
G1 X165.575 Y141.701 E11.33019
G1 X168.276 Y141.081 E11.4773
G1 X169.786 Y140.69 E11.5601
G1 X169.884 Y140.673 E11.56538
G1 X171.175 Y140.336 E11.6362
G1 X171.977 Y140.221 E11.67921
G1 X181.34 Y140.22 E12.17623
G1 X182.038 Y140.23 E12.21329
G1 X182.548 Y140.278 E12.24048
G1 X183.044 Y140.404 E12.26764
G1 X183.514 Y140.605 E12.29478
G1 X183.948 Y140.878 E12.32199
G1 X184.333 Y141.214 E12.34912
G1 X184.662 Y141.606 E12.37629
G1 X184.926 Y142.045 E12.40348
G1 X185.118 Y142.52 E12.43068
G1 X185.234 Y143.018 E12.45782
G1 X185.281 Y143.535 E12.48538
G1 X185.273 Y146.926 E12.66538
G1 X185.28 Y147.813 E12.71247
G1 X185.277 Y156.093 E13.152
G1 X185.268 Y156.748 E13.18677
G1 X185.201 Y157.438 E13.22357
G1 X185.026 Y158.091 E13.25946
G1 X184.696 Y158.913 E13.30647
G1 X184.224 Y159.647 E13.3528
G1 X183.753 Y160.207 E13.39164
G1 X182.999 Y160.848 E13.44417
G1 X182.193 Y161.294 E13.49307
G1 X181.383 Y161.593 E13.53891
G1 X180.476 Y161.755 E13.58782
G1 X179.617 Y161.749 E13.63341
G1 X179.154 Y161.698 E13.65814
G1 X178.421 Y161.531 E13.69805
G1 X177.713 Y161.28 E13.73792
G1 X176.104 Y160.673 E13.82921
G1 X173.494 Y159.771 E13.9758
G1 X170.919 Y158.959 E14.11912
G1 X168.284 Y158.213 E14.26449
G1 X165.586 Y157.53 E14.41223
G1 X162.94 Y156.939 E14.55615
G1 X160.252 Y156.418 E14.70149
G1 X157.573 Y155.976 E14.84562
G1 X154.841 Y155.605 E14.99198
G1 X152.146 Y155.316 E15.13586
G1 X149.41 Y155.102 E15.28154
G1 X146.66 Y154.964 E15.4277
G1 X143.946 Y154.904 E15.5718
G1 X141.199 Y154.922 E15.71762
G1 X138.45 Y155.017 E15.86364
G1 X135.744 Y155.188 E16.00757
G1 X133.044 Y155.435 E16.15149
G1 X130.271 Y155.769 E16.29975
G1 X127.594 Y156.167 E16.44342
G1 X124.89 Y156.648 E16.58921
G1 X123.015 Y157.032 E16.69081
G1 X122.367 Y157.115 E16.72548
G1 X121.856 Y157.133 E16.75263
G1 X121.03 Y157.029 E16.79682
G1 X120.205 Y156.823 E16.84196
G1 X119.353 Y156.412 E16.89217
G1 X118.68 Y155.963 E16.93512
G1 X117.963 Y155.264 E16.98827
G1 X117.368 Y154.399 E17.044
G1 X117.018 Y153.569 E17.09182
G1 X116.791 Y152.662 E17.14145
G1 X116.726 Y152.155 E17.16858
G1 X116.749 Y151.442 E17.20645
G1 X116.855 Y150.682 E17.24719
G1 X117.182 Y149.691 E17.30258
G1 X117.643 Y148.907 E17.35086
G1 X117.955 Y148.492 E17.37842
G1 X118.48 Y147.941 E17.41882
G1 X118.777 Y147.694 E17.43933
M204 S3000
M205 X10 Y10
G1 F2400 E11.43933
;MESH:Case_1-Clip.stl
G0 F6000 X134.447 Y146.948
G0 X134.586 Y148.022
G0 X165.675 Y150.035
G0 X166.248 Y146.248
M204 S300
M205 X8 Y8
;TYPE:WALL-INNER
G1 F2400 E17.43933
G1 F1718.2 X166.248 Y149.512 E17.7116
G1 F1704.6 X166.241 Y149.686 E17.72624
M204 S3000
M205 X10 Y10
G0 F6000 X166.419 Y150.641
G0 X171.122 Y152.392
M204 S300
M205 X8 Y8
G1 F2700 X170.603 Y152.386 E17.75379
G1 X169.177 Y151.971 E17.83263
G1 X168.04 Y151.656 E17.89526
G1 X166.892 Y151.354 E17.95827
G1 X166.3 Y151.031 E17.99407
G1 X166.062 Y150.745 E18.01382
G1 X166.032 Y150.641 E18.01957
G1 X165.958 Y150.719 E18.02527
G1 X165.614 Y150.864 E18.04509
G1 X165.106 Y150.913 E18.07218
G1 X160.677 Y149.992 E18.31232
G1 X156.33 Y149.301 E18.54597
G1 X152.053 Y148.836 E18.77434
G1 X147.721 Y148.568 E19.00474
G1 X143.352 Y148.501 E19.23668
G1 X139.011 Y148.647 E19.46725
G1 X134.677 Y148.999 E19.69807
G1 X130.424 Y149.544 E19.92568
G1 X126.08 Y150.316 E20.15988
G1 X121.857 Y151.272 E20.38973
G1 X121.658 Y151.372 E20.40155
G1 X121.478 Y151.575 E20.41595
G1 X121.409 Y151.782 E20.42753
G1 X121.447 Y152.082 E20.44358
G1 X121.659 Y152.336 E20.46115
G1 X121.886 Y152.433 E20.47425
G1 X122.184 Y152.425 E20.49008
G1 X126.272 Y151.482 E20.71278
G1 X130.352 Y150.74 E20.93291
G1 X134.576 Y150.172 E21.15915
G1 X138.723 Y149.816 E21.3801
G1 X142.909 Y149.652 E21.60247
G1 X147.171 Y149.694 E21.82873
G1 X151.311 Y149.926 E22.04883
G1 X155.555 Y150.367 E22.27533
G1 X159.712 Y150.999 E22.49853
G1 X163.812 Y151.825 E22.72055
G1 X167.858 Y152.837 E22.94194
G1 X171.932 Y154.067 E23.16784
G1 X175.82 Y155.444 E23.38679
G1 X179.776 Y157.049 E23.61341
G1 X180.069 Y157.087 E23.6291
G1 X180.297 Y157.008 E23.64191
G1 X180.5 Y156.818 E23.65667
G1 X180.596 Y156.543 E23.67213
G1 X180.599 Y148.901 E24.07779
G1 X174 Y148.9 E24.42808
G1 X173.46 Y148.792 E24.45732
G1 X173.395 Y148.74 E24.46174
G1 X173.396 Y150.142 E24.53616
G1 X173.328 Y150.572 E24.55927
G1 X173.205 Y150.943 E24.58002
G1 X172.954 Y151.383 E24.60691
G1 X172.665 Y151.712 E24.63015
G1 X172.365 Y151.96 E24.65081
G1 X171.935 Y152.202 E24.67701
G1 X171.504 Y152.333 E24.70092
G1 X171.122 Y152.392 E24.72144
M204 S3000
M205 X10 Y10
G0 F6000 X166.639 Y150.769
G0 X166.679 Y150.619
M204 S300
M205 X8 Y8
G1 F2700 X166.536 Y150.447 E24.73331
G1 F2545.5 X166.374 Y150 E24.76008
G1 F1986.9 X166.241 Y149.686 E24.78468
G1 X166.024 Y149.915 E24.80744
G1 F2545.5 X165.674 Y150.236 E24.83418
G1 F2700 X165.468 Y150.323 E24.84605
G1 X165.16 Y150.353 E24.86247
G1 X160.792 Y149.443 E25.09932
G1 X156.404 Y148.746 E25.33517
G1 X152.1 Y148.278 E25.56499
G1 X147.755 Y148.008 E25.79608
G1 X143.333 Y147.941 E26.03084
G1 X138.992 Y148.087 E26.2614
G1 X134.606 Y148.443 E26.49499
G1 X130.312 Y148.995 E26.72481
G1 X125.983 Y149.764 E26.9582
G1 X121.667 Y150.741 E27.1931
G1 X121.347 Y150.902 E27.21212
G1 X121.18 Y151.043 E27.22372
G1 X120.994 Y151.286 E27.23997
G1 X120.85 Y151.711 E27.26379
G1 X120.846 Y151.943 E27.2761
G1 X120.937 Y152.318 E27.29659
G1 X121.055 Y152.524 E27.30919
G1 X121.378 Y152.825 E27.33263
G1 X121.733 Y152.976 E27.3531
G1 X121.936 Y153.007 E27.364
G1 X122.27 Y152.979 E27.3818
G1 X126.373 Y152.033 E27.60531
G1 X130.427 Y151.295 E27.82405
G1 X134.624 Y150.73 E28.04885
G1 X138.771 Y150.374 E28.26979
G1 X142.927 Y150.212 E28.49057
G1 X147.139 Y150.253 E28.71417
G1 X151.277 Y150.485 E28.93417
G1 X155.471 Y150.921 E29.158
G1 X159.602 Y151.548 E29.3798
G1 X163.644 Y152.361 E29.59866
G1 X167.709 Y153.377 E29.82108
G1 X171.745 Y154.595 E30.04487
G1 X175.669 Y155.985 E30.26585
G1 X179.623 Y157.591 E30.49239
G1 X180.001 Y157.654 E30.51274
G1 X180.185 Y157.639 E30.52254
G1 X180.548 Y157.513 E30.54293
G1 X180.724 Y157.397 E30.55412
G1 X180.983 Y157.105 E30.57484
G1 X181.156 Y156.612 E30.60258
G1 X181.159 Y148.341 E31.04163
G1 X174 Y148.34 E31.42165
G1 X173.676 Y148.276 E31.43918
G1 X173.328 Y148.004 E31.46263
G1 F2071.2 X173.005 Y147.674 E31.49458
G1 X172.836 Y148.168 E31.53071
G1 F2700 X172.836 Y150.141 E31.63544
G1 X172.685 Y150.736 E31.66803
G1 X172.482 Y151.083 E31.68937
G1 X172.008 Y151.528 E31.72388
G1 X171.75 Y151.673 E31.73959
G1 X171.113 Y151.832 E31.77444
G1 X170.7 Y151.831 E31.79637
G1 X169.327 Y151.431 E31.87228
G1 X168.182 Y151.114 E31.93535
G1 X167.034 Y150.813 E31.99834
G1 X166.679 Y150.619 E32.01982
M204 S3000
M205 X10 Y10
G0 F6000 X166.639 Y150.769
G0 X170.724 Y151.835
G0 X171.879 Y151.634
G0 X172.412 Y151.194
G0 X172.806 Y150.373
G0 X173.005 Y147.674
M204 S300
M205 X8 Y8
G1 F1697 X172.999 Y145.5 E32.20343
M204 S3000
M205 X10 Y10
G0 F6000 X173.387 Y144.888
M204 S300
M205 X8 Y8
G1 F2005.3 X173.826 Y144.507 E32.24498
G1 X173.171 Y144.366 E32.29287
G1 F2470.6 X172.866 Y144.366 E32.31056
G1 X172.866 Y144.672 E32.32831
G1 F2024.1 X172.999 Y145.5 E32.38769
G1 X173.387 Y144.888 E32.439
M204 S3000
M205 X10 Y10
G0 F6000 X173.826 Y144.507
M204 S300
M205 X8 Y8
G1 F1702.7 X174 Y144.5 E32.45366
G1 F1718.2 X181 Y144.5 E33.03758
M204 S3000
M205 X10 Y10
G0 F6000 X173.172 Y144.672
G0 X172.838 Y150.276
G0 X172.412 Y151.194
G0 X171.879 Y151.634
G0 X171.228 Y151.834
G0 X165.249 Y150.43
G0 X165.39 Y149.754
M204 S300
M205 X8 Y8
;TYPE:WALL-OUTER
G1 F2700 X165.227 Y149.792 E33.04646
G1 X160.893 Y148.892 E33.28143
G1 X156.478 Y148.19 E33.51874
G1 X152.148 Y147.72 E33.74994
G1 X147.777 Y147.448 E33.98241
G1 X143.315 Y147.381 E34.2193
G1 X138.96 Y147.528 E34.45061
G1 X134.535 Y147.887 E34.68627
G1 X130.255 Y148.437 E34.91534
G1 X125.872 Y149.215 E35.15164
G1 X121.476 Y150.21 E35.39089
G1 X121.036 Y150.432 E35.41705
G1 X120.772 Y150.655 E35.4354
G1 X120.51 Y150.997 E35.45827
G1 X120.371 Y151.307 E35.4763
G1 X120.292 Y151.64 E35.49447
G1 X120.285 Y151.986 E35.51284
G1 X120.427 Y152.554 E35.54392
G1 X120.597 Y152.852 E35.56213
G1 X120.831 Y153.116 E35.58086
G1 X121.097 Y153.315 E35.59849
G1 X121.581 Y153.52 E35.62639
G1 X121.918 Y153.57 E35.64448
G1 X122.356 Y153.534 E35.66781
G1 X126.473 Y152.584 E35.89209
G1 X130.502 Y151.85 E36.10949
G1 X134.672 Y151.288 E36.33284
G1 X138.819 Y150.932 E36.55379
G1 X142.959 Y150.772 E36.77372
G1 X147.108 Y150.812 E36.99397
G1 X151.253 Y151.045 E37.21435
G1 X155.387 Y151.475 E37.43498
G1 X159.492 Y152.097 E37.65537
G1 X163.54 Y152.912 E37.87456
G1 X167.565 Y153.919 E38.09481
G1 X171.558 Y155.123 E38.3162
G1 X175.458 Y156.504 E38.53582
G1 X179.469 Y158.133 E38.76562
G1 X179.977 Y158.218 E38.79296
G1 X180.301 Y158.191 E38.81022
G1 X180.798 Y158.019 E38.83814
G1 X181.078 Y157.833 E38.85598
G1 X181.466 Y157.392 E38.88716
G1 X181.615 Y157.084 E38.90533
G1 X181.716 Y156.681 E38.92738
G1 X181.719 Y147.781 E39.39982
G1 X173.919 Y147.78 E39.81387
G1 X173.776 Y147.668 E39.82351
G1 X173.724 Y147.549 E39.83041
G1 X173.72 Y145.5 E39.93917
G1 X173.801 Y145.302 E39.95053
G1 X173.951 Y145.224 E39.9595
G1 X181.72 Y145.22 E40.37191
G1 X181.72 Y143.78 E40.44835
G1 X172.28 Y143.78 E40.94945
G1 X172.276 Y150.141 E41.28711
G1 X172.165 Y150.528 E41.30849
G1 X172.009 Y150.783 E41.32435
G1 X171.565 Y151.145 E41.35476
G1 X171.181 Y151.261 E41.37606
G1 X170.806 Y151.275 E41.39598
G1 X169.477 Y150.891 E41.46941
G1 X168.324 Y150.572 E41.53292
G1 X167.176 Y150.271 E41.59591
G1 X167.01 Y150.149 E41.60685
G1 X166.968 Y150 E41.61507
G1 X166.968 Y145.528 E41.85246
G1 X165.349 Y145.528 E41.9384
G1 X165.278 Y145.585 E41.94323
G1 X165.349 Y145.597 E41.94705
G1 X165.528 Y145.86 E41.96394
G1 X165.525 Y149.561 E42.1604
G1 X165.39 Y149.754 E42.1729
M204 S3000
M205 X10 Y10
G0 F6000 X165.227 Y149.792
G0 X165.195 Y149.786
G0 X165.069 Y150.392
G0 X172.159 Y152.692
M204 S300
M205 X8 Y8
;TYPE:SKIN
G1 F2700 X172.671 Y152.4 E42.20419
G1 X173.004 Y152.127 E42.22705
G1 X173.406 Y151.681 E42.25892
G1 X173.705 Y151.144 E42.29155
G1 X173.838 Y150.745 E42.31387
G1 X173.933 Y150.181 E42.34424
G1 X173.934 Y149.44 E42.38357
G1 X180.056 Y149.441 E42.70855
G1 X180.056 Y156.458 E43.08103
G1 X180.03 Y156.528 E43.08499
G1 X179.932 Y156.526 E43.0902
G1 X176.106 Y154.972 E43.30941
G1 X172.08 Y153.548 E43.53609
G1 X171.068 Y153.242 E43.59222
G1 F2384.9 X170.51 Y152.996 E43.62887
G1 F2253.4 X171.509 Y152.893 E43.69274
G1 F2532.7 X172.159 Y152.692 E43.73125
M204 S3000
M205 X10 Y10
G0 F6000 X151.295 Y150.487
G0 X147.124 Y150.253
G0 X142.947 Y150.216
G0 X139.582 Y150.344
G0 X122.065 Y151.835
M204 S300
M205 X8 Y8
G1 F2256.7 X126.206 Y150.894 E44.00095
G1 F2277.1 X130.416 Y150.138 E44.27017
G1 F2326.2 X134.745 Y149.574 E44.53915
G1 F2362.5 X138.877 Y149.229 E44.7907
G1 F2369.9 X143.145 Y149.075 E45.04898
G1 F2423.1 X147.197 Y149.126 E45.28868
G1 F2430.9 X147.7 Y149.144 E45.31835
G1 F2419.2 X151.424 Y149.365 E45.53937
G1 F2400 X151.993 Y149.412 E45.57346
G1 F2384.9 X155.643 Y149.799 E45.79405
G1 F2373.6 X156.193 Y149.87 E45.82753
G1 F2369.9 X159.758 Y150.424 E46.04572
G1 F2344.2 X160.572 Y150.57 E46.09628
G1 F2333.3 X163.889 Y151.248 E46.30424
G1 F2290.9 X165.052 Y151.514 E46.37888
G1 F1857.5 X165.802 Y151.568 E46.4369
G1 F1639.9 X165.905 Y151.616 E46.44683
G1 F1906.7 X166.74 Y151.935 E46.51402
G1 F2243.3 X168.02 Y152.266 E46.59849
G1 F2204.1 X170.51 Y152.996 E46.76722
M204 S3000
M205 X10 Y10
G0 F6000 X179.776 Y150.474
M204 S300
M205 X8 Y8
G1 F2700 X179.024 Y149.721 E46.82372
M204 S3000
M205 X10 Y10
G0 F6000 X178.232 Y149.721
M204 S300
M205 X8 Y8
G1 F2700 X179.776 Y151.266 E46.93966
M204 S3000
M205 X10 Y10
G0 F6000 X179.776 Y152.058
M204 S300
M205 X8 Y8
G1 F2700 X177.44 Y149.721 E47.11507
M204 S3000
M205 X10 Y10
G0 F6000 X176.647 Y149.721
M204 S300
M205 X8 Y8
G1 F2700 X179.776 Y152.85 E47.34996
M204 S3000
M205 X10 Y10
G0 F6000 X179.776 Y153.642
M204 S300
M205 X8 Y8
G1 F2700 X175.855 Y149.721 E47.64432
M204 S3000
M205 X10 Y10
G0 F6000 X175.063 Y149.721
M204 S300
M205 X8 Y8
G1 F2700 X179.776 Y154.434 E47.99813
M204 S3000
M205 X10 Y10
