; HEADER_BLOCK_START
; generated by OrcaSlicer 2.3.0 on 2025-06-06 at 17:13:59
; total layer number: 60
;_GP_TOTAL_LAYER_NUMBER_PLACEHOLDER
; filament_density: 1.27
; filament_diameter: 1.75
; max_z_height: 12.00
; HEADER_BLOCK_END

; THUMBNAIL_BLOCK_START

;
; THUMBNAIL_BLOCK_END

; THUMBNAIL_BLOCK_START

;
; THUMBNAIL_BLOCK_END

; external perimeters extrusion width = 0.40mm
; perimeters extrusion width = 0.40mm
; infill extrusion width = 0.40mm
; solid infill extrusion width = 0.40mm
; top infill extrusion width = 0.40mm
; first layer extrusion width = 0.40mm

; EXECUTABLE_BLOCK_START
M73 P0 R80
M201 X700 Y600 Z100 E3000
M203 X300 Y300 Z40 E60
M204 P4000 R1000 T4000
M205 X20.00 Y20.00 Z0.30 E5.00 ; sets the jerk limits, mm/sec
;TYPE:Custom
M104 S140;start the nozzle preheat and don't wait
G21;metric values
G90;absolute positioning
M82;set extruder to absolute mode
M107;start with the fan off
G28;home all
M190 S80 ; set wait for bed temp
M355 S1;turn on the case light
M109 S255; wait for extruder temp
G1 Z15.0 F1000 ;move the nozzle up 15mm
G92 E0;zero the extruded length
G1 F100 E60;extrude 60mm of feed stock
G92 E0;zero the extruded length again
G90
G21
M83 ; use relative distances for extrusion
; filament start gcode
M106 S0
;LAYER_CHANGE
;Z:0.2
;HEIGHT:0.2
;BEFORE_LAYER_CHANGE
G92 E0.0
;0.2


G1 E-6 F2400
M73 P0 R79
;AFTER_LAYER_CHANGE
;0.2
;_SET_FAN_SPEED_CHANGING_LAYER
M204 S1000
G1 Z.6 F7200
G1 X113.93 Y119.934
G1 Z.6
G1 Z.2
G1 E6 F2400
;TYPE:Skirt
;WIDTH:0.4
G1 F3000
G1 X114.874 Y119.86 E.0267
G1 X185.762 Y119.86 E1.99952
G1 X186.733 Y119.936 E.02749
G1 X188.052 Y120.266 E.03835
G1 X189.115 Y120.723 E.03262
G1 X190.653 Y121.82 E.0533
G1 X191.86 Y123.282 E.05347
G1 X192.243 Y124.015 E.02333
G1 X192.534 Y124.73 E.02177
G1 X192.972 Y127.029 E.06602
G1 X192.974 Y172.949 E1.29526
G1 X192.565 Y175.174 E.06382
G1 X192.243 Y175.985 E.0246
G1 X191.188 Y177.623 E.05495
G1 X189.536 Y179.042 E.06145
G1 X188.946 Y179.363 E.01892
G1 X187.799 Y179.817 E.0348
G1 X186.733 Y180.064 E.03087
G1 X185.808 Y180.139 E.02617
G1 X114.863 Y180.14 E2.00115
G1 X113.911 Y180.066 E.02694
G1 X112.836 Y179.817 E.03112
G1 X111.688 Y179.362 E.03482
G1 X111.1 Y179.042 E.01889
G1 X109.447 Y177.623 E.06145
G1 X108.54 Y176.297 E.04531
G1 X108.083 Y175.234 E.03263
G1 X107.753 Y173.916 E.03835
G1 X107.678 Y172.951 E.0273
G1 X107.678 Y127.038 E1.29506
G1 X107.752 Y126.093 E.02672
G1 X108.001 Y125.018 E.03112
G1 X108.455 Y123.87 E.03482
G1 X108.775 Y123.282 E.01889
G1 X110.195 Y121.629 E.06144
G1 X111.521 Y120.723 E.04531
G1 X112.583 Y120.266 E.03262
G1 X113.89 Y119.939 E.03801
G1 X113.952 Y120.289 F7200
G1 F3000
G1 X114.874 Y120.218 E.02607
G1 X185.762 Y120.218 E1.99952
G1 X186.683 Y120.289 E.02607
G1 X187.941 Y120.605 E.03659
G1 X188.953 Y121.041 E.03106
G1 X190.416 Y122.086 E.05072
G1 X191.553 Y123.465 E.05042
G1 X191.916 Y124.159 E.0221
G1 X192.202 Y124.861 E.02137
G1 X192.615 Y127.029 E.06225
G1 X192.617 Y172.949 E1.29526
G1 X192.231 Y175.047 E.06018
G1 X191.916 Y175.841 E.02408
G1 X190.922 Y177.385 E.05181
G1 X189.353 Y178.736 E.0584
G1 X188.784 Y179.045 E.01825
G1 X187.688 Y179.477 E.03324
G1 X186.683 Y179.711 E.02911
G1 X185.806 Y179.782 E.02483
G1 X114.863 Y179.782 E2.00105
G1 X113.96 Y179.712 E.02555
M73 P1 R79
G1 X112.947 Y179.477 E.02934
G1 X111.85 Y179.044 E.03326
G1 X111.282 Y178.736 E.01822
G1 X109.714 Y177.385 E.05839
G1 X108.859 Y176.135 E.04272
G1 X108.423 Y175.123 E.03106
G1 X108.107 Y173.866 E.03659
G1 X108.035 Y172.95 E.02589
G1 X108.035 Y127.039 E1.29502
G1 X108.106 Y126.143 E.02535
G1 X108.34 Y125.129 E.02935
G1 X108.773 Y124.032 E.03326
G1 X109.082 Y123.465 E.01822
G1 X110.433 Y121.896 E.05839
G1 X111.683 Y121.041 E.04272
G1 X112.694 Y120.605 E.03106
G1 X113.913 Y120.299 E.03546
G1 X114 Y120.643 F7200
G1 F3000
G1 X114.002 Y120.643 E.00006
G1 X114.874 Y120.575 E.02466
G1 X185.762 Y120.575 E1.99952
G1 X186.633 Y120.643 E.02466
G1 X187.83 Y120.945 E.03482
G1 X188.791 Y121.359 E.0295
G1 X190.178 Y122.352 E.04813
G1 X191.247 Y123.648 E.04736
G1 X191.59 Y124.303 E.02087
G1 X191.87 Y124.992 E.02098
G1 X192.258 Y127.029 E.05848
G1 X192.26 Y172.949 E1.29526
G1 X191.897 Y174.92 E.05653
G1 X191.59 Y175.697 E.02356
G1 X190.655 Y177.147 E.04867
G1 X189.17 Y178.429 E.05534
G1 X187.577 Y179.138 E.04917
G1 X186.633 Y179.357 E.02734
G1 X185.803 Y179.425 E.02349
G1 X114.864 Y179.425 E2.00096
G1 X114.01 Y179.358 E.02417
G1 X113.058 Y179.138 E.02757
G1 X112.012 Y178.726 E.0317
G1 X111.465 Y178.429 E.01755
G1 X109.98 Y177.147 E.05534
G1 X109.177 Y175.973 E.04013
G1 X108.762 Y175.013 E.0295
G1 X108.46 Y173.815 E.03482
G1 X108.392 Y172.95 E.02449
G1 X108.392 Y127.04 E1.29498
G1 X108.459 Y126.192 E.02398
G1 X108.68 Y125.24 E.02757
G1 X109.092 Y124.194 E.0317
G1 X109.389 Y123.648 E.01755
G1 X110.67 Y122.162 E.05534
G1 X111.845 Y121.359 E.04013
G1 X112.805 Y120.945 E.0295
G1 X113.961 Y120.653 E.03364
G1 X114.049 Y120.997 F7200
G1 F3000
G1 X114.052 Y120.996 E.0001
G1 X114.874 Y120.932 E.02324
G1 X185.762 Y120.932 E1.99952
G1 X186.583 Y120.996 E.02324
G1 X187.719 Y121.284 E.03306
G1 X188.629 Y121.677 E.02794
G1 X189.94 Y122.619 E.04554
G1 X190.94 Y123.83 E.04431
G1 X191.263 Y124.447 E.01965
G1 X191.538 Y125.124 E.02059
G1 X191.901 Y127.029 E.0547
G1 X191.903 Y172.949 E1.29526
G1 X191.564 Y174.793 E.05288
G1 X191.263 Y175.553 E.02304
G1 X190.389 Y176.91 E.04553
G1 X188.987 Y178.122 E.05229
G1 X187.467 Y178.798 E.04694
G1 X186.583 Y179.004 E.02558
G1 X185.8 Y179.068 E.02216
G1 X114.865 Y179.068 E2.00087
G1 X114.059 Y179.005 E.02279
G1 X113.169 Y178.798 E.02579
G1 X112.174 Y178.408 E.03014
G1 X111.648 Y178.122 E.01688
G1 X110.246 Y176.91 E.05228
G1 X109.495 Y175.811 E.03754
G1 X109.102 Y174.902 E.02794
G1 X108.814 Y173.765 E.03306
G1 X108.749 Y172.95 E.02309
G1 X108.749 Y127.041 E1.29494
G1 X108.813 Y126.242 E.02261
G1 X109.019 Y125.351 E.02579
G1 X109.41 Y124.356 E.03014
G1 X109.695 Y123.83 E.01688
G1 X110.908 Y122.429 E.05228
G1 X112.007 Y121.677 E.03754
G1 X112.916 Y121.284 E.02794
G1 X114.01 Y121.007 E.03183
; printing object DC33_Cnet_Badge_Case-Top Case - CNet Logo.stl id:0 copy 0
G1 E-5.2 F2400
;WIPE_START
G1 F3000
G1 X114.052 Y120.996 E-.03496
G1 X114.874 Y120.932 E-.65927
G1 X115.006 Y120.932 E-.10577
;WIPE_END
G1 Z.6 F7200
G1 X179.443 Y173.695 Z.6
G1 Z.2
G1 E6 F2400
;TYPE:Outer wall
;WIDTH:0.43056
G1 F2700
G1 X173.499 Y173.695 E.18202
G1 E-5.11111 F2400
;WIPE_START
G1 F2700
G1 X174.499 Y173.695 E-.88889
;WIPE_END
G1 Z.6 F7200
G1 X175.032 Y140.462 Z.6
G1 Z.2
G1 E6 F2400
;WIDTH:0.38292
G1 F2700
G1 X174.549 Y139.986 E.01823
G1 X170.672 Y140.462 F7200
G1 F2700
G1 X171.156 Y139.986 E.01823
G1 X167.867 Y140.455 F7200
G1 F2700
G1 X167.381 Y139.978 E.0183
G1 X164.951 Y139.981 F7200
G1 F2700
G1 X164.471 Y140.45 E.01803
;WIDTH:0.408996
G1 X164.421 Y140.497 E.00198
;WIDTH:0.435072
G1 X164.371 Y140.545 E.00213
G1 X164.086 Y140.264 E.0124
;WIDTH:0.408996
G1 X163.801 Y139.983 E.01158
;WIDTH:0.38292
G1 X163.799 Y139.981 E.00007
G1 X160.883 Y140.455 F7200
G1 F2700
G1 X161.37 Y139.978 E.0183
G1 X158.068 Y140.462 F7200
G1 F2700
G1 X157.585 Y139.986 E.01823
G1 X157.578 Y136.578 F7200
G1 F2700
G1 X158.059 Y136.098 E.01823
G1 X158.06 Y135.9 E.00531
G1 X157.586 Y135.431 E.01791
G1 X158.738 Y135.999 F7200
;TYPE:Inner wall
;WIDTH:0.399999
G1 F2700
G1 X158.997 Y135.877 E.00808
G1 X159.176 Y135.741 E.00635
G1 X159.302 Y135.444 E.0091
;WIDTH:0.446672
G1 X159.338 Y135.337 E.0036
;WIDTH:0.493345
G1 X159.373 Y135.229 E.00402
;WIDTH:0.540018
G1 X159.409 Y135.122 E.00443
;WIDTH:0.586691
G1 X159.444 Y135.015 E.00485
;WIDTH:0.633364
G1 X159.479 Y134.908 E.00526
G1 X159.525 Y135.051 E.007
;WIDTH:0.586691
G1 X159.571 Y135.194 E.00645
;WIDTH:0.540018
G1 X159.616 Y135.337 E.00589
;WIDTH:0.493345
G1 X159.662 Y135.48 E.00534
;WIDTH:0.446672
G1 X159.708 Y135.623 E.00479
;WIDTH:0.399999
G1 X159.848 Y135.801 E.0064
G1 X160.223 Y135.998 E.01194
G1 X159.961 Y136.128 E.00825
G1 X159.784 Y136.263 E.00627
G1 X159.657 Y136.555 E.00899
;WIDTH:0.448504
G1 X159.622 Y136.657 E.00346
;WIDTH:0.497009
G1 X159.586 Y136.759 E.00387
;WIDTH:0.545514
G1 X159.55 Y136.86 E.00428
;WIDTH:0.594019
G1 X159.515 Y136.962 E.00469
;WIDTH:0.642524
G1 X159.479 Y137.064 E.00511
G1 X159.434 Y136.927 E.00686
;WIDTH:0.594019
G1 X159.388 Y136.789 E.0063
;WIDTH:0.545514
G1 X159.343 Y136.652 E.00575
;WIDTH:0.497009
G1 X159.297 Y136.514 E.00519
;WIDTH:0.448504
G1 X159.251 Y136.377 E.00464
;WIDTH:0.399999
G1 X159.11 Y136.197 E.00646
G1 X158.773 Y136.018 E.01076
G1 X156.667 Y137.489 F7200
G1 F2700
G1 X156.612 Y137.944 E.01292
G1 X156.606 Y138.513 E.01607
G1 X156.666 Y139.064 E.01563
G1 X156.22 Y139.01 E.01268
G1 X155.659 Y139.004 E.01581
G1 X155.11 Y139.064 E.01559
G1 X155.164 Y138.617 E.01272
G1 X155.17 Y138.043 E.01619
G1 X155.109 Y137.489 E.01571
G1 X155.56 Y137.544 E.01283
G1 X156.116 Y137.549 E.01568
G1 X156.627 Y137.493 E.01449
G1 X157.151 Y137.004 F7200
G1 F2700
G1 X157.04 Y137.439 E.01269
G1 X156.967 Y137.986 E.01557
G1 X156.963 Y138.512 E.01483
G1 X157.022 Y139.036 E.01487
G1 X157.151 Y139.55 E.01495
G1 X156.723 Y139.438 E.01248
G1 X156.178 Y139.365 E.0155
G1 X155.659 Y139.362 E.01464
G1 X155.138 Y139.421 E.01481
G1 X154.624 Y139.55 E.01493
G1 X154.736 Y139.121 E.0125
G1 X154.809 Y138.574 E.01557
G1 X154.813 Y138.046 E.01491
G1 X154.753 Y137.521 E.0149
G1 X154.624 Y137.004 E.01503
G1 X155.056 Y137.117 E.01259
G1 X155.6 Y137.189 E.01547
G1 X156.116 Y137.192 E.01456
G1 X156.638 Y137.133 E.01481
G1 X157.113 Y137.013 E.0138
G1 X154.198 Y136.578 F7200
;TYPE:Outer wall
;WIDTH:0.38292
G1 F2700
G1 X153.717 Y136.098 E.01823
G1 X157.578 Y136.578 F7200
;WIDTH:0.388397
G1 F2700
G1 X157.533 Y136.668 E.00277
;WIDTH:0.399999
G1 X157.508 Y137.05 E.01079
G1 X157.376 Y137.568 E.01508
G1 X157.32 Y138.287 E.02032
G1 X157.376 Y138.992 E.01997
G1 X157.492 Y139.397 E.01188
G1 X157.534 Y139.886 E.01382
;WIDTH:0.38889
G1 X157.585 Y139.986 E.00307
;WIDTH:0.388571
G1 X157.491 Y139.933 E.00293
;WIDTH:0.399999
G1 X157.11 Y139.907 E.01078
G1 X156.593 Y139.775 E.01505
G1 X155.888 Y139.719 E.01996
G1 X155.183 Y139.775 E.01996
G1 X154.778 Y139.891 E.01187
G1 X154.289 Y139.932 E.01385
;WIDTH:0.38889
G1 X154.191 Y139.986 E.00304
;WIDTH:0.388571
G1 X154.241 Y139.891 E.00293
;WIDTH:0.399999
G1 X154.267 Y139.51 E.01078
G1 X154.399 Y138.992 E.01506
G1 X154.456 Y138.267 E.02052
G1 X154.399 Y137.568 E.01978
G1 X154.283 Y137.163 E.01189
G1 X154.243 Y136.67 E.01396
;WIDTH:0.388509
G1 X154.198 Y136.578 E.00281
;WIDTH:0.388398
G1 X154.289 Y136.622 E.00277
;WIDTH:0.399999
G1 X154.666 Y136.646 E.01066
G1 X155.189 Y136.779 E.01522
G1 X155.888 Y136.835 E.01978
G1 X156.587 Y136.779 E.01978
G1 X156.993 Y136.664 E.0119
G1 X157.485 Y136.622 E.01394
;WIDTH:0.388508
G1 X157.542 Y136.595 E.00172
G1 E-5.11111 F2400
;WIPE_START
G1 F2700
G1 X157.533 Y136.668 E-.06576
G1 X157.508 Y137.05 E-.34003
G1 X157.376 Y137.568 E-.47533
G1 X157.376 Y137.577 E-.00777
;WIPE_END
G1 Z.6 F7200
G1 X152.526 Y132.115 Z.6
G1 Z.2
G1 E6 F2400
;TYPE:Inner wall
;WIDTH:0.399999
G1 F2700
G1 X152.553 Y132.536 E.01189
G1 X152.556 Y134.397 E.05251
G1 X152.542 Y134.943 E.01541
G1 X152.484 Y135.474 E.01507
;WIDTH:0.433649
G1 X152.431 Y135.674 E.00638
;WIDTH:0.467298
G1 X152.378 Y135.874 E.00693
G1 X152.673 Y135.683 E.01177
;WIDTH:0.433649
G1 X152.968 Y135.493 E.01084
;WIDTH:0.399999
G1 X153.145 Y135.422 E.00537
G1 X153.573 Y134.794 E.02143
G1 X153.88 Y134.578 E.01061
G1 X154.167 Y134.509 E.00832
G1 X155.145 Y134.442 E.02764
G1 X156.029 Y134.449 E.02494
G1 X156.674 Y134.512 E.01828
G1 X156.611 Y133.975 E.01524
G1 X156.594 Y131.366 E.0736
G1 X156.685 Y130.97 E.01145
G1 X156.855 Y130.731 E.00828
G1 X157.53 Y130.056 E.02694
G1 X157.764 Y129.888 E.00812
G1 X158.162 Y129.794 E.01153
G1 X158.379 Y129.821 E.00616
G1 X158.719 Y129.989 E.01073
G1 X159.468 Y130.731 E.02973
G1 X160.165 Y130.056 E.02737
G1 X160.302 Y129.944 E.005
G1 X160.642 Y129.807 E.01035
G1 X160.951 Y129.807 E.0087
G1 X161.195 Y129.888 E.00725
G1 X161.429 Y130.056 E.00812
G1 X162.103 Y130.732 E.02695
G1 X162.245 Y130.916 E.00654
G1 X162.329 Y131.115 E.0061
G1 X162.364 Y131.371 E.0073
G1 X162.353 Y134.856 E.09829
G1 X162.292 Y135.48 E.01769
G1 X162.191 Y135.81 E.00973
G1 X162.04 Y136.001 E.00684
;WIDTH:0.432323
G1 X162.269 Y136.334 E.01244
;WIDTH:0.474445
G1 X162.34 Y136.62 E.01005
G1 X162.378 Y137.131 E.01746
;WIDTH:0.453921
G1 X162.38 Y138.51 E.04477
;WIDTH:0.483098
G1 X162.339 Y139.021 E.01783
G1 X162.835 Y139.035 E.01724
G1 X162.791 Y138.51 E.01831
;WIDTH:0.453921
G1 X162.786 Y137.129 E.04484
;WIDTH:0.474445
G1 X162.77 Y136.596 E.01817
G1 X162.83 Y136.329 E.00933
;WIDTH:0.432323
G1 X163.068 Y135.96 E.01351
;WIDTH:0.399999
G1 X163.743 Y135.284 E.02695
G1 X163.882 Y135.17 E.00507
G1 X164.146 Y135.052 E.00815
G1 X164.376 Y135.022 E.00654
G1 X164.674 Y135.073 E.00852
G1 X165.101 Y135.378 E.01482
G1 X165.682 Y135.96 E.02319
;WIDTH:0.432298
G1 X165.92 Y136.329 E.01351
;WIDTH:0.474445
G1 X165.98 Y136.596 E.00932
G1 X165.965 Y137.129 E.01817
;WIDTH:0.453922
G1 X165.959 Y138.51 E.04484
;WIDTH:0.483099
G1 X165.916 Y139.035 E.01831
G1 X166.411 Y139.021 E.01724
G1 X166.37 Y138.51 E.01783
;WIDTH:0.453922
G1 X166.372 Y137.131 E.04477
;WIDTH:0.474445
G1 X166.41 Y136.62 E.01746
G1 X166.481 Y136.334 E.01005
;WIDTH:0.432298
G1 X166.71 Y136.001 E.01245
;WIDTH:0.399999
G1 X166.56 Y135.81 E.00685
G1 X166.458 Y135.48 E.00974
G1 X166.401 Y134.929 E.01564
G1 X166.386 Y131.363 E.10058
G1 X166.421 Y131.115 E.00706
G1 X166.506 Y130.916 E.0061
G1 X167.322 Y130.056 E.03344
G1 X167.59 Y129.871 E.0092
G1 X167.954 Y129.794 E.01048
G1 X168.283 Y129.857 E.00947
G1 X168.585 Y130.056 E.0102
G1 X169.26 Y130.732 E.02695
G1 X169.447 Y131.008 E.00939
G1 X169.496 Y131.24 E.00671
G1 X169.839 Y130.985 E.01207
G1 X170.112 Y130.873 E.00834
G1 X170.652 Y130.136 E.02574
G1 X170.856 Y130.02 E.00663
G1 X171.096 Y129.959 E.00699
G1 X171.618 Y129.902 E.01481
G1 X172.622 Y129.886 E.02831
G1 X173.996 Y129.897 E.03878
G1 X174.608 Y129.959 E.01735
G1 X174.85 Y130.02 E.00703
G1 X175.11 Y130.184 E.00867
G1 X175.375 Y130.583 E.01352
G1 X175.599 Y130.879 E.01049
G1 X176.013 Y131.088 E.01306
G1 X176.148 Y131.196 E.00488
G1 X176.255 Y130.927 E.00815
G1 X177.033 Y130.142 E.03118
G1 X177.345 Y129.943 E.01046
G1 X177.659 Y129.886 E.00901
G1 X180.022 Y129.887 E.06665
G1 X180.575 Y129.902 E.01558
G1 X181.096 Y129.959 E.01481
G1 X181.375 Y130.037 E.00817
G1 X181.6 Y130.186 E.00763
G1 X181.804 Y130.459 E.00959
G1 X181.912 Y130.683 E.00703
G1 X182.085 Y130.878 E.00736
G1 X182.501 Y131.088 E.01313
G1 X182.82 Y131.342 E.0115
G1 X183.051 Y131.619 E.01016
G1 X183.156 Y132.004 E.01127
G1 X183.179 Y132.561 E.01572
G1 X183.181 Y134.404 E.05199
G1 X183.166 Y134.959 E.01566
G1 X183.109 Y135.483 E.01487
G1 X183.015 Y135.795 E.00919
G1 X182.802 Y136.004 E.00841
G1 X183.015 Y136.213 E.00841
G1 X183.109 Y136.524 E.00919
G1 X183.171 Y137.094 E.01615
G1 X183.182 Y138.966 E.05281
G1 X183.156 Y139.989 E.02888
G1 X183.053 Y140.384 E.0115
G1 X182.819 Y140.666 E.01036
G1 X182.415 Y140.978 E.01439
G1 X182.043 Y141.184 E.01199
G1 X181.913 Y141.313 E.00516
G1 X181.753 Y141.633 E.0101
G1 X181.463 Y141.917 E.01146
G1 X181.107 Y142.04 E.0106
G1 X180.096 Y142.11 E.02859
G1 X179.138 Y142.114 E.02703
G1 X177.659 Y142.114 E.04172
G1 X177.318 Y142.047 E.00979
G1 X177.03 Y141.855 E.00976
G1 X176.352 Y141.183 E.02693
G1 X176.187 Y140.957 E.00789
G1 X176.151 Y140.808 E.00432
G1 X175.795 Y141.046 E.01205
G1 X175.592 Y141.129 E.00619
G1 X175.378 Y141.413 E.01004
G1 X175.113 Y141.814 E.01357
G1 X174.816 Y141.993 E.00976
G1 X174.086 Y142.098 E.02081
G1 X173.345 Y142.108 E.02091
G1 X171.704 Y142.103 E.04628
G1 X171.096 Y142.041 E.01725
G1 X170.783 Y141.947 E.00923
G1 X170.51 Y141.73 E.00982
G1 X170.112 Y141.129 E.02033
G1 X169.681 Y140.909 E.01365
G1 X169.234 Y140.514 E.01683
G1 X168.939 Y140.748 E.01061
G1 X168.711 Y140.855 E.0071
G1 X168.533 Y141.017 E.00678
G1 X168.317 Y141.44 E.01342
G1 X167.952 Y141.87 E.0159
G1 X167.663 Y142.038 E.00941
G1 X167.404 Y142.088 E.00745
G1 X166.877 Y142.11 E.01488
G1 X165.497 Y142.103 E.03891
G1 X164.891 Y142.041 E.01718
G1 X164.671 Y141.987 E.00639
G1 X164.507 Y141.904 E.0052
