;FLAVOR:Marlin
;TIME:1157
;Filament used: 0.911087m
;Layer height: 0.15
;MINX:133.664
;MINY:130.742
;MINZ:0.3
;MAXX:168.336
;MAXY:160.004
;MAXZ:24.15
;TARGET_MACHINE.NAME:Unknown
;Generated with Cura_SteamEngine 5.7.2
M104 S228
M105
M109 S228
M82 ;absolute extrusion mode
; Script based on an original created by tjjfvi (https://github.com/tjjfvi)
; An up-to-date version of the tjjfvi's original script can be found
; here:  https://csi.t6.fyi/
; Note - This script will only work in Cura V4.2 and above!
; --- Global Settings
; layer_height = 0.15
; smooth_spiralized_contours = True
; magic_mesh_surface_mode = normal
; machine_extruder_count = 1
; --- Single Extruder Settings
; speed_z_hop = 10
; retraction_amount = 6.5
; retraction_hop = 1
; retraction_hop_enabled = False
; retraction_enable = True
; retraction_speed = 25
; retraction_retract_speed = 25
; retraction_prime_speed = 25
; speed_travel = 120

G28 ;Home
G1 Z15.0 F6000 ;Move the platform down 15mm
;Prime the extruder
G92 E0
G1 F200 E3
G92 E0
G92 E0
G92 E0
G1 F1500 E-6.5
;LAYER_COUNT:160
;LAYER:0
M107
G0 F3600 X136.89 Y133.094 Z0.3
;TYPE:SKIRT
G1 F1500 E0
G1 F1800 X138.243 Y132.002 E0.08674
G1 X140.222 Y131.016 E0.19705
G1 X141.746 Y130.794 E0.27389
G1 X160.123 Y130.742 E1.19072
G1 X162.181 Y131.165 E1.29554
G1 X164.06 Y132.231 E1.40332
G1 X164.941 Y132.921 E1.45915
G1 X166.046 Y134.298 E1.54724
G1 X167.043 Y136.303 E1.65895
G1 X167.285 Y138.34 E1.76129
G1 X167.23 Y140.187 E1.85348
G1 X167.01 Y141.54 E1.92187
G1 X166.327 Y143 E2.00228
G1 X166.103 Y143.51 E2.03007
G1 X165.504 Y144.758 E2.09914
G1 X164.848 Y145.456 E2.14693
G1 X165.942 Y146.303 E2.21595
G1 X167.056 Y147.69 E2.30471
G1 X168.001 Y149.583 E2.41026
G1 X168.336 Y151.724 E2.51838
G1 X168.174 Y153.452 E2.60496
G1 X167.844 Y154.949 E2.68144
G1 X166.906 Y156.634 E2.77766
G1 X166.194 Y157.591 E2.83717
G1 X164.761 Y158.741 E2.92883
G1 X162.779 Y159.73 E3.03934
G1 X161.254 Y159.952 E3.11623
G1 X140.878 Y160.004 E4.13279
G1 X138.821 Y159.582 E4.23755
G1 X137.05 Y158.587 E4.3389
G1 X136.058 Y157.819 E4.40149
G1 X134.944 Y156.432 E4.49024
G1 X133.999 Y154.539 E4.5958
G1 X133.664 Y152.398 E4.70391
G1 X133.826 Y150.67 E4.7905
G1 X134.156 Y149.173 E4.86698
G1 X135.094 Y147.488 E4.96319
G1 X135.803 Y146.537 E5.02237
G1 X137.094 Y145.501 E5.10496
G1 X136.438 Y144.701 E5.15657
G1 X135.733 Y143.192 E5.23967
G1 X135.596 Y142.823 E5.2593
G1 X134.963 Y141.555 E5.33001
G1 X134.724 Y139.719 E5.42238
G1 X134.696 Y137.948 E5.51075
G1 X135.124 Y135.856 E5.61728
G1 X136.117 Y134.091 E5.71831
G1 X136.89 Y133.094 E5.78125
G0 F3600 X137.178 Y133.375
G1 F1800 X138.46 Y132.341 E5.86342
G1 X140.342 Y131.403 E5.96833
G1 X141.804 Y131.19 E6.04204
G1 X160.081 Y131.142 E6.95389
G1 X162.04 Y131.545 E7.05367
G1 X163.813 Y132.546 E7.15525
G1 X164.659 Y133.209 E7.20887
G1 X165.707 Y134.515 E7.29242
G1 X166.654 Y136.419 E7.39851
G1 X166.885 Y138.329 E7.49449
G1 X166.835 Y140.123 E7.58403
G1 X166.624 Y141.422 E7.64969
G1 X165.965 Y142.83 E7.72725
G1 X165.742 Y143.337 E7.75488
G1 X165.17 Y144.529 E7.82084
G1 X164.198 Y145.564 E7.89168
G1 X164.705 Y145.851 E7.92074
G1 X165.66 Y146.59 E7.98099
G1 X166.716 Y147.905 E8.06513
G1 X167.616 Y149.707 E8.16562
G1 X167.933 Y151.737 E8.26812
G1 X167.783 Y153.366 E8.34974
G1 X167.466 Y154.804 E8.4232
G1 X166.556 Y156.439 E8.51656
G1 X165.903 Y157.312 E8.57095
G1 X164.546 Y158.401 E8.65775
G1 X162.658 Y159.343 E8.76302
G1 X161.196 Y159.556 E8.83673
G1 X140.919 Y159.604 E9.84836
G1 X138.962 Y159.202 E9.94803
G1 X137.295 Y158.271 E10.04329
G1 X136.34 Y157.532 E10.10353
G1 X135.284 Y156.217 E10.18767
G1 X134.384 Y154.415 E10.28816
G1 X134.067 Y152.385 E10.39067
G1 X134.217 Y150.756 E10.47228
G1 X134.534 Y149.318 E10.54575
G1 X135.444 Y147.683 E10.6391
G1 X136.094 Y146.816 E10.69316
G1 X137.429 Y145.744 E10.77858
G1 X137.694 Y145.602 E10.79358
G1 X136.778 Y144.485 E10.86565
G1 X136.108 Y143.052 E10.94457
G1 X135.965 Y142.668 E10.96501
G1 X135.352 Y141.438 E11.03358
G1 X135.124 Y139.713 E11.12039
G1 X135.097 Y137.986 E11.20656
G1 X135.504 Y135.997 E11.30785
G1 X136.433 Y134.336 E11.40279
G1 X137.178 Y133.375 E11.46346
G0 F3600 X137.466 Y133.656
G1 F1800 X138.677 Y132.68 E11.54105
G1 X140.462 Y131.79 E11.64056
G1 X141.862 Y131.586 E11.71115
G1 X160.039 Y131.542 E12.618
G1 X161.898 Y131.924 E12.71269
G1 X163.566 Y132.861 E12.80814
G1 X164.377 Y133.497 E12.85956
G1 X165.368 Y134.732 E12.93855
G1 X166.265 Y136.535 E13.03902
G1 X166.485 Y138.319 E13.1287
G1 X166.44 Y140.059 E13.21554
G1 X166.238 Y141.304 E13.27847
G1 X165.603 Y142.66 E13.35317
G1 X165.381 Y143.164 E13.38064
G1 X164.836 Y144.3 E13.4435
G1 X163.555 Y145.664 E13.53686
G1 X164.46 Y146.167 E13.58851
G1 X165.378 Y146.877 E13.64641
G1 X166.376 Y148.12 E13.72594
G1 X167.231 Y149.831 E13.82137
G1 X167.53 Y151.751 E13.91831
G1 X167.392 Y153.28 E13.9949
G1 X167.088 Y154.661 E14.06545
G1 X166.236 Y156.199 E14.15317
G1 X165.614 Y157.03 E14.20496
G1 X164.327 Y158.064 E14.28732
G1 X162.538 Y158.956 E14.38705
G1 X161.138 Y159.16 E14.45764
G1 X140.961 Y159.204 E15.46427
G1 X139.103 Y158.822 E15.55891
G1 X137.54 Y157.955 E15.64808
G1 X136.622 Y157.245 E15.70598
G1 X135.624 Y156.002 E15.78551
G1 X134.769 Y154.291 E15.88093
G1 X134.47 Y152.371 E15.97788
G1 X134.608 Y150.842 E16.05447
G1 X134.912 Y149.461 E16.12502
G1 X135.764 Y147.923 E16.21274
G1 X136.384 Y147.096 E16.2643
G1 X137.679 Y146.056 E16.34717
G1 X138.321 Y145.737 E16.38293
G1 X137.119 Y144.27 E16.47755
G1 X136.483 Y142.912 E16.55236
G1 X136.334 Y142.513 E16.57361
G1 X135.741 Y141.321 E16.64003
G1 X135.521 Y139.66 E16.72363
G1 X135.498 Y138.024 E16.80525
G1 X135.883 Y136.138 E16.90129
G1 X136.749 Y134.581 E16.99017
G1 X137.466 Y133.656 E17.04856
G0 F3600 X137.751 Y133.94
G1 F1800 X138.897 Y133.017 E17.12198
G1 X140.582 Y132.177 E17.21591
G1 X141.92 Y131.982 E17.28337
G1 X159.997 Y131.942 E18.18523
G1 X161.758 Y132.304 E18.27493
G1 X163.319 Y133.176 E18.36413
G1 X164.095 Y133.785 E18.41335
G1 X165.029 Y134.949 E18.4878
G1 X165.876 Y136.651 E18.58265
G1 X166.085 Y138.31 E18.66607
G1 X166.045 Y139.995 E18.75016
G1 X165.852 Y141.186 E18.81035
G1 X165.241 Y142.49 E18.8822
G1 X165.02 Y142.991 E18.90952
G1 X164.501 Y144.073 E18.96939
G1 X163.411 Y145.238 E19.04898
G1 X162.822 Y145.716 E19.08683
G1 X164.266 Y146.517 E19.16921
G1 X165.096 Y147.164 E19.22171
G1 X166.036 Y148.335 E19.29663
G1 X166.846 Y149.955 E19.38699
G1 X167.128 Y151.765 E19.47838
G1 X167.001 Y153.194 E19.54996
G1 X166.709 Y154.52 E19.61769
G1 X165.916 Y155.959 E19.69967
G1 X165.325 Y156.748 E19.74885
G1 X164.107 Y157.727 E19.82681
G1 X162.418 Y158.569 E19.92097
G1 X161.08 Y158.764 E19.98842
G1 X141.003 Y158.804 E20.99007
G1 X139.243 Y158.442 E21.07972
G1 X137.734 Y157.605 E21.16581
G1 X136.904 Y156.958 E21.21831
G1 X135.964 Y155.787 E21.29322
G1 X135.154 Y154.167 E21.38359
G1 X134.872 Y152.357 E21.47498
G1 X134.999 Y150.928 E21.54655
G1 X135.291 Y149.602 E21.61429
G1 X136.084 Y148.163 E21.69626
G1 X136.674 Y147.376 E21.74533
G1 X137.896 Y146.395 E21.82351
G1 X139.119 Y145.786 E21.89168
G1 X138.635 Y145.489 E21.92001
G1 X137.46 Y144.055 E22.0125
G1 X136.858 Y142.772 E22.0832
G1 X136.703 Y142.358 E22.10526
G1 X136.129 Y141.204 E22.16956
G1 X135.918 Y139.608 E22.24988
G1 X135.899 Y138.062 E22.32702
G1 X136.262 Y136.28 E22.41775
G1 X137.099 Y134.776 E22.50362
G1 X137.751 Y133.94 E22.55651
G0 F3600 X138.035 Y134.225
G1 F1800 X139.117 Y133.354 E22.62581
G1 X140.702 Y132.564 E22.71416
G1 X141.978 Y132.378 E22.77849
G1 X159.955 Y132.342 E23.67537
G1 X161.617 Y132.684 E23.76003
G1 X163.072 Y133.491 E23.84304
G1 X163.813 Y134.073 E23.89004
G1 X164.69 Y135.166 E23.95996
G1 X165.487 Y136.767 E24.04918
G1 X165.685 Y138.301 E24.12635
G1 X165.65 Y139.931 E24.20769
G1 X165.466 Y141.068 E24.26515
G1 X164.879 Y142.32 E24.33414
G1 X164.659 Y142.818 E24.3613
G1 X164.167 Y143.844 E24.41807
G1 X163.159 Y144.927 E24.49188
G1 X161.935 Y145.92 E24.57052
G1 X162.617 Y146.06 E24.60525
G1 X164.072 Y146.867 E24.68826
G1 X164.813 Y147.45 E24.7353
G1 X165.696 Y148.55 E24.80567
G1 X166.461 Y150.079 E24.89097
G1 X166.726 Y151.779 E24.97681
G1 X166.61 Y153.108 E25.04336
G1 X166.33 Y154.378 E25.10824
G1 X165.596 Y155.719 E25.18451
G1 X165.036 Y156.466 E25.23109
G1 X163.887 Y157.39 E25.30465
G1 X162.298 Y158.182 E25.39323
G1 X161.022 Y158.368 E25.45756
G1 X141.045 Y158.404 E26.45422
G1 X139.383 Y158.062 E26.53887
G1 X137.928 Y157.255 E26.62188
G1 X137.187 Y156.672 E26.66892
G1 X136.304 Y155.572 E26.73929
G1 X135.539 Y154.043 E26.82459
G1 X135.274 Y152.343 E26.91043
G1 X135.39 Y151.014 E26.97698
G1 X135.67 Y149.744 E27.04187
G1 X136.404 Y148.403 E27.11814
G1 X136.964 Y147.656 E27.16471
G1 X138.113 Y146.734 E27.23821
G1 X139.649 Y145.969 E27.32382
G1 X140.057 Y145.893 E27.34453
G1 X138.899 Y145.181 E27.41235
G1 X137.802 Y143.842 E27.4987
G1 X137.233 Y142.632 E27.56541
G1 X137.072 Y142.202 E27.58832
G1 X136.517 Y141.087 E27.65046
G1 X136.315 Y139.556 E27.7275
G1 X136.3 Y138.1 E27.80015
G1 X136.642 Y136.421 E27.88563
G1 X137.449 Y134.97 E27.96847
G1 X138.035 Y134.225 E28.01575
G0 F3600 X138.32 Y134.51
G1 F1800 X139.335 Y133.693 E28.08076
G1 X140.823 Y132.951 E28.16371
G1 X142.036 Y132.774 E28.22487
G1 X159.913 Y132.742 E29.11676
G1 X161.477 Y133.064 E29.19642
G1 X162.878 Y133.841 E29.27635
G1 X163.528 Y134.358 E29.31779
G1 X164.353 Y135.385 E29.38351
G1 X165.098 Y136.883 E29.46698
G1 X165.285 Y138.293 E29.53794
G1 X165.255 Y139.867 E29.61648
G1 X165.08 Y140.951 E29.67126
G1 X164.539 Y142.11 E29.73507
G1 X164.427 Y142.291 E29.74569
G1 X164.298 Y142.645 E29.76449
G1 X163.833 Y143.615 E29.81815
G1 X162.866 Y144.654 E29.88897
G1 X161.737 Y145.566 E29.96137
G1 X160.609 Y145.95 E30.02082
G1 X160.256 Y146.118 E30.04033
G1 X160.913 Y146.118 E30.0731
G1 X162.477 Y146.44 E30.15277
G1 X163.878 Y147.217 E30.2327
G1 X164.53 Y147.736 E30.27427
G1 X165.356 Y148.765 E30.3401
G1 X166.076 Y150.204 E30.42038
G1 X166.323 Y151.79 E30.50046
G1 X166.219 Y153.022 E30.56214
G1 X165.951 Y154.239 E30.62431
G1 X165.276 Y155.479 E30.69475
G1 X164.747 Y156.184 E30.73872
G1 X163.669 Y157.051 E30.80774
G1 X162.177 Y157.795 E30.89092
G1 X160.964 Y157.972 E30.95208
G1 X141.087 Y158.004 E31.94374
G1 X139.523 Y157.682 E32.02341
G1 X138.122 Y156.905 E32.10333
G1 X137.47 Y156.386 E32.14491
G1 X136.644 Y155.357 E32.21074
G1 X135.924 Y153.918 E32.29102
G1 X135.677 Y152.332 E32.3711
G1 X135.781 Y151.1 E32.43278
G1 X136.049 Y149.883 E32.49495
G1 X136.724 Y148.643 E32.56539
G1 X137.253 Y147.938 E32.60936
G1 X138.332 Y147.071 E32.67842
G1 X139.827 Y146.327 E32.76173
G1 X141.26 Y146.134 E32.83387
G1 X141.732 Y146.132 E32.85742
G1 X141.613 Y146.072 E32.86407
G1 X140.878 Y145.928 E32.90143
G1 X139.165 Y144.874 E33.00178
G1 X138.144 Y143.628 E33.08214
G1 X137.608 Y142.492 E33.14481
G1 X137.441 Y142.046 E33.16857
G1 X136.905 Y140.97 E33.22854
G1 X136.712 Y139.504 E33.30231
G1 X136.7 Y138.139 E33.37042
G1 X137.022 Y136.562 E33.45072
G1 X137.799 Y135.164 E33.53051
G1 X138.32 Y134.51 E33.57223
G0 F3600 X138.604 Y134.796
G1 F1800 X139.555 Y134.03 E33.63315
G1 X140.943 Y133.338 E33.71053
G1 X142.094 Y133.17 E33.76856
G1 X159.871 Y133.142 E34.65546
G1 X161.338 Y133.444 E34.73018
G1 X162.629 Y134.154 E34.80369
G1 X163.245 Y134.644 E34.84296
G1 X164.014 Y135.602 E34.90425
G1 X164.71 Y137 E34.98216
G1 X164.888 Y138.345 E35.04985
G1 X164.86 Y139.803 E35.1226
G1 X164.694 Y140.833 E35.17465
G1 X164.199 Y141.899 E35.23329
G1 X164.066 Y142.113 E35.24586
G1 X163.937 Y142.472 E35.26489
G1 X163.499 Y143.386 E35.31545
G1 X162.573 Y144.381 E35.38326
G1 X161.542 Y145.209 E35.44924
G1 X160.462 Y145.577 E35.50616
G1 X159.939 Y145.826 E35.53506
G1 X158.681 Y146.231 E35.60099
G1 X157.513 Y146.231 E35.65926
G1 X157.744 Y146.517 E35.67761
G1 X160.871 Y146.518 E35.83361
G1 X162.338 Y146.82 E35.90834
G1 X163.629 Y147.53 E35.98184
G1 X164.247 Y148.022 E36.02125
G1 X165.016 Y148.98 E36.08254
G1 X165.691 Y150.329 E36.1578
G1 X165.92 Y151.802 E36.23217
G1 X165.828 Y152.936 E36.28893
G1 X165.572 Y154.099 E36.34834
G1 X164.956 Y155.239 E36.41299
G1 X164.458 Y155.902 E36.45436
G1 X163.449 Y156.714 E36.51897
G1 X162.057 Y157.408 E36.59657
G1 X160.906 Y157.576 E36.6546
G1 X141.129 Y157.604 E37.64128
G1 X139.662 Y157.302 E37.71601
G1 X138.371 Y156.592 E37.78951
G1 X137.753 Y156.1 E37.82892
G1 X136.984 Y155.142 E37.89021
G1 X136.309 Y153.793 E37.96547
G1 X136.08 Y152.32 E38.03984
G1 X136.172 Y151.186 E38.0966
G1 X136.428 Y150.023 E38.15601
G1 X137.044 Y148.883 E38.22066
G1 X137.542 Y148.22 E38.26203
G1 X138.551 Y147.408 E38.32664
G1 X139.946 Y146.714 E38.40438
G1 X141.262 Y146.534 E38.47064
G1 X144.223 Y146.522 E38.61837
G1 X144.447 Y146.23 E38.63673
G1 X143.606 Y146.23 E38.67869
G1 X142.25 Y145.946 E38.74781
G1 X141.745 Y145.691 E38.77603
G1 X141.029 Y145.55 E38.81244
G1 X139.431 Y144.567 E38.90604
G1 X138.486 Y143.414 E38.98042
G1 X137.983 Y142.352 E39.03904
G1 X137.81 Y141.89 E39.06365
G1 X137.293 Y140.853 E39.12146
G1 X137.109 Y139.452 E39.19196
G1 X137.1 Y138.178 E39.25552
G1 X137.402 Y136.701 E39.33073
G1 X138.112 Y135.413 E39.40411
G1 X138.604 Y134.796 E39.44348
G0 F3600 X138.89 Y135.079
G1 F1800 X139.771 Y134.369 E39.49993
G1 X141.063 Y133.725 E39.57195
G1 X142.152 Y133.566 E39.62686
G1 X159.829 Y133.542 E40.50877
G1 X161.2 Y133.824 E40.5786
G1 X162.38 Y134.467 E40.64564
G1 X162.962 Y134.93 E40.68275
G1 X163.675 Y135.819 E40.7396
G1 X164.322 Y137.117 E40.81196
G1 X164.491 Y138.397 E40.87637
G1 X164.465 Y139.739 E40.94334
G1 X164.308 Y140.714 E40.99261
G1 X163.836 Y141.73 E41.0485
G1 X163.705 Y141.934 E41.06059
G1 X163.576 Y142.299 E41.07991
G1 X163.165 Y143.157 E41.12737
G1 X162.322 Y144.069 E41.18933
G1 X161.346 Y144.853 E41.25179
G1 X160.314 Y145.205 E41.30619
G1 X159.816 Y145.445 E41.33377
G1 X158.617 Y145.831 E41.39661
G1 X156.519 Y145.831 E41.50128
G1 X156.963 Y146.185 E41.52961
G1 X157.553 Y146.917 E41.57651
G1 X160.829 Y146.918 E41.73995
G1 X162.2 Y147.2 E41.80978
G1 X163.38 Y147.843 E41.87683
G1 X163.964 Y148.308 E41.91407
G1 X164.676 Y149.195 E41.97082
G1 X165.306 Y150.454 E42.04105
G1 X165.517 Y151.814 E42.10972
G1 X165.429 Y152.904 E42.16427
G1 X165.194 Y153.959 E42.2182
G1 X164.636 Y154.999 E42.27708
G1 X164.169 Y155.62 E42.31585
G1 X163.229 Y156.377 E42.37606
G1 X161.937 Y157.021 E42.44808
G1 X160.848 Y157.18 E42.50299
G1 X141.171 Y157.204 E43.48468
G1 X139.8 Y156.922 E43.55451
G1 X138.62 Y156.279 E43.62155
G1 X138.036 Y155.814 E43.6588
G1 X137.324 Y154.927 E43.71554
G1 X136.694 Y153.668 E43.78578
G1 X136.483 Y152.308 E43.85444
G1 X136.571 Y151.218 E43.909
G1 X136.806 Y150.163 E43.96292
G1 X137.364 Y149.123 E44.0218
G1 X137.831 Y148.502 E44.06057
G1 X138.771 Y147.745 E44.12078
G1 X140.065 Y147.101 E44.19289
G1 X141.264 Y146.934 E44.25329
G1 X144.422 Y146.921 E44.41084
G1 X144.838 Y146.377 E44.44501
G1 X145.517 Y145.83 E44.48851
G1 X143.65 Y145.83 E44.58166
G1 X142.383 Y145.565 E44.64623
G1 X141.879 Y145.31 E44.67441
G1 X141.178 Y145.172 E44.71006
G1 X139.696 Y144.261 E44.79685
G1 X138.827 Y143.2 E44.86527
G1 X138.358 Y142.212 E44.91983
G1 X138.178 Y141.73 E44.9455
G1 X137.681 Y140.735 E45.00099
G1 X137.506 Y139.4 E45.06817
G1 X137.5 Y138.217 E45.12719
G1 X137.782 Y136.841 E45.19726
G1 X138.425 Y135.662 E45.26426
G1 X138.89 Y135.079 E45.30147
G0 F3600 X139.174 Y135.364
G1 F1800 X139.991 Y134.706 E45.3538
G1 X141.183 Y134.112 E45.42025
G1 X142.21 Y133.962 E45.47203
G1 X159.787 Y133.942 E46.34895
G1 X161.062 Y134.204 E46.41389
G1 X162.131 Y134.78 E46.47447
G1 X162.676 Y135.214 E46.50923
G1 X163.338 Y136.038 E46.56196
G1 X163.933 Y137.234 E46.6286
G1 X164.094 Y138.45 E46.6898
G1 X164.07 Y139.675 E46.75093
G1 X163.922 Y140.595 E46.79742
G1 X163.473 Y141.561 E46.85056
G1 X163.343 Y141.757 E46.8623
G1 X163.215 Y142.126 E46.88178
G1 X162.829 Y142.931 E46.92632
G1 X162.071 Y143.757 E46.98225
G1 X161.15 Y144.497 E47.0412
G1 X160.165 Y144.833 E47.09312
G1 X159.693 Y145.064 E47.11934
G1 X158.553 Y145.431 E47.17909
G1 X154.934 Y145.431 E47.35964
G1 X155.113 Y145.485 E47.36897
G1 X156.131 Y146.033 E47.42665
G1 X156.678 Y146.469 E47.46154
G1 X157.361 Y147.317 E47.51587
G1 X160.787 Y147.318 E47.68679
G1 X162.062 Y147.58 E47.75173
