;FLAVOR:Marlin
;TIME:4995
;Filament used: 5.78533m
;Layer height: 0.2
;MINX:106.2
;MINY:118.7
;MINZ:0.2
;MAXX:195.8
;MAXY:183.3
;MAXZ:19.1
;TARGET_MACHINE.NAME:Anycubic Kobra Plus
;Generated with Cura_SteamEngine 5.9.0
M140 S70
M105
M190 S70
M104 S195
M105
M109 S195
M82 ;absolute extrusion mode
G28 ;Home
G1 Z15.0 F6000 ;Move the platform down 15mm
;Prime the extruder
G92 E0
M355 S1; Turn LED on
; Add Custom purge lines
G1 Z2.0 F3000 ; Move Z Axis up little to prevent scratching of Heat Bed
G1 X1.0 Y30 Z0.3 F5000.0 ; Move to start position
G1 X1.0 Y100.0 Z0.3 F1500.0 E15 ; Draw the first line
G1 X1.3 Y100.0 Z0.3 F5000.0 ; Move to side a little
G1 X1.3 Y30 Z0.3 F1500.0 E30 ; Draw the second line
G92 E0 ; Reset Extruder
G1 E-2 F500 ; Retract a little 
G1 X50 F500 ; wipe away from the filament line
G1 X100 F9000 ; Quickly wipe away from the filament line
G1 Z5.0 F3000 ; Move Z Axis up little to prevent scratching of Heat Bed
; End custom purge lines
G92 E0
G92 E0
G1 F1500 E-6.5
;LAYER_COUNT:95
;LAYER:0
M107
G1 F600 Z0.3
G0 F1800 X187.619 Y179.752 Z0.3
;TYPE:SKIRT
G1 F600 Z0.2
G1 F1500 E0
G1 F1200 X187.078 Y179.807 E0.01809
G1 X186.238 Y179.82 E0.04603
G1 X115.649 Y179.82 E2.39383
G1 X114.968 Y179.81 E2.41648
G1 X114.428 Y179.756 E2.43453
G1 X113.664 Y179.611 E2.4604
G1 X112.922 Y179.383 E2.48621
G1 X112.154 Y179.028 E2.51435
G1 X111.722 Y178.765 E2.53118
G1 X111.092 Y178.195 E2.55943
G1 X110.76 Y177.813 E2.57627
G1 X110.496 Y177.391 E2.59282
G1 X110.146 Y176.65 E2.62008
G1 X109.888 Y175.817 E2.64908
G1 X109.751 Y175.121 E2.67268
G1 X109.691 Y174.551 E2.69174
G1 X109.681 Y173.833 E2.71562
G1 X109.68 Y128.113 E4.23628
G1 X109.691 Y127.441 E4.25863
G1 X109.754 Y126.86 E4.27807
G1 X109.9 Y126.136 E4.30263
G1 X110.132 Y125.382 E4.32887
G1 X110.489 Y124.623 E4.35677
G1 X110.755 Y124.194 E4.37356
G1 X111.308 Y123.587 E4.40087
G1 X111.691 Y123.258 E4.41766
G1 X112.279 Y122.918 E4.44025
G1 X112.899 Y122.642 E4.46282
G1 X113.501 Y122.442 E4.48392
G1 X114.274 Y122.269 E4.51027
G1 X114.926 Y122.192 E4.53211
G1 X115.716 Y122.181 E4.55838
G1 X186.351 Y122.18 E6.90771
G1 X187.033 Y122.19 E6.9304
G1 X187.572 Y122.244 E6.94842
G1 X188.337 Y122.389 E6.97431
G1 X189.078 Y122.617 E7.0001
G1 X189.862 Y122.981 E7.02885
G1 X190.293 Y123.245 E7.04566
G1 X190.916 Y123.813 E7.0737
G1 X191.245 Y124.197 E7.09052
G1 X191.579 Y124.772 E7.11263
G1 X191.858 Y125.395 E7.13534
G1 X192.061 Y126.011 E7.15691
G1 X192.231 Y126.778 E7.18304
G1 X192.307 Y127.421 E7.20458
G1 X192.32 Y128.263 E7.23258
G1 X192.32 Y173.851 E8.74885
G1 X192.31 Y174.532 E8.7715
G1 X192.25 Y175.103 E8.7906
G1 X192.106 Y175.835 E8.81541
G1 X191.885 Y176.572 E8.841
G1 X191.514 Y177.37 E8.87027
G1 X191.249 Y177.8 E8.88707
G1 X190.791 Y178.33 E8.91037
G1 X190.262 Y178.774 E8.93334
G1 X189.886 Y179.005 E8.94801
G1 X189.188 Y179.338 E8.97374
G1 X188.453 Y179.58 E8.99947
G1 X187.619 Y179.752 E9.0278
G1 F1500 E2.5278
G1 F600 Z0.3
;MESH:Case_5-Bottom Case.stl
G0 F1800 X186.388 Y173.772 Z0.3
;TYPE:WALL-INNER
G1 F600 Z0.2
G1 F1500 E9.0278
G1 F1200 X186.388 Y128.197 E10.54363
G1 X186.269 Y128.108 E10.54857
G1 X115.67 Y128.112 E12.8967
G1 X115.592 Y128.223 E12.90121
G1 X115.593 Y173.809 E14.41741
G1 X115.723 Y173.888 E14.42247
G1 X186.302 Y173.888 E16.76994
G1 X186.388 Y173.772 E16.77474
G0 F1800 X186.573 Y174.206
G1 F1200 X186.711 Y174.057 E16.7815
G1 X186.788 Y173.84 E16.78915
G1 X186.788 Y128.115 E18.30997
G1 X186.708 Y127.928 E18.31674
G1 X186.553 Y127.786 E18.32373
G1 X186.339 Y127.708 E18.33131
G1 X115.618 Y127.712 E20.6835
G1 X115.415 Y127.797 E20.69082
G1 X115.274 Y127.945 E20.69761
G1 X115.192 Y128.145 E20.7048
G1 X115.193 Y173.848 E22.22489
G1 X115.289 Y174.073 E22.23303
G1 X115.438 Y174.212 E22.23981
G1 X115.655 Y174.288 E22.24745
G1 X186.384 Y174.288 E24.59991
G1 X186.573 Y174.206 E24.60676
G1 F1500 E18.10676
G1 F600 Z0.3
G0 F1800 X179.484 Y162.376 Z0.3
G1 F600 Z0.2
G1 F1500 E24.60676
G1 F1200 X179.236 Y162.473 E24.61562
G1 X179 Y162.5 E24.62352
G1 X167.882 Y162.494 E24.9933
G1 X167.458 Y162.341 E25.0083
G1 X167.172 Y162.063 E25.02156
G1 X167.034 Y161.763 E25.03255
G1 X167.001 Y161.561 E25.03935
G1 X167.001 Y140.439 E25.74187
G1 X167.034 Y140.237 E25.74868
G1 X167.172 Y139.937 E25.75966
G1 X167.296 Y139.789 E25.76609
G1 X167.554 Y139.604 E25.77665
G1 X167.882 Y139.506 E25.78803
G1 X179.122 Y139.5 E26.16188
G1 X179.357 Y139.565 E26.16999
G1 X179.611 Y139.707 E26.17966
G1 X179.84 Y139.956 E26.19092
G1 X180 Y140.348 E26.205
G1 X180 Y161.636 E26.91304
G1 X179.926 Y161.879 E26.92149
G1 X179.733 Y162.182 E26.93344
G1 X179.484 Y162.376 E26.94394
G0 F1800 X179.367 Y161.976
G1 F1200 X179.072 Y162.096 E26.95453
G1 X167.925 Y162.1 E27.32528
G1 X167.675 Y162.005 E27.33417
G1 X167.503 Y161.838 E27.34215
G1 X167.404 Y161.575 E27.35149
G1 X167.404 Y140.425 E28.05495
G1 X167.452 Y140.254 E28.06085
G1 X167.675 Y139.995 E28.07222
G1 X167.925 Y139.9 E28.08112
G1 X179.075 Y139.9 E28.45197
G1 X179.367 Y140.024 E28.46252
G1 X179.504 Y140.174 E28.46927
G1 X179.6 Y140.419 E28.47803
G1 X179.6 Y161.576 E29.18171
G1 X179.505 Y161.826 E29.19061
G1 X179.367 Y161.976 E29.19739
G0 F1800 X179.197 Y161.539
;TYPE:WALL-OUTER
G1 F1200 X179.123 Y161.659 E29.20207
G1 X179.035 Y161.698 E29.20528
G1 X167.965 Y161.698 E29.57347
G1 X167.845 Y161.628 E29.57809
G1 X167.806 Y161.553 E29.5809
G1 X167.801 Y140.475 E30.28196
G1 X167.845 Y140.372 E30.28568
G1 X167.965 Y140.302 E30.2903
G1 X179.035 Y140.302 E30.65849
G1 X179.147 Y140.363 E30.66273
G1 X179.197 Y140.46 E30.66636
G1 X179.197 Y161.539 E31.36745
G0 F1800 X179.123 Y161.659
G0 X179.069 Y161.682
G1 F1500 E24.86745
G1 F600 Z0.3
G0 F1800 X186.466 Y174.688 Z0.3
G1 F600 Z0.2
G1 F1500 E31.36745
G1 F1200 X186.847 Y174.524 E31.38125
G1 X187.049 Y174.299 E31.39131
G1 X187.188 Y173.909 E31.40508
G1 X187.188 Y128.033 E32.93092
G1 X187.025 Y127.651 E32.94473
G1 X186.802 Y127.45 E32.95472
G1 X186.409 Y127.308 E32.96862
G1 X115.537 Y127.312 E35.32583
G1 X115.146 Y127.477 E35.33994
G1 X114.942 Y127.699 E35.34997
G1 X114.792 Y128.067 E35.36319
G1 X114.793 Y173.93 E36.8886
G1 X114.971 Y174.347 E36.90368
G1 X115.196 Y174.551 E36.91378
G1 X115.587 Y174.688 E36.92756
G1 X186.466 Y174.688 E39.285
G0 F1800 X186.649 Y174.609
G1 F1500 E32.785
G1 F600 Z0.3
G0 F1800 X179.659 Y162.711 Z0.3
;TYPE:SKIN
G1 F600 Z0.2
G1 F1500 E39.285
G1 F1200 X179.987 Y162.463 E39.29868
G1 X180.174 Y162.22 E39.30888
G1 X180.378 Y161.707 E39.32724
G1 X180.38 Y140.283 E40.03981
G1 X180.159 Y139.749 E40.05903
G1 X179.84 Y139.402 E40.07471
G1 X179.495 Y139.208 E40.08787
G1 X179.137 Y139.125 E40.10009
G1 X167.88 Y139.121 E40.4745
G1 X167.368 Y139.272 E40.49226
G1 X166.931 Y139.624 E40.51092
G1 X166.697 Y140.04 E40.5268
G1 X166.621 Y140.401 E40.53907
G1 X166.62 Y161.589 E41.24378
G1 X166.677 Y161.891 E41.254
G1 X166.858 Y162.279 E41.26824
G1 X167.131 Y162.573 E41.28159
G1 X167.389 Y162.739 E41.29179
G1 X167.869 Y162.878 E41.30841
G1 X179.127 Y162.878 E41.68285
G1 X179.659 Y162.711 E41.7014
G1 F1500 E35.2014
G1 F600 Z0.3
G0 F1800 X186.008 Y173.508 Z0.3
G1 F600 Z0.2
G1 F1500 E41.7014
G1 F1200 X115.972 Y173.508 E44.03081
G1 X115.972 Y128.488 E45.52818
G1 X186.008 Y128.488 E47.85759
G1 X186.008 Y173.508 E49.35496
G1 F1500 E42.85496
G1 F600 Z0.3
G0 F1800 X185.808 Y129.239 Z0.3
G1 F600 Z0.2
G1 F1500 E49.35496
G1 F1200 X185.256 Y128.688 E49.3809
G0 F1800 X184.691 Y128.688
G1 F1200 X185.808 Y129.805 E49.43344
G0 F1800 X185.808 Y130.371
G1 F1200 X184.125 Y128.688 E49.5126
G0 F1800 X183.559 Y128.688
G1 F1200 X185.808 Y130.936 E49.61836
G0 F1800 X185.808 Y131.502
G1 F1200 X182.994 Y128.688 E49.75073
G0 F1800 X182.428 Y128.688
G1 F1200 X185.808 Y132.068 E49.90971
G0 F1800 X185.808 Y132.633
G1 F1200 X181.862 Y128.688 E50.09529
G0 F1800 X181.297 Y128.688
G1 F1200 X185.808 Y133.199 E50.30748
G0 F1800 X185.808 Y133.765
G1 F1200 X180.731 Y128.688 E50.54628
G0 F1800 X180.165 Y128.688
G1 F1200 X185.808 Y134.33 E50.81169
G0 F1800 X185.808 Y134.896
G1 F1200 X179.599 Y128.688 E51.10372
G0 F1800 X179.034 Y128.688
G1 F1200 X185.808 Y135.462 E51.42235
G0 F1800 X185.808 Y136.028
G1 F1200 X178.468 Y128.688 E51.7676
G0 F1800 X177.902 Y128.688
G1 F1200 X185.808 Y136.593 E52.13945
G0 F1800 X185.808 Y137.159
G1 F1200 X177.337 Y128.688 E52.5379
G0 F1800 X176.771 Y128.688
G1 F1200 X185.808 Y137.725 E52.96297
G0 F1800 X185.808 Y138.29
G1 F1200 X176.205 Y128.688 E53.41464
G0 F1800 X175.64 Y128.688
G1 F1200 X185.808 Y138.856 E53.89292
G0 F1800 X185.808 Y139.422
G1 F1200 X175.074 Y128.688 E54.39781
G0 F1800 X174.508 Y128.688
G1 F1200 X185.808 Y139.987 E54.9293
G0 F1800 X185.808 Y140.553
G1 F1200 X173.943 Y128.688 E55.4874
G0 F1800 X173.377 Y128.688
G1 F1200 X185.808 Y141.119 E56.07211
G0 F1800 X185.808 Y141.684
G1 F1200 X172.811 Y128.688 E56.68343
G0 F1800 X172.246 Y128.688
G1 F1200 X185.808 Y142.25 E57.32134
G0 F1800 X185.808 Y142.816
G1 F1200 X171.68 Y128.688 E57.98588
G0 F1800 X171.114 Y128.688
G1 F1200 X185.808 Y143.381 E58.67702
G0 F1800 X185.808 Y143.947
G1 F1200 X170.548 Y128.688 E59.39478
G0 F1800 X169.983 Y128.688
G1 F1200 X185.808 Y144.513 E60.13914
G0 F1800 X185.808 Y145.079
G1 F1200 X169.417 Y128.688 E60.91012
G0 F1800 X168.851 Y128.688
G1 F1200 X179.085 Y138.922 E61.3915
G0 F1800 X178.52 Y138.922
G1 F1200 X168.286 Y128.688 E61.87287
G0 F1800 X167.72 Y128.688
G1 F1200 X177.954 Y138.922 E62.35425
G0 F1800 X177.388 Y138.922
G1 F1200 X167.154 Y128.688 E62.83562
G0 F1800 X166.589 Y128.688
G1 F1200 X176.823 Y138.922 E63.317
G0 F1800 X176.257 Y138.922
G1 F1200 X166.023 Y128.688 E63.79838
G0 F1800 X165.457 Y128.688
G1 F1200 X175.691 Y138.922 E64.27975
G0 F1800 X175.126 Y138.922
G1 F1200 X164.892 Y128.688 E64.76113
G0 F1800 X164.326 Y128.688
G1 F1200 X174.56 Y138.922 E65.2425
G0 F1800 X173.994 Y138.922
G1 F1200 X163.76 Y128.688 E65.72388
G0 F1800 X163.195 Y128.688
G1 F1200 X173.429 Y138.922 E66.20526
G0 F1800 X172.864 Y138.922
G1 F1200 X162.629 Y128.688 E66.68666
G0 F1800 X162.063 Y128.688
G1 F1200 X172.298 Y138.922 E67.16806
G0 F1800 X171.732 Y138.922
G1 F1200 X161.498 Y128.688 E67.64943
G0 F1800 X160.932 Y128.688
G1 F1200 X171.167 Y138.922 E68.13083
G0 F1800 X170.601 Y138.922
G1 F1200 X160.366 Y128.688 E68.61223
G0 F1800 X159.8 Y128.688
G1 F1200 X170.035 Y138.922 E69.09363
G0 F1800 X169.469 Y138.922
G1 F1200 X159.235 Y128.688 E69.57501
G0 F1800 X158.669 Y128.688
G1 F1200 X168.904 Y138.922 E70.05641
G0 F1800 X168.338 Y138.922
G1 F1200 X158.103 Y128.688 E70.5378
G0 F1800 X157.538 Y128.688
G1 F1200 X167.79 Y138.94 E71.02003
G0 F1800 X167.347 Y139.063
G1 F1200 X156.972 Y128.688 E71.50804
G0 F1800 X156.406 Y128.688
G1 F1200 X167.017 Y139.298 E72.00712
G0 F1800 X166.736 Y139.584
G1 F1200 X155.841 Y128.688 E72.51961
G0 F1800 X155.275 Y128.688
G1 F1200 X166.529 Y139.941 E73.04894
G0 F1800 X166.421 Y140.4
G1 F1200 X154.709 Y128.688 E73.59984
G0 F1800 X154.144 Y128.688
G1 F1200 X166.42 Y140.965 E74.17729
G0 F1800 X166.42 Y141.53
G1 F1200 X153.578 Y128.688 E74.78134
G0 F1800 X153.012 Y128.688
G1 F1200 X166.42 Y142.096 E75.41201
G0 F1800 X166.42 Y142.662
G1 F1200 X152.447 Y128.688 E76.06928
G0 F1800 X151.881 Y128.688
G1 F1200 X166.42 Y143.227 E76.75315
G0 F1800 X166.42 Y143.793
G1 F1200 X151.315 Y128.688 E77.46364
G0 F1800 X150.75 Y128.688
G1 F1200 X166.42 Y144.359 E78.20073
G0 F1800 X166.42 Y144.924
G1 F1200 X150.184 Y128.688 E78.96442
G0 F1800 X149.618 Y128.688
G1 F1200 X166.42 Y145.49 E79.75474
G0 F1800 X166.42 Y146.056
G1 F1200 X149.052 Y128.688 E80.57168
G0 F1800 X148.487 Y128.688
G1 F1200 X166.42 Y146.621 E81.41519
G0 F1800 X166.42 Y147.187
G1 F1200 X147.921 Y128.688 E82.28533
G0 F1800 X147.355 Y128.688
G1 F1200 X166.42 Y147.753 E83.18209
G0 F1800 X166.42 Y148.318
G1 F1200 X146.79 Y128.688 E84.10542
G0 F1800 X146.224 Y128.688
G1 F1200 X166.42 Y148.884 E85.05538
G0 F1800 X166.42 Y149.45
G1 F1200 X145.658 Y128.688 E86.03196
G0 F1800 X145.093 Y128.688
G1 F1200 X166.42 Y150.016 E87.03514
G0 F1800 X166.42 Y150.581
G1 F1200 X144.527 Y128.688 E88.06492
G0 F1800 X143.961 Y128.688
G1 F1200 X166.42 Y151.147 E89.12132
G0 F1800 X166.42 Y151.713
G1 F1200 X143.396 Y128.688 E90.20432
G0 F1800 X142.83 Y128.688
G1 F1200 X166.42 Y152.278 E91.31392
G0 F1800 X166.42 Y152.844
G1 F1200 X142.264 Y128.688 E92.45015
G0 F1800 X141.699 Y128.688
G1 F1200 X166.42 Y153.41 E93.61297
G0 F1800 X166.42 Y153.975
G1 F1200 X141.133 Y128.688 E94.8024
G0 F1800 X140.567 Y128.688
G1 F1200 X166.42 Y154.541 E96.01844
G0 F1800 X166.42 Y155.107
G1 F1200 X140.001 Y128.688 E97.26111
G0 F1800 X139.436 Y128.688
G1 F1200 X166.42 Y155.672 E98.53035
G0 F1800 X166.42 Y156.238
G1 F1200 X138.87 Y128.688 E99.82622
G0 F1800 X138.304 Y128.688
G1 F1200 X166.42 Y156.804 E101.14871
G0 F1800 X166.42 Y157.369
G1 F1200 X137.739 Y128.688 E102.49778
G0 F1800 X137.173 Y128.688
G1 F1200 X166.42 Y157.935 E103.87347
G0 F1800 X166.42 Y158.501
G1 F1200 X136.607 Y128.688 E105.27578
G0 F1800 X136.042 Y128.688
G1 F1200 X166.42 Y159.066 E106.70467
G0 F1800 X166.42 Y159.632
G1 F1200 X135.476 Y128.688 E108.16018
G0 F1800 X134.91 Y128.688
G1 F1200 X166.42 Y160.198 E109.64231
G0 F1800 X166.42 Y160.764
G1 F1200 X134.345 Y128.688 E111.15105
G0 F1800 X133.779 Y128.688
G1 F1200 X166.42 Y161.329 E112.68638
G0 F1800 X166.506 Y161.98
G1 F1200 X133.213 Y128.688 E114.25236
G0 F1800 X132.648 Y128.688
G1 F1200 X177.267 Y173.308 E116.35112
G0 F1800 X176.702 Y173.308
G1 F1200 X132.082 Y128.688 E118.44991
G0 F1800 X131.516 Y128.688
G1 F1200 X176.136 Y173.308 E120.5487
G0 F1800 X175.57 Y173.308
G1 F1200 X130.951 Y128.688 E122.64746
G0 F1800 X130.385 Y128.688
G1 F1200 X175.005 Y173.308 E124.74625
G0 F1800 X174.439 Y173.308
G1 F1200 X129.819 Y128.688 E126.84504
G0 F1800 X129.253 Y128.688
G1 F1200 X173.873 Y173.308 E128.94382
G0 F1800 X173.308 Y173.308
G1 F1200 X128.688 Y128.688 E131.04261
G0 F1800 X128.122 Y128.688
G1 F1200 X172.742 Y173.308 E133.1414
G0 F1800 X172.176 Y173.308
G1 F1200 X127.556 Y128.688 E135.24019
G0 F1800 X126.991 Y128.688
G1 F1200 X171.611 Y173.308 E137.33898
G0 F1800 X171.045 Y173.308
G1 F1200 X126.425 Y128.688 E139.43776
G0 F1800 X125.859 Y128.688
G1 F1200 X170.479 Y173.308 E141.53655
G0 F1800 X169.914 Y173.308
G1 F1200 X125.294 Y128.688 E143.63534
G0 F1800 X124.728 Y128.688
G1 F1200 X169.348 Y173.308 E145.73413
G0 F1800 X168.782 Y173.308
G1 F1200 X124.162 Y128.688 E147.83292
G0 F1800 X123.597 Y128.688
G1 F1200 X168.216 Y173.308 E149.93168
G0 F1800 X167.651 Y173.308
G1 F1200 X123.031 Y128.688 E152.03047
G0 F1800 X122.465 Y128.688
G1 F1200 X167.085 Y173.308 E154.12926
G0 F1800 X166.519 Y173.308
G1 F1200 X121.9 Y128.688 E156.22802
G0 F1800 X121.334 Y128.688
G1 F1200 X165.954 Y173.308 E158.32681
G0 F1800 X165.388 Y173.308
G1 F1200 X120.768 Y128.688 E160.4256
G0 F1800 X120.202 Y128.688
G1 F1200 X164.822 Y173.308 E162.52439
G0 F1800 X164.257 Y173.308
G1 F1200 X119.637 Y128.688 E164.62317
G0 F1800 X119.071 Y128.688
G1 F1200 X163.691 Y173.308 E166.72196
G0 F1800 X163.125 Y173.308
G1 F1200 X118.505 Y128.688 E168.82075
G0 F1800 X117.94 Y128.688
G1 F1200 X162.56 Y173.308 E170.91954
G0 F1800 X161.994 Y173.308
G1 F1200 X117.374 Y128.688 E173.01833
G0 F1800 X116.808 Y128.688
G1 F1200 X161.428 Y173.308 E175.11711
G0 F1800 X160.863 Y173.308
G1 F1200 X116.243 Y128.688 E177.2159
G0 F1800 X116.172 Y129.183
G1 F1200 X160.297 Y173.308 E179.29141
G0 F1800 X159.731 Y173.308
G1 F1200 X116.172 Y129.748 E181.34031
G0 F1800 X116.172 Y130.314
G1 F1200 X159.165 Y173.308 E183.36259
G0 F1800 X158.6 Y173.308
G1 F1200 X116.172 Y130.88 E185.35828
G0 F1800 X116.172 Y131.445
G1 F1200 X158.034 Y173.308 E187.32736
G0 F1800 X157.468 Y173.308
G1 F1200 X116.172 Y132.011 E189.26982
G0 F1800 X116.172 Y132.577
G1 F1200 X156.903 Y173.308 E191.18568
G0 F1800 X156.337 Y173.308
G1 F1200 X116.172 Y133.143 E193.07492
G0 F1800 X116.172 Y133.708
G1 F1200 X155.771 Y173.308 E194.93756
G0 F1800 X155.206 Y173.308
G1 F1200 X116.172 Y134.274 E196.7736
G0 F1800 X116.172 Y134.84
G1 F1200 X154.64 Y173.308 E198.58302
G0 F1800 X154.074 Y173.308
G1 F1200 X116.172 Y135.405 E200.36583
G0 F1800 X116.172 Y135.971
G1 F1200 X153.509 Y173.308 E202.12205
G0 F1800 X152.943 Y173.308
G1 F1200 X116.172 Y136.537 E203.85165
G0 F1800 X116.172 Y137.102
