;FLAVOR:Marlin
;TIME:9257
;Filament used: 10.1319m
;Layer height: 0.2
;MINX:106.2
;MINY:85.448
;MINZ:0.2
;MAXX:195.8
;MAXY:216.6
;MAXZ:19.1
;TARGET_MACHINE.NAME:Anycubic Kobra Plus
;Generated with Cura_SteamEngine 5.9.0
M140 S70
M105
M190 S70
M104 S195
M105
M109 S195
M82 ;absolute extrusion mode
G28 ;Home
G1 Z15.0 F6000 ;Move the platform down 15mm
;Prime the extruder
G92 E0
M355 S1; Turn LED on
; Add Custom purge lines
G1 Z2.0 F3000 ; Move Z Axis up little to prevent scratching of Heat Bed
G1 X1.0 Y30 Z0.3 F5000.0 ; Move to start position
G1 X1.0 Y100.0 Z0.3 F1500.0 E15 ; Draw the first line
G1 X1.3 Y100.0 Z0.3 F5000.0 ; Move to side a little
G1 X1.3 Y30 Z0.3 F1500.0 E30 ; Draw the second line
G92 E0 ; Reset Extruder
G1 E-2 F500 ; Retract a little 
G1 X50 F500 ; wipe away from the filament line
G1 X100 F9000 ; Quickly wipe away from the filament line
G1 Z5.0 F3000 ; Move Z Axis up little to prevent scratching of Heat Bed
; End custom purge lines
G92 E0
G92 E0
G1 F1500 E-6.5
;LAYER_COUNT:95
;LAYER:0
M107
G1 F600 Z0.3
G0 F1800 X115.65 Y213.12 Z0.3
;TYPE:SKIRT
G1 F600 Z0.2
G1 F1500 E0
G1 F1200 X114.965 Y213.11 E0.02279
G1 X114.425 Y213.056 E0.04084
G1 X113.563 Y212.882 E0.07008
G1 X112.903 Y212.675 E0.09309
G1 X112.139 Y212.32 E0.12111
G1 X111.708 Y212.055 E0.13794
G1 X111.068 Y211.471 E0.16675
G1 X110.74 Y211.086 E0.18358
G1 X110.486 Y210.673 E0.1997
G1 X110.134 Y209.919 E0.22738
G1 X109.883 Y209.119 E0.25527
G1 X109.746 Y208.393 E0.27984
G1 X109.692 Y207.858 E0.29772
G1 X109.681 Y207.081 E0.32357
G1 X109.679 Y192.273 E0.81609
G1 X109.692 Y191.428 E0.84419
G1 X109.795 Y190.378 E0.87929
G1 X109.917 Y189.309 E0.91507
G1 X110.147 Y186.58 E1.00616
G1 X110.3 Y183.86 E1.09677
G1 X110.377 Y181.111 E1.18824
G1 X110.375 Y178.392 E1.27867
G1 X110.296 Y175.639 E1.37028
G1 X110.14 Y172.893 E1.46176
G1 X109.91 Y170.205 E1.55148
G1 X109.782 Y169.074 E1.58934
G1 X109.692 Y168.153 E1.62012
G1 X109.681 Y167.301 E1.64846
G1 X109.679 Y161.414 E1.84426
G1 X109.699 Y160.516 E1.87414
G1 X109.926 Y157.837 E1.96356
G1 X110.08 Y155.122 E2.05401
G1 X110.158 Y152.37 E2.14558
G1 X110.158 Y149.653 E2.23594
G1 X110.08 Y146.901 E2.32751
G1 X109.926 Y144.176 E2.41829
G1 X109.691 Y141.392 E2.51122
G1 X109.681 Y140.595 E2.53773
G1 X109.68 Y94.863 E4.05878
G1 X109.691 Y94.191 E4.08113
G1 X109.754 Y93.61 E4.10057
G1 X109.9 Y92.886 E4.12514
G1 X110.132 Y92.132 E4.15137
G1 X110.489 Y91.373 E4.17927
G1 X110.755 Y90.944 E4.19606
G1 X111.308 Y90.337 E4.22337
G1 X111.691 Y90.008 E4.24017
G1 X112.279 Y89.668 E4.26276
G1 X112.899 Y89.392 E4.28533
G1 X113.501 Y89.192 E4.30643
G1 X114.274 Y89.019 E4.33277
G1 X114.926 Y88.942 E4.35461
G1 X115.716 Y88.931 E4.38089
G1 X186.351 Y88.93 E6.73022
G1 X187.033 Y88.94 E6.7529
G1 X187.572 Y88.994 E6.77092
G1 X188.337 Y89.139 E6.79682
G1 X189.078 Y89.367 E6.8226
G1 X189.862 Y89.731 E6.85135
G1 X190.293 Y89.995 E6.86816
G1 X190.916 Y90.563 E6.8962
G1 X191.245 Y90.947 E6.91302
G1 X191.579 Y91.522 E6.93514
G1 X191.858 Y92.145 E6.95784
G1 X192.061 Y92.761 E6.97941
G1 X192.231 Y93.528 E7.00554
G1 X192.307 Y94.171 E7.02708
G1 X192.32 Y95.013 E7.05509
G1 X192.32 Y140.6 E8.57132
G1 X192.299 Y141.519 E8.60189
G1 X192.073 Y144.215 E8.69188
G1 X191.918 Y146.966 E8.78352
G1 X191.841 Y149.716 E8.87502
G1 X191.843 Y152.425 E8.96512
G1 X191.922 Y155.189 E9.05709
G1 X192.076 Y157.895 E9.14724
G1 X192.298 Y160.511 E9.23456
G1 X192.319 Y161.409 E9.26444
G1 X192.319 Y207.148 E10.78572
G1 X192.309 Y207.845 E10.80891
G1 X192.247 Y208.427 E10.82837
G1 X192.103 Y209.146 E10.85276
G1 X191.886 Y209.866 E10.87777
G1 X191.532 Y210.638 E10.90602
G1 X191.27 Y211.071 E10.92285
G1 X190.701 Y211.704 E10.95116
G1 X190.319 Y212.035 E10.96797
G1 X189.721 Y212.382 E10.99097
G1 X189.101 Y212.658 E11.01354
G1 X188.499 Y212.858 E11.03464
G1 X187.726 Y213.031 E11.06099
G1 X187.074 Y213.108 E11.08282
G1 X186.284 Y213.119 E11.1091
G1 X115.65 Y213.12 E13.4584
G1 F1500 E6.9584
G1 F600 Z0.3
;MESH:Case_5-Bottom Case.stl
G0 F1800 X186.388 Y140.525 Z0.3
;TYPE:WALL-INNER
G1 F600 Z0.2
G1 F1500 E13.4584
G1 F1200 X186.388 Y94.945 E14.97439
G1 X186.273 Y94.86 E14.97915
G1 X115.676 Y94.86 E17.32722
G1 X115.592 Y94.976 E17.33198
G1 X115.592 Y140.561 E18.84814
G1 X115.723 Y140.636 E18.85316
G1 X186.306 Y140.636 E21.20076
G1 X186.388 Y140.525 E21.20535
G0 F1800 X186.575 Y140.956
G1 F1200 X186.711 Y140.809 E21.21201
G1 X186.788 Y140.593 E21.21964
G1 X186.788 Y94.863 E22.74063
G1 X186.708 Y94.676 E22.74739
G1 X186.554 Y94.536 E22.75431
G1 X186.341 Y94.46 E22.76184
G1 X115.618 Y94.46 E25.11409
G1 X115.421 Y94.544 E25.12122
G1 X115.276 Y94.693 E25.12813
G1 X115.192 Y94.898 E25.1355
G1 X115.192 Y140.6 E26.65555
G1 X115.286 Y140.819 E26.66348
G1 X115.442 Y140.96 E26.67047
G1 X115.655 Y141.036 E26.678
G1 X186.386 Y141.036 E29.03052
G1 X186.575 Y140.956 E29.03735
G1 F1500 E22.53735
G1 F600 Z0.3
G0 F1800 X179.484 Y129.124 Z0.3
G1 F600 Z0.2
G1 F1500 E29.03735
G1 F1200 X179.236 Y129.221 E29.0462
G1 X179 Y129.248 E29.0541
G1 X167.882 Y129.242 E29.42389
G1 X167.458 Y129.089 E29.43888
G1 X167.172 Y128.811 E29.45215
G1 X167.034 Y128.511 E29.46313
G1 X167.001 Y128.309 E29.46994
G1 X167.001 Y107.187 E30.17246
G1 X167.125 Y106.762 E30.18718
G1 X167.372 Y106.469 E30.19993
G1 X167.554 Y106.352 E30.20713
G1 X167.882 Y106.254 E30.21851
G1 X179.122 Y106.248 E30.59236
G1 X179.358 Y106.313 E30.6005
G1 X179.611 Y106.455 E30.61015
G1 X179.84 Y106.705 E30.62142
G1 X180 Y107.097 E30.63551
G1 X180 Y128.384 E31.34351
G1 X179.926 Y128.627 E31.35196
G1 X179.733 Y128.93 E31.36391
G1 X179.484 Y129.124 E31.37441
G0 F1800 X179.367 Y128.724
G1 F1200 X179.072 Y128.844 E31.385
G1 X167.925 Y128.848 E31.75575
G1 X167.675 Y128.753 E31.76465
G1 X167.503 Y128.586 E31.77262
G1 X167.404 Y128.323 E31.78197
G1 X167.404 Y107.173 E32.48542
G1 X167.452 Y107.002 E32.49133
G1 X167.675 Y106.743 E32.50269
G1 X167.925 Y106.648 E32.51159
G1 X179.075 Y106.648 E32.88244
G1 X179.367 Y106.772 E32.89299
G1 X179.504 Y106.922 E32.89975
G1 X179.6 Y107.168 E32.90853
G1 X179.6 Y128.324 E33.61218
G1 X179.505 Y128.574 E33.62108
G1 X179.367 Y128.724 E33.62786
G0 F1800 X179.197 Y128.287
;TYPE:WALL-OUTER
G1 F1200 X179.123 Y128.407 E33.63255
G1 X179.035 Y128.446 E33.63575
G1 X167.965 Y128.446 E34.00394
G1 X167.845 Y128.376 E34.00856
G1 X167.806 Y128.301 E34.01137
G1 X167.801 Y107.223 E34.71243
G1 X167.845 Y107.12 E34.71615
G1 X167.965 Y107.05 E34.72077
G1 X179.035 Y107.05 E35.08896
G1 X179.147 Y107.111 E35.0932
G1 X179.197 Y107.209 E35.09686
G1 X179.197 Y128.287 E35.79792
G0 F1800 X179.123 Y128.407
G0 X179.069 Y128.43
G1 F1500 E29.29792
G1 F600 Z0.3
G0 F1800 X186.467 Y141.436 Z0.3
G1 F600 Z0.2
G1 F1500 E35.79792
G1 F1200 X186.847 Y141.276 E35.81163
G1 X187.05 Y141.052 E35.82169
G1 X187.188 Y140.661 E35.83548
G1 X187.188 Y94.781 E37.36145
G1 X187.025 Y94.399 E37.37527
G1 X186.802 Y94.199 E37.38523
G1 X186.409 Y94.06 E37.3991
G1 X115.537 Y94.06 E39.75631
G1 X115.148 Y94.224 E39.77035
G1 X114.945 Y94.445 E39.78033
G1 X114.792 Y94.82 E39.7938
G1 X114.792 Y140.682 E41.31918
G1 X114.97 Y141.097 E41.3342
G1 X115.195 Y141.299 E41.34425
G1 X115.587 Y141.436 E41.35806
G1 X186.467 Y141.436 E43.71554
G0 F1800 X186.651 Y141.359
G1 F1500 E37.21554
G1 F600 Z0.3
G0 F1800 X179.659 Y129.459 Z0.3
;TYPE:SKIN
G1 F600 Z0.2
G1 F1500 E43.71554
G1 F1200 X179.987 Y129.211 E43.72922
G1 X180.174 Y128.968 E43.73942
G1 X180.378 Y128.455 E43.75778
G1 X180.38 Y107.031 E44.47035
G1 X180.159 Y106.497 E44.48957
G1 X179.84 Y106.15 E44.50524
G1 X179.495 Y105.956 E44.51841
G1 X179.127 Y105.87 E44.53098
G1 X167.88 Y105.869 E44.90505
G1 X167.368 Y106.02 E44.92281
G1 X166.931 Y106.372 E44.94147
G1 X166.697 Y106.788 E44.95735
G1 X166.621 Y107.149 E44.96962
G1 X166.62 Y128.337 E45.67433
G1 X166.677 Y128.639 E45.68456
G1 X166.858 Y129.027 E45.6988
G1 X167.113 Y129.304 E45.71132
G1 X167.389 Y129.487 E45.72233
G1 X167.869 Y129.626 E45.73895
G1 X179.12 Y129.627 E46.11316
G1 X179.659 Y129.459 E46.13194
G1 F1500 E39.63194
G1 F600 Z0.3
G0 F1800 X186.008 Y140.256 Z0.3
G1 F600 Z0.2
G1 F1500 E46.13194
G1 F1200 X115.972 Y140.256 E48.46135
G1 X115.972 Y95.24 E49.95859
G1 X186.008 Y95.24 E52.28799
G1 X186.008 Y140.256 E53.78523
G1 F1500 E47.28523
G1 F600 Z0.3
G0 F1800 X185.384 Y95.44 Z0.3
G1 F600 Z0.2
G1 F1500 E53.78523
G1 F1200 X185.809 Y95.865 E53.80522
G0 F1800 X185.809 Y96.43
G1 F1200 X184.818 Y95.44 E53.85181
G0 F1800 X184.252 Y95.44
G1 F1200 X185.809 Y96.996 E53.92502
G0 F1800 X185.809 Y97.562
G1 F1200 X183.687 Y95.44 E54.02484
G0 F1800 X183.121 Y95.44
G1 F1200 X185.809 Y98.127 E54.15125
G0 F1800 X185.809 Y98.693
G1 F1200 X182.555 Y95.44 E54.30428
G0 F1800 X181.989 Y95.44
G1 F1200 X185.809 Y99.259 E54.48394
G0 F1800 X185.809 Y99.824
G1 F1200 X181.424 Y95.44 E54.69017
G0 F1800 X180.858 Y95.44
G1 F1200 X185.809 Y100.39 E54.92303
G0 F1800 X185.809 Y100.956
G1 F1200 X180.292 Y95.44 E55.18251
G0 F1800 X179.727 Y95.44
G1 F1200 X185.809 Y101.521 E55.46857
G0 F1800 X185.809 Y102.087
G1 F1200 X179.161 Y95.44 E55.78124
G0 F1800 X178.595 Y95.44
G1 F1200 X185.809 Y102.653 E56.12054
G0 F1800 X185.809 Y103.218
G1 F1200 X178.03 Y95.44 E56.48642
G0 F1800 X177.464 Y95.44
G1 F1200 X185.809 Y103.784 E56.87892
G0 F1800 X185.809 Y104.35
G1 F1200 X176.898 Y95.44 E57.29804
G0 F1800 X176.333 Y95.44
G1 F1200 X185.809 Y104.916 E57.74377
G0 F1800 X185.809 Y105.481
G1 F1200 X175.767 Y95.44 E58.21609
G0 F1800 X175.201 Y95.44
G1 F1200 X185.809 Y106.047 E58.71503
G0 F1800 X185.809 Y106.613
G1 F1200 X174.636 Y95.44 E59.24057
G0 F1800 X174.07 Y95.44
G1 F1200 X185.809 Y107.178 E59.79272
G0 F1800 X185.809 Y107.744
G1 F1200 X173.504 Y95.44 E60.37148
G0 F1800 X172.939 Y95.44
G1 F1200 X185.809 Y108.31 E60.97685
G0 F1800 X185.809 Y108.875
G1 F1200 X172.373 Y95.44 E61.60881
G0 F1800 X171.807 Y95.44
G1 F1200 X185.809 Y109.441 E62.2674
G0 F1800 X185.809 Y110.007
G1 F1200 X171.241 Y95.44 E62.95261
G0 F1800 X170.676 Y95.44
G1 F1200 X185.809 Y110.572 E63.6644
G0 F1800 X185.809 Y111.138
G1 F1200 X170.11 Y95.44 E64.40281
G0 F1800 X169.544 Y95.44
G1 F1200 X185.809 Y111.704 E65.16784
G0 F1800 X185.809 Y112.269
G1 F1200 X180.579 Y107.04 E65.41382
G0 F1800 X180.579 Y107.605
G1 F1200 X185.809 Y112.835 E65.65982
G0 F1800 X185.809 Y113.401
G1 F1200 X180.579 Y108.171 E65.90583
G0 F1800 X180.579 Y108.737
G1 F1200 X185.809 Y113.967 E66.15183
G0 F1800 X185.809 Y114.532
G1 F1200 X180.579 Y109.302 E66.39783
G0 F1800 X180.579 Y109.868
G1 F1200 X185.809 Y115.098 E66.64384
G0 F1800 X185.809 Y115.664
G1 F1200 X180.579 Y110.434 E66.88984
G0 F1800 X180.578 Y110.999
G1 F1200 X185.809 Y116.229 E67.13586
G0 F1800 X185.809 Y116.795
G1 F1200 X180.578 Y111.564 E67.38192
G0 F1800 X180.578 Y112.13
G1 F1200 X185.809 Y117.361 E67.62797
G0 F1800 X185.809 Y117.926
G1 F1200 X180.578 Y112.696 E67.87399
G0 F1800 X180.578 Y113.262
G1 F1200 X185.809 Y118.492 E68.12002
G0 F1800 X185.809 Y119.058
G1 F1200 X180.578 Y113.827 E68.36607
G0 F1800 X180.577 Y114.392
G1 F1200 X185.809 Y119.623 E68.61214
G0 F1800 X185.809 Y120.189
G1 F1200 X180.577 Y114.958 E68.85822
G0 F1800 X180.577 Y115.524
G1 F1200 X185.809 Y120.755 E69.10429
G0 F1800 X185.809 Y121.32
G1 F1200 X180.577 Y116.089 E69.35036
G0 F1800 X180.577 Y116.655
G1 F1200 X185.809 Y121.886 E69.59644
G0 F1800 X185.809 Y122.452
G1 F1200 X180.577 Y117.221 E69.84251
G0 F1800 X180.577 Y117.786
G1 F1200 X185.809 Y123.017 E70.08858
G0 F1800 X185.809 Y123.583
G1 F1200 X180.577 Y118.351 E70.33468
G0 F1800 X180.577 Y118.917
G1 F1200 X185.809 Y124.149 E70.58078
G0 F1800 X185.809 Y124.715
G1 F1200 X180.577 Y119.483 E70.82688
G0 F1800 X180.577 Y120.048
G1 F1200 X185.809 Y125.28 E71.07297
G0 F1800 X185.809 Y125.846
G1 F1200 X180.577 Y120.614 E71.31907
G0 F1800 X180.577 Y121.18
G1 F1200 X185.809 Y126.412 E71.56517
G0 F1800 X185.809 Y126.977
G1 F1200 X180.576 Y121.745 E71.81129
G0 F1800 X180.576 Y122.31
G1 F1200 X185.809 Y127.543 E72.05743
G0 F1800 X185.809 Y128.109
G1 F1200 X180.576 Y122.876 E72.30358
G0 F1800 X180.576 Y123.442
G1 F1200 X185.809 Y128.674 E72.5497
G0 F1800 X185.809 Y129.24
G1 F1200 X180.576 Y124.007 E72.79584
G0 F1800 X180.576 Y124.573
G1 F1200 X185.809 Y129.806 E73.04199
G0 F1800 X185.809 Y130.371
G1 F1200 X180.575 Y125.138 E73.28815
G0 F1800 X180.575 Y125.704
G1 F1200 X185.809 Y130.937 E73.53432
G0 F1800 X185.809 Y131.503
G1 F1200 X180.575 Y126.269 E73.78051
G0 F1800 X180.575 Y126.835
G1 F1200 X185.809 Y132.068 E74.02668
G0 F1800 X185.809 Y132.634
G1 F1200 X180.575 Y127.401 E74.27285
G0 F1800 X180.575 Y127.967
G1 F1200 X185.809 Y133.2 E74.51902
G0 F1800 X185.809 Y133.766
G1 F1200 X180.569 Y128.526 E74.76549
G0 F1800 X180.405 Y128.927
G1 F1200 X185.809 Y134.331 E75.01968
G0 F1800 X185.809 Y134.897
G1 F1200 X180.187 Y129.275 E75.28412
G0 F1800 X179.884 Y129.538
G1 F1200 X185.809 Y135.463 E75.56281
G0 F1800 X185.809 Y136.028
G1 F1200 X179.497 Y129.717 E75.85969
G0 F1800 X179.038 Y129.823
G1 F1200 X185.809 Y136.594 E76.17817
G0 F1800 X185.809 Y137.16
G1 F1200 X178.472 Y129.823 E76.52328
G0 F1800 X177.907 Y129.823
G1 F1200 X185.809 Y137.725 E76.89497
G0 F1800 X185.809 Y138.291
G1 F1200 X177.341 Y129.823 E77.29328
G0 F1800 X176.775 Y129.823
G1 F1200 X185.809 Y138.857 E77.71821
G0 F1800 X185.809 Y139.422
G1 F1200 X176.21 Y129.823 E78.16972
G0 F1800 X175.644 Y129.823
G1 F1200 X185.809 Y139.988 E78.64785
G0 F1800 X185.311 Y140.056
G1 F1200 X175.079 Y129.824 E79.12913
G0 F1800 X174.513 Y129.824
G1 F1200 X184.745 Y140.056 E79.61041
G0 F1800 X184.179 Y140.056
G1 F1200 X173.948 Y129.824 E80.09167
G0 F1800 X173.382 Y129.824
G1 F1200 X183.614 Y140.056 E80.57295
G0 F1800 X183.048 Y140.056
G1 F1200 X172.816 Y129.824 E81.05423
G0 F1800 X172.251 Y129.824
G1 F1200 X182.482 Y140.056 E81.53549
G0 F1800 X181.917 Y140.056
G1 F1200 X171.685 Y129.824 E82.01678
G0 F1800 X171.12 Y129.825
G1 F1200 X181.351 Y140.056 E82.49801
G0 F1800 X180.785 Y140.056
G1 F1200 X170.554 Y129.825 E82.97924
G0 F1800 X169.988 Y129.825
G1 F1200 X180.22 Y140.056 E83.4605
G0 F1800 X179.654 Y140.056
G1 F1200 X169.423 Y129.825 E83.94174
G0 F1800 X168.857 Y129.825
G1 F1200 X179.088 Y140.056 E84.42297
G0 F1800 X178.523 Y140.056
G1 F1200 X168.291 Y129.825 E84.90423
G0 F1800 X167.677 Y129.776
G1 F1200 X177.957 Y140.056 E85.38777
G0 F1800 X177.391 Y140.056
G1 F1200 X132.775 Y95.44 E87.48637
G0 F1800 X132.209 Y95.44
G1 F1200 X176.825 Y140.056 E89.58497
G0 F1800 X176.26 Y140.056
G1 F1200 X131.643 Y95.44 E91.68359
G0 F1800 X131.078 Y95.44
G1 F1200 X175.694 Y140.056 E93.78219
G0 F1800 X175.128 Y140.056
G1 F1200 X130.512 Y95.44 E95.88079
G0 F1800 X129.946 Y95.44
G1 F1200 X174.563 Y140.056 E97.97942
G0 F1800 X173.997 Y140.056
G1 F1200 X129.381 Y95.44 E100.07802
G0 F1800 X128.815 Y95.44
G1 F1200 X173.431 Y140.056 E102.17662
G0 F1800 X172.866 Y140.056
G1 F1200 X128.249 Y95.44 E104.27524
G0 F1800 X127.684 Y95.44
G1 F1200 X172.3 Y140.056 E106.37384
G0 F1800 X171.734 Y140.056
G1 F1200 X127.118 Y95.44 E108.47244
G0 F1800 X126.552 Y95.44
G1 F1200 X171.169 Y140.056 E110.57106
G0 F1800 X170.603 Y140.056
G1 F1200 X125.987 Y95.44 E112.66966
G0 F1800 X125.421 Y95.44
G1 F1200 X170.037 Y140.056 E114.76826
G0 F1800 X169.472 Y140.056
G1 F1200 X124.855 Y95.44 E116.86689
G0 F1800 X124.29 Y95.44
G1 F1200 X168.906 Y140.056 E118.96549
G0 F1800 X168.34 Y140.056
G1 F1200 X123.724 Y95.44 E121.06409
G0 F1800 X123.158 Y95.44
G1 F1200 X167.775 Y140.056 E123.16271
G0 F1800 X167.209 Y140.056
G1 F1200 X122.593 Y95.44 E125.26131
G0 F1800 X122.027 Y95.44
G1 F1200 X166.643 Y140.056 E127.35991
G0 F1800 X166.077 Y140.056
G1 F1200 X121.461 Y95.44 E129.45851
G0 F1800 X120.895 Y95.44
G1 F1200 X165.512 Y140.056 E131.55713
G0 F1800 X164.946 Y140.056
G1 F1200 X120.33 Y95.44 E133.65573
G0 F1800 X119.764 Y95.44
G1 F1200 X164.38 Y140.056 E135.75433
G0 F1800 X163.815 Y140.056
G1 F1200 X119.198 Y95.44 E137.85296
G0 F1800 X118.633 Y95.44
G1 F1200 X163.249 Y140.056 E139.95156
G0 F1800 X162.683 Y140.056
G1 F1200 X118.067 Y95.44 E142.05016
G0 F1800 X117.501 Y95.44
G1 F1200 X162.118 Y140.056 E144.14878
G0 F1800 X161.552 Y140.056
G1 F1200 X116.936 Y95.44 E146.24738
G0 F1800 X116.37 Y95.44
G1 F1200 X160.986 Y140.056 E148.34598
G0 F1800 X160.421 Y140.056
G1 F1200 X116.172 Y95.807 E150.42732
G0 F1800 X116.172 Y96.373
