;FLAVOR:Marlin
;TIME:4061
;Filament used: 4.42407m
;Layer height: 0.2
;MINX:106.2
;MINY:118.7
;MINZ:0.2
;MAXX:195.8
;MAXY:183.3
;MAXZ:12.1
;TARGET_MACHINE.NAME:Anycubic Kobra Plus
;Generated with Cura_SteamEngine 5.9.0
M140 S70
M105
M190 S70
M104 S195
M105
M109 S195
M82 ;absolute extrusion mode
G28 ;Home
G1 Z15.0 F6000 ;Move the platform down 15mm
;Prime the extruder
G92 E0
M355 S1; Turn LED on
; Add Custom purge lines
G1 Z2.0 F3000 ; Move Z Axis up little to prevent scratching of Heat Bed
G1 X1.0 Y30 Z0.3 F5000.0 ; Move to start position
G1 X1.0 Y100.0 Z0.3 F1500.0 E15 ; Draw the first line
G1 X1.3 Y100.0 Z0.3 F5000.0 ; Move to side a little
G1 X1.3 Y30 Z0.3 F1500.0 E30 ; Draw the second line
G92 E0 ; Reset Extruder
G1 E-2 F500 ; Retract a little 
G1 X50 F500 ; wipe away from the filament line
G1 X100 F9000 ; Quickly wipe away from the filament line
G1 Z5.0 F3000 ; Move Z Axis up little to prevent scratching of Heat Bed
; End custom purge lines
G92 E0
G92 E0
G1 F1500 E-6.5
;LAYER_COUNT:60
;LAYER:0
M107
G1 F600 Z0.3
G0 F1800 X187.726 Y179.731 Z0.3
;TYPE:SKIRT
G1 F600 Z0.2
G1 F1500 E0
G1 F1200 X187.074 Y179.808 E0.02184
G1 X186.284 Y179.819 E0.04811
G1 X115.65 Y179.82 E2.39741
G1 X114.965 Y179.81 E2.4202
G1 X114.425 Y179.756 E2.43825
G1 X113.563 Y179.582 E2.46749
G1 X112.903 Y179.375 E2.4905
G1 X112.139 Y179.02 E2.51852
G1 X111.708 Y178.755 E2.53535
G1 X111.068 Y178.171 E2.56417
G1 X110.74 Y177.786 E2.58099
G1 X110.486 Y177.373 E2.59711
G1 X110.134 Y176.619 E2.62479
G1 X109.883 Y175.819 E2.65268
G1 X109.746 Y175.093 E2.67725
G1 X109.692 Y174.558 E2.69514
G1 X109.681 Y173.781 E2.72098
G1 X109.679 Y158.973 E3.2135
G1 X109.692 Y158.128 E3.24161
G1 X109.795 Y157.078 E3.2767
G1 X109.917 Y156.009 E3.31248
G1 X110.147 Y153.28 E3.40357
G1 X110.3 Y150.56 E3.49418
G1 X110.377 Y147.811 E3.58565
G1 X110.375 Y145.092 E3.67608
G1 X110.296 Y142.339 E3.76769
G1 X110.14 Y139.593 E3.85917
G1 X109.91 Y136.905 E3.9489
G1 X109.782 Y135.774 E3.98675
G1 X109.692 Y134.853 E4.01753
G1 X109.681 Y134.001 E4.04587
G1 X109.679 Y128.088 E4.24254
G1 X109.688 Y127.481 E4.26273
G1 X109.75 Y126.904 E4.28203
G1 X109.904 Y126.13 E4.30828
G1 X110.121 Y125.411 E4.33326
G1 X110.483 Y124.634 E4.36177
G1 X110.748 Y124.204 E4.37857
G1 X111.308 Y123.587 E4.40628
G1 X111.691 Y123.258 E4.42308
G1 X112.289 Y122.913 E4.44604
G1 X112.983 Y122.607 E4.47126
G1 X113.554 Y122.417 E4.49128
G1 X114.39 Y122.247 E4.51965
G1 X114.935 Y122.192 E4.53787
G1 X115.668 Y122.181 E4.56226
G1 X186.35 Y122.181 E6.91315
G1 X187.033 Y122.191 E6.93587
G1 X187.608 Y122.252 E6.9551
G1 X188.315 Y122.392 E6.97907
G1 X188.926 Y122.578 E7.00031
G1 X189.618 Y122.867 E7.02526
G1 X190.068 Y123.098 E7.04208
G1 X190.747 Y123.628 E7.07073
G1 X191.234 Y124.182 E7.09526
G1 X191.505 Y124.612 E7.11217
G1 X191.827 Y125.287 E7.13704
G1 X192.105 Y126.152 E7.16726
G1 X192.247 Y126.861 E7.19131
G1 X192.309 Y127.439 E7.21065
G1 X192.319 Y128.085 E7.23213
G1 X192.319 Y173.848 E8.75422
G1 X192.309 Y174.545 E8.7774
G1 X192.247 Y175.127 E8.79687
G1 X192.103 Y175.846 E8.82126
G1 X191.886 Y176.566 E8.84627
G1 X191.532 Y177.338 E8.87452
G1 X191.27 Y177.771 E8.89135
G1 X190.701 Y178.404 E8.91966
G1 X190.319 Y178.735 E8.93647
G1 X189.721 Y179.082 E8.95947
G1 X189.101 Y179.358 E8.98204
G1 X188.499 Y179.558 E9.00314
G1 X187.726 Y179.731 E9.02948
G1 F1500 E2.52948
G1 F600 Z0.3
;MESH:Case_5-Top Case - No Logo.stl
G0 F1800 X186.356 Y173.744 Z0.3
;TYPE:WALL-INNER
G1 F600 Z0.2
G1 F1500 E9.02948
G1 F727.3 X186.315 Y173.673 E9.03398
G1 X186.233 Y173.673 E9.03848
G1 X186.192 Y173.744 E9.04298
G1 X186.233 Y173.815 E9.04748
G1 X186.315 Y173.815 E9.05198
G1 X186.356 Y173.744 E9.05648
G1 F1500 E2.55648
G1 F600 Z0.3
G0 F1800 X173.333 Y172.967 Z0.3
G1 F600 Z0.2
G1 F1500 E9.05648
G1 F1200 X173.549 Y172.713 E9.06757
G1 X173.805 Y172.557 E9.07754
G1 X174.105 Y172.483 E9.08782
G1 X180.281 Y172.483 E9.29323
G1 X180.647 Y172.588 E9.3059
G1 X180.906 Y172.779 E9.3166
G1 X181.286 Y173.165 E9.33462
G1 X181.481 Y173.293 E9.34238
G1 X181.867 Y173.436 E9.35607
G1 X182.16 Y173.47 E9.36588
G1 X182.562 Y173.426 E9.37933
G1 X182.847 Y173.324 E9.3894
G1 X183.265 Y173.016 E9.40666
G1 X183.537 Y172.622 E9.42259
G1 X183.658 Y172.278 E9.43472
G1 X183.686 Y172.011 E9.44365
G1 X183.646 Y171.625 E9.45655
G1 X183.552 Y171.358 E9.46597
G1 X183.403 Y171.104 E9.47576
G1 X183.205 Y170.881 E9.48568
G1 X182.982 Y170.711 E9.49501
G1 X182.451 Y170.505 E9.51395
G1 X182.045 Y170.492 E9.52746
G1 X181.506 Y170.651 E9.54615
G1 X181.188 Y170.874 E9.55907
G1 X180.908 Y171.183 E9.57294
G1 X180.648 Y171.373 E9.58365
G1 X180.282 Y171.477 E9.59631
G1 X174.105 Y171.477 E9.80175
G1 X173.805 Y171.403 E9.81203
G1 X173.549 Y171.247 E9.822
G1 X173.409 Y171.103 E9.82868
G1 X173.25 Y170.817 E9.83957
G1 X173.09 Y170.329 E9.85665
G1 X173.096 Y169.667 E9.87867
G1 X173.171 Y169.329 E9.89018
G1 X173.378 Y168.898 E9.90608
G1 X173.519 Y168.739 E9.91315
G1 X173.832 Y168.546 E9.92538
G1 X174.12 Y168.482 E9.93519
G1 X179.86 Y168.48 E10.12611
G1 X179.99 Y168.398 E10.13122
G1 X180.806 Y167.98 E10.16171
G1 X181.842 Y167.745 E10.19705
G1 X182.68 Y167.744 E10.22492
G1 X183.671 Y167.957 E10.25863
G1 X184.333 Y168.267 E10.28295
G1 X184.968 Y168.685 E10.30823
G1 X185.665 Y169.408 E10.34163
G1 X186.118 Y170.155 E10.37069
G1 X186.404 Y171.014 E10.4008
G1 X186.404 Y155.872 E10.90443
G1 X186.068 Y156.805 E10.93741
G1 X185.601 Y157.526 E10.96598
G1 X185.156 Y158.008 E10.9878
G1 X184.346 Y158.593 E11.02103
G1 X183.841 Y158.824 E11.0395
G1 X183.209 Y159.02 E11.06151
G1 X182.67 Y159.114 E11.07971
G1 X181.686 Y159.091 E11.11244
G1 X181.015 Y158.944 E11.13529
G1 X180.343 Y158.664 E11.15951
G1 X179.889 Y158.38 E11.17732
G1 X174.12 Y158.378 E11.36919
G1 X173.807 Y158.303 E11.3799
G1 X173.47 Y158.073 E11.39347
G1 X173.285 Y157.804 E11.40433
G1 X173.073 Y157.127 E11.42792
G1 X173.102 Y156.498 E11.44887
G1 X173.148 Y156.292 E11.45589
G1 X173.321 Y155.888 E11.4705
G1 X173.429 Y155.733 E11.47679
G1 X173.683 Y155.518 E11.48786
G1 X174.105 Y155.383 E11.50259
G1 X180.192 Y155.38 E11.70505
G1 X180.65 Y155.49 E11.72071
G1 X180.913 Y155.686 E11.73162
G1 X181.249 Y156.034 E11.74771
G1 X181.567 Y156.231 E11.76015
G1 X181.926 Y156.344 E11.77267
G1 X182.302 Y156.365 E11.7852
G1 X182.672 Y156.292 E11.79774
G1 X183.111 Y156.06 E11.81425
G1 X183.345 Y155.834 E11.82507
G1 X183.561 Y155.48 E11.83887
G1 X183.667 Y155.11 E11.85167
G1 X183.677 Y154.715 E11.86481
G1 X183.624 Y154.453 E11.8737
G1 X183.469 Y154.103 E11.88643
G1 X183.23 Y153.803 E11.89919
G1 X182.824 Y153.522 E11.91561
G1 X182.468 Y153.412 E11.92801
G1 X182 Y153.4 E11.94358
G1 X181.619 Y153.499 E11.95667
G1 X181.28 Y153.696 E11.96971
G1 X180.909 Y154.078 E11.98742
G1 X180.65 Y154.27 E11.99814
G1 X180.192 Y154.38 E12.01381
G1 X174.105 Y154.377 E12.21627
G1 X173.683 Y154.242 E12.231
G1 X173.429 Y154.027 E12.24207
G1 X173.321 Y153.872 E12.24835
G1 X173.097 Y153.339 E12.26758
G1 X173.075 Y152.564 E12.29337
G1 X173.28 Y151.967 E12.31436
G1 X173.519 Y151.64 E12.32784
G1 X173.762 Y151.476 E12.33759
G1 X174.127 Y151.382 E12.35012
G1 X179.886 Y151.38 E12.54167
G1 X180.345 Y151.091 E12.55971
G1 X181.047 Y150.808 E12.58488
G1 X181.866 Y150.645 E12.61266
G1 X182.611 Y150.644 E12.63744
G1 X183.14 Y150.715 E12.65519
G1 X183.946 Y150.967 E12.68328
G1 X184.84 Y151.484 E12.71762
G1 X185.451 Y152.052 E12.74537
G1 X185.854 Y152.585 E12.7676
G1 X186.237 Y153.337 E12.79566
G1 X186.404 Y153.99 E12.81808
G1 X186.404 Y128.23 E13.67486
G1 X186.311 Y128.113 E13.67983
G1 X115.685 Y128.113 E16.02886
G1 X115.608 Y128.203 E16.0328
G1 X115.594 Y133.577 E16.21154
G1 X116.418 Y133.718 E16.23935
G1 X117.369 Y134.033 E16.27267
G1 X118.225 Y134.402 E16.30367
G1 X119.073 Y134.935 E16.33699
G1 X119.799 Y135.486 E16.3673
G1 X120.447 Y136.147 E16.39809
G1 X120.985 Y136.816 E16.42664
G1 X121.365 Y137.395 E16.44968
G1 X121.841 Y138.297 E16.4836
G1 X122.18 Y139.262 E16.51762
G1 X122.362 Y140.026 E16.54374
G1 X122.498 Y140.969 E16.57543
G1 X122.495 Y151.851 E16.93736
G1 X122.42 Y152.615 E16.9629
G1 X122.237 Y153.59 E16.99589
G1 X121.853 Y154.682 E17.03439
G1 X121.428 Y155.499 E17.06502
G1 X120.943 Y156.235 E17.09434
G1 X120.457 Y156.838 E17.1201
G1 X119.926 Y157.377 E17.14526
G1 X119.308 Y157.892 E17.17202
G1 X118.702 Y158.307 E17.19645
G1 X118.046 Y158.668 E17.22135
G1 X117.377 Y158.961 E17.24564
G1 X116.403 Y159.282 E17.27975
G1 X115.597 Y159.422 E17.30696
G1 X115.613 Y173.811 E17.78554
G1 X115.7 Y173.888 E17.78941
G1 X123.072 Y173.9 E18.0346
G1 X122.917 Y173.409 E18.05173
G1 X122.894 Y173.061 E18.06333
G1 X122.977 Y172.625 E18.07809
G1 X123.288 Y172.046 E18.09995
G1 X123.776 Y171.558 E18.1229
G1 X123.063 Y171.557 E18.14662
G1 X122.79 Y171.485 E18.15601
G1 X122.278 Y171.264 E18.17455
G1 X121.956 Y170.984 E18.18875
G1 X121.756 Y170.698 E18.20035
G1 X121.536 Y170.177 E18.21916
G1 X121.5 Y169.754 E18.23328
G1 X121.531 Y169.502 E18.24173
G1 X121.671 Y169.053 E18.25737
G1 X122.088 Y168.505 E18.28028
G1 X122.335 Y168.324 E18.29046
G1 X122.832 Y168.117 E18.30837
G1 X123.148 Y168.06 E18.31905
G1 X123.776 Y168.059 E18.33993
G1 X123.24 Y167.524 E18.36512
G1 X122.987 Y167.025 E18.38373
G1 X122.889 Y166.391 E18.40507
G1 X123.016 Y165.807 E18.42495
G1 X123.244 Y165.401 E18.44043
G1 X123.662 Y164.999 E18.45972
G1 X124.151 Y164.771 E18.47767
G1 X124.409 Y164.718 E18.48643
G1 X125.063 Y164.75 E18.50821
G1 X125.516 Y164.935 E18.52448
G1 X125.876 Y165.208 E18.53951
G1 X126.248 Y165.581 E18.55703
G1 X126.251 Y164.796 E18.58314
G1 X126.489 Y164.174 E18.60529
G1 X126.792 Y163.79 E18.62156
G1 X127.095 Y163.558 E18.63425
G1 X127.698 Y163.336 E18.65562
G1 X128.274 Y163.33 E18.67478
G1 X128.946 Y163.591 E18.69876
G1 X129.14 Y163.741 E18.70692
G1 X129.542 Y164.235 E18.7281
G1 X129.748 Y164.837 E18.74926
G1 X129.749 Y165.583 E18.77407
G1 X130.283 Y165.05 E18.79917
G1 X130.828 Y164.783 E18.81935
G1 X131.449 Y164.703 E18.84018
G1 X131.926 Y164.794 E18.85633
G1 X132.43 Y165.076 E18.87554
G1 X132.802 Y165.463 E18.89339
G1 X132.887 Y165.603 E18.89884
G1 X133.066 Y166.146 E18.91786
G1 X133.107 Y166.488 E18.92931
G1 X133.012 Y167.018 E18.94722
G1 X132.759 Y167.525 E18.96607
G1 X132.223 Y168.06 E18.99125
G1 X133.041 Y168.06 E19.01846
G1 X133.728 Y168.361 E19.04341
G1 X134.166 Y168.785 E19.06368
G1 X134.455 Y169.373 E19.08548
G1 X134.482 Y170.041 E19.10771
G1 X134.333 Y170.55 E19.12535
G1 X133.983 Y171.031 E19.14514
G1 X133.72 Y171.263 E19.1568
G1 X133.207 Y171.486 E19.17541
G1 X132.935 Y171.56 E19.18478
G1 X132.222 Y171.56 E19.2085
G1 X132.711 Y172.048 E19.23147
G1 X133.021 Y172.627 E19.25332
G1 X133.103 Y173.064 E19.26811
G1 X133.044 Y173.613 E19.28647
G1 X132.937 Y173.908 E19.29691
G1 X141.553 Y173.907 E19.58348
G1 X141.217 Y173.616 E19.59826
G1 X140.985 Y173.3 E19.6113
G1 X140.747 Y172.749 E19.63126
G1 X140.692 Y172.419 E19.64239
G1 X140.699 Y159.149 E20.08375
G1 X140.815 Y158.59 E20.10274
G1 X141.17 Y157.961 E20.12676
G1 X141.788 Y157.482 E20.15277
G1 X142.402 Y157.281 E20.17426
G1 X166.891 Y157.281 E20.98876
G1 X167.199 Y157.349 E20.99926
G1 X167.78 Y157.6 E21.02031
G1 X167.996 Y157.764 E21.02933
G1 X168.291 Y158.072 E21.04351
G1 X168.505 Y158.429 E21.05735
G1 X168.692 Y159.005 E21.0775
G1 X168.692 Y172.324 E21.52049
G1 X168.632 Y172.746 E21.53467
G1 X168.526 Y173.049 E21.54534
G1 X168.317 Y173.428 E21.55974
G1 X168.032 Y173.755 E21.57416
G1 X167.824 Y173.907 E21.58273
G1 X173.072 Y173.907 E21.75728
G1 X173.119 Y173.535 E21.76975
G1 X173.333 Y172.967 E21.78994
G0 F1800 X173.806 Y173.02
G1 F1200 X173.96 Y172.926 E21.79594
G1 X174.139 Y172.882 E21.80207
G1 X180.245 Y172.882 E22.00516
G1 X180.525 Y172.962 E22.01484
G1 X181.031 Y173.477 E22.03886
G1 X181.3 Y173.652 E22.04953
G1 X181.773 Y173.828 E22.06632
G1 X182.159 Y173.872 E22.07924
G1 X182.652 Y173.819 E22.09573
G1 X183.02 Y173.687 E22.10873
G1 X183.31 Y173.511 E22.12002
G1 X183.567 Y173.283 E22.13144
G1 X183.896 Y172.805 E22.15074
G1 X184.05 Y172.366 E22.16622
G1 X184.088 Y172.011 E22.17809
G1 X184.038 Y171.537 E22.19395
G1 X183.917 Y171.189 E22.2062
G1 X183.728 Y170.867 E22.21862
G1 X183.478 Y170.587 E22.2311
G1 X183.189 Y170.366 E22.2432
G1 X182.744 Y170.163 E22.25947
G1 X182.504 Y170.107 E22.26767
G1 X182.013 Y170.091 E22.28401
G1 X181.662 Y170.159 E22.2959
G1 X181.315 Y170.296 E22.30831
G1 X180.921 Y170.573 E22.32433
G1 X180.623 Y170.902 E22.33909
G1 X180.468 Y171.016 E22.34549
G1 X180.248 Y171.078 E22.35309
G1 X174.139 Y171.078 E22.55628
G1 X173.96 Y171.034 E22.56241
G1 X173.806 Y170.94 E22.56841
G1 X173.676 Y170.788 E22.57506
G1 X173.482 Y170.247 E22.59418
G1 X173.496 Y169.685 E22.61288
G1 X173.541 Y169.482 E22.61979
G1 X173.703 Y169.131 E22.63265
G1 X173.976 Y168.92 E22.64413
G1 X174.149 Y168.881 E22.65002
G1 X179.992 Y168.88 E22.84436
G1 X180.173 Y168.754 E22.8517
G1 X180.942 Y168.359 E22.88045
G1 X181.861 Y168.149 E22.91181
G1 X182.637 Y168.144 E22.93762
G1 X183.544 Y168.339 E22.96847
G1 X184.114 Y168.602 E22.98935
G1 X184.707 Y168.992 E23.01296
G1 F1170.7 X185.347 Y169.655 E23.04437
G1 F1116.3 X185.744 Y170.309 E23.07173
G1 F1043.5 X186.064 Y171.134 E23.10557
G1 F907.4 X186.14 Y171.264 E23.1122
G1 F857.1 X186.19 Y171.997 E23.14641
G1 F866.4 X186.161 Y172.558 E23.17229
G1 F879.1 X186.127 Y172.616 E23.17534
G1 F1036.7 X185.804 Y173.501 E23.21161
G1 F1200 X185.542 Y174.007 E23.23056
G1 X185.337 Y174.296 E23.24234
G1 X186.378 Y174.285 E23.27697
G1 X186.576 Y174.203 E23.2841
G1 X186.72 Y174.051 E23.29106
G1 F1111.1 X186.827 Y173.794 E23.30106
G1 F971.7 X186.742 Y172.698 E23.34622
G1 F879.1 X186.722 Y172.606 E23.35049
G1 F866.4 X186.733 Y171.952 E23.38062
G1 F857.1 X186.716 Y171.235 E23.41402
G1 F907.4 X186.764 Y171.021 E23.42366
G1 F1090.9 X186.804 Y170.221 E23.45297
G1 F1200 X186.804 Y155.94 E23.92796
G1 F971.7 X186.71 Y155.766 E23.93608
G1 F842.1 X186.729 Y155.262 E23.95999
G1 F857.1 X186.72 Y154.235 E24.00781
G1 F991.7 X186.804 Y153.43 E24.04038
G1 F1200 X186.804 Y128.148 E24.88127
G1 X186.695 Y127.894 E24.89046
G1 X186.558 Y127.779 E24.89641
G1 X186.386 Y127.712 E24.90255
G1 X115.61 Y127.712 E27.25657
G1 X115.438 Y127.779 E27.26271
G1 X115.308 Y127.889 E27.26837
G1 X115.208 Y128.121 E27.27677
G1 X115.194 Y133.937 E27.47021
G1 X115.539 Y133.972 E27.48175
G1 X116.363 Y134.121 E27.5096
G1 X117.159 Y134.381 E27.53745
G1 X118.077 Y134.782 E27.57077
G1 X118.831 Y135.254 E27.60036
G1 X119.561 Y135.815 E27.63098
G1 X120.2 Y136.471 E27.66144
G1 X120.616 Y136.987 E27.68348
G1 X121.059 Y137.664 E27.71039
G1 X121.475 Y138.456 E27.74014
G1 X121.791 Y139.357 E27.7719
G1 X121.966 Y140.084 E27.79677
G1 X122.099 Y140.997 E27.82746
G1 X122.097 Y151.812 E28.18717
G1 X122.014 Y152.63 E28.21451
G1 X121.858 Y153.442 E28.24202
G1 X121.465 Y154.562 E28.28149
G1 X121.071 Y155.317 E28.30982
G1 X120.63 Y155.986 E28.33647
G1 X120.21 Y156.514 E28.35891
G1 X119.689 Y157.052 E28.38382
G1 X119.081 Y157.563 E28.41023
G1 X118.497 Y157.963 E28.43378
G1 X117.871 Y158.308 E28.45755
G1 X117.162 Y158.615 E28.48325
G1 X116.268 Y158.9 E28.51446
G1 X115.196 Y159.084 E28.55063
G1 X115.212 Y173.892 E29.04315
G1 X115.272 Y174.048 E29.04871
G1 X115.39 Y174.191 E29.05488
G1 X115.618 Y174.288 E29.06312
G1 X123.955 Y174.303 E29.34041
G1 X123.63 Y174.057 E29.35396
G1 X123.384 Y173.643 E29.36998
G1 X123.291 Y173.105 E29.38814
G1 X123.349 Y172.771 E29.39941
G1 X123.607 Y172.292 E29.41751
G1 X124.74 Y171.16 E29.47078
G1 X123.061 Y171.157 E29.52662
G1 X122.485 Y170.922 E29.54731
G1 X122.239 Y170.701 E29.55831
G1 X122.119 Y170.529 E29.56529
G1 X121.925 Y170.082 E29.5815
G1 X121.9 Y169.753 E29.59247
G1 X122.028 Y169.233 E29.61028
G1 X122.371 Y168.787 E29.629
G1 X122.519 Y168.679 E29.63509
G1 X122.966 Y168.494 E29.65118
G1 X123.168 Y168.459 E29.658
G1 X124.743 Y168.459 E29.71038
G1 X123.557 Y167.275 E29.76612
G1 X123.365 Y166.894 E29.78031
G1 X123.288 Y166.41 E29.79661
G1 X123.381 Y165.972 E29.8115
G1 X123.498 Y165.728 E29.82051
G1 X123.941 Y165.295 E29.84111
G1 X124.437 Y165.117 E29.85864
G1 X124.964 Y165.138 E29.87618
G1 X125.307 Y165.276 E29.88847
G1 X125.593 Y165.491 E29.90038
G1 X126.648 Y166.548 E29.95005
G1 X126.65 Y164.918 E30.00426
G1 X126.795 Y164.447 E30.02065
G1 X127.007 Y164.144 E30.03295
