;FLAVOR:Marlin
;TIME:4312
;Filament used: 4.35199m
;Layer height: 0.2
;MINX:106.2
;MINY:118.7
;MINZ:0.2
;MAXX:195.8
;MAXY:183.3
;MAXZ:12.1
;TARGET_MACHINE.NAME:Anycubic Kobra Plus
;Generated with Cura_SteamEngine 5.9.0
M140 S70
M105
M190 S70
M104 S195
M105
M109 S195
M82 ;absolute extrusion mode
G28 ;Home
G1 Z15.0 F6000 ;Move the platform down 15mm
;Prime the extruder
G92 E0
M355 S1; Turn LED on
; Add Custom purge lines
G1 Z2.0 F3000 ; Move Z Axis up little to prevent scratching of Heat Bed
G1 X1.0 Y30 Z0.3 F5000.0 ; Move to start position
G1 X1.0 Y100.0 Z0.3 F1500.0 E15 ; Draw the first line
G1 X1.3 Y100.0 Z0.3 F5000.0 ; Move to side a little
G1 X1.3 Y30 Z0.3 F1500.0 E30 ; Draw the second line
G92 E0 ; Reset Extruder
G1 E-2 F500 ; Retract a little 
G1 X50 F500 ; wipe away from the filament line
G1 X100 F9000 ; Quickly wipe away from the filament line
G1 Z5.0 F3000 ; Move Z Axis up little to prevent scratching of Heat Bed
; End custom purge lines
G92 E0
G92 E0
G1 F1500 E-6.5
;LAYER_COUNT:60
;LAYER:0
M107
G1 F600 Z0.3
G0 F1800 X187.726 Y179.731 Z0.3
;TYPE:SKIRT
G1 F600 Z0.2
G1 F1500 E0
G1 F1200 X187.074 Y179.808 E0.02184
G1 X186.284 Y179.819 E0.04811
G1 X115.65 Y179.82 E2.39741
G1 X114.965 Y179.81 E2.4202
G1 X114.425 Y179.756 E2.43825
G1 X113.563 Y179.582 E2.46749
G1 X112.903 Y179.375 E2.4905
G1 X112.139 Y179.02 E2.51852
G1 X111.708 Y178.755 E2.53535
G1 X111.068 Y178.171 E2.56417
G1 X110.74 Y177.786 E2.58099
G1 X110.486 Y177.373 E2.59711
G1 X110.134 Y176.619 E2.62479
G1 X109.883 Y175.819 E2.65268
G1 X109.746 Y175.093 E2.67725
G1 X109.692 Y174.558 E2.69514
G1 X109.681 Y173.781 E2.72098
G1 X109.679 Y158.973 E3.2135
G1 X109.692 Y158.128 E3.24161
G1 X109.795 Y157.078 E3.2767
G1 X109.917 Y156.009 E3.31248
G1 X110.147 Y153.28 E3.40357
G1 X110.3 Y150.56 E3.49418
G1 X110.377 Y147.811 E3.58565
G1 X110.375 Y145.092 E3.67608
G1 X110.296 Y142.339 E3.76769
G1 X110.14 Y139.593 E3.85917
G1 X109.91 Y136.905 E3.9489
G1 X109.782 Y135.774 E3.98675
G1 X109.692 Y134.853 E4.01753
G1 X109.681 Y134.001 E4.04587
G1 X109.679 Y128.088 E4.24254
G1 X109.688 Y127.481 E4.26273
G1 X109.75 Y126.904 E4.28203
G1 X109.904 Y126.13 E4.30828
G1 X110.121 Y125.411 E4.33326
G1 X110.483 Y124.634 E4.36177
G1 X110.748 Y124.204 E4.37857
G1 X111.308 Y123.587 E4.40628
G1 X111.691 Y123.258 E4.42308
G1 X112.289 Y122.913 E4.44604
G1 X112.983 Y122.607 E4.47126
G1 X113.554 Y122.417 E4.49128
G1 X114.39 Y122.247 E4.51965
G1 X114.935 Y122.192 E4.53787
G1 X115.668 Y122.181 E4.56226
G1 X186.35 Y122.181 E6.91315
G1 X187.033 Y122.191 E6.93587
G1 X187.608 Y122.252 E6.9551
G1 X188.315 Y122.392 E6.97907
G1 X188.926 Y122.578 E7.00031
G1 X189.618 Y122.867 E7.02526
G1 X190.068 Y123.098 E7.04208
G1 X190.747 Y123.628 E7.07073
G1 X191.234 Y124.182 E7.09526
G1 X191.505 Y124.612 E7.11217
G1 X191.827 Y125.287 E7.13704
G1 X192.105 Y126.152 E7.16726
G1 X192.247 Y126.861 E7.19131
G1 X192.309 Y127.439 E7.21065
G1 X192.319 Y128.085 E7.23213
G1 X192.319 Y173.848 E8.75422
G1 X192.309 Y174.545 E8.7774
G1 X192.247 Y175.127 E8.79687
G1 X192.103 Y175.846 E8.82126
G1 X191.886 Y176.566 E8.84627
G1 X191.532 Y177.338 E8.87452
G1 X191.27 Y177.771 E8.89135
G1 X190.701 Y178.404 E8.91966
G1 X190.319 Y178.735 E8.93647
G1 X189.721 Y179.082 E8.95947
G1 X189.101 Y179.358 E8.98204
G1 X188.499 Y179.558 E9.00314
G1 X187.726 Y179.731 E9.02948
G1 F1500 E2.52948
G1 F600 Z0.3
;MESH:Case_5-Top Case - CNet Logo.stl
G0 F1800 X186.356 Y173.744 Z0.3
;TYPE:WALL-INNER
G1 F600 Z0.2
G1 F1500 E9.02948
G1 F727.3 X186.315 Y173.673 E9.03398
G1 X186.233 Y173.673 E9.03848
G1 X186.192 Y173.744 E9.04298
G1 X186.233 Y173.815 E9.04748
G1 X186.315 Y173.815 E9.05198
G1 X186.356 Y173.744 E9.05648
G1 F1500 E2.55648
G1 F600 Z0.3
G0 F1800 X173.333 Y172.967 Z0.3
G1 F600 Z0.2
G1 F1500 E9.05648
G1 F1200 X173.549 Y172.713 E9.06757
G1 X173.805 Y172.557 E9.07754
G1 X174.105 Y172.483 E9.08782
G1 X180.281 Y172.483 E9.29323
G1 X180.647 Y172.588 E9.3059
G1 X180.906 Y172.779 E9.3166
G1 X181.286 Y173.165 E9.33462
G1 X181.481 Y173.293 E9.34238
G1 X181.867 Y173.436 E9.35607
G1 X182.16 Y173.47 E9.36588
G1 X182.562 Y173.426 E9.37933
G1 X182.847 Y173.324 E9.3894
G1 X183.265 Y173.016 E9.40666
G1 X183.537 Y172.622 E9.42259
G1 X183.658 Y172.278 E9.43472
G1 X183.686 Y172.011 E9.44365
G1 X183.646 Y171.625 E9.45655
G1 X183.552 Y171.358 E9.46597
G1 X183.403 Y171.104 E9.47576
G1 X183.205 Y170.881 E9.48568
G1 X182.982 Y170.711 E9.49501
G1 X182.451 Y170.505 E9.51395
G1 X182.045 Y170.492 E9.52746
G1 X181.506 Y170.651 E9.54615
G1 X181.188 Y170.874 E9.55907
G1 X180.908 Y171.183 E9.57294
G1 X180.648 Y171.373 E9.58365
G1 X180.282 Y171.477 E9.59631
G1 X174.105 Y171.477 E9.80175
G1 X173.805 Y171.403 E9.81203
G1 X173.549 Y171.247 E9.822
G1 X173.409 Y171.103 E9.82868
G1 X173.25 Y170.817 E9.83957
G1 X173.09 Y170.329 E9.85665
G1 X173.096 Y169.667 E9.87867
G1 X173.171 Y169.329 E9.89018
G1 X173.378 Y168.898 E9.90608
G1 X173.519 Y168.739 E9.91315
G1 X173.832 Y168.546 E9.92538
G1 X174.12 Y168.482 E9.93519
G1 X179.86 Y168.48 E10.12611
G1 X179.99 Y168.398 E10.13122
G1 X180.806 Y167.98 E10.16171
G1 X181.842 Y167.745 E10.19705
G1 X182.646 Y167.744 E10.22379
G1 X183.173 Y167.828 E10.24154
G1 X183.882 Y168.04 E10.26615
G1 X184.615 Y168.429 E10.29375
G1 X185.184 Y168.889 E10.31809
G1 X185.672 Y169.423 E10.34215
G1 X186.117 Y170.153 E10.37058
G1 X186.404 Y171.014 E10.40077
G1 X186.404 Y156.754 E10.87506
G1 F1218.3 X186.414 Y155.829 E10.90536
G1 X186.067 Y156.807 E10.93936
G1 F1200 X185.587 Y157.548 E10.96873
G1 X184.841 Y158.27 E11.00326
G1 X183.944 Y158.79 E11.03774
G1 X183.21 Y159.019 E11.06331
G1 X182.671 Y159.114 E11.08152
G1 X181.686 Y159.091 E11.11429
G1 X181.015 Y158.944 E11.13713
G1 X180.343 Y158.664 E11.16135
G1 X179.889 Y158.38 E11.17916
G1 X174.12 Y158.378 E11.37104
G1 X173.806 Y158.303 E11.38177
G1 X173.469 Y158.072 E11.39536
G1 X173.285 Y157.803 E11.4062
G1 X173.114 Y157.331 E11.4229
G1 X173.078 Y157.119 E11.43005
G1 X173.102 Y156.409 E11.45368
G1 X173.321 Y155.888 E11.47248
G1 X173.429 Y155.733 E11.47876
G1 X173.683 Y155.518 E11.48983
G1 X174.105 Y155.383 E11.50457
G1 X180.192 Y155.38 E11.70702
G1 X180.65 Y155.49 E11.72269
G1 X180.913 Y155.686 E11.7336
G1 X181.249 Y156.034 E11.74969
G1 X181.567 Y156.231 E11.76213
G1 X181.927 Y156.344 E11.77468
G1 X182.322 Y156.367 E11.78784
G1 X182.819 Y156.238 E11.80492
G1 X183.155 Y156.02 E11.81824
G1 X183.416 Y155.727 E11.83129
G1 X183.624 Y155.298 E11.84714
G1 X183.688 Y154.95 E11.85891
G1 X183.631 Y154.461 E11.87529
G1 X183.399 Y153.991 E11.89272
G1 X183.033 Y153.641 E11.90956
G1 X182.665 Y153.463 E11.92316
G1 X182.291 Y153.387 E11.93585
G1 X181.813 Y153.431 E11.95182
G1 X181.275 Y153.702 E11.97186
G1 X180.909 Y154.078 E11.98931
G1 X180.65 Y154.27 E12.00003
G1 X180.192 Y154.38 E12.0157
G1 X174.105 Y154.377 E12.21815
G1 X173.683 Y154.242 E12.23289
G1 X173.429 Y154.027 E12.24396
G1 X173.17 Y153.533 E12.26251
G1 X173.095 Y153.232 E12.27283
G1 X173.094 Y152.514 E12.29671
G1 X173.309 Y151.909 E12.31806
G1 X173.444 Y151.715 E12.32592
G1 X173.697 Y151.51 E12.33675
G1 X174.095 Y151.38 E12.35068
G1 X179.886 Y151.38 E12.54329
G1 X180.345 Y151.091 E12.56133
G1 X181.04 Y150.804 E12.58634
G1 X181.894 Y150.642 E12.61525
G1 X182.71 Y150.644 E12.64239
G1 X183.541 Y150.818 E12.67063
G1 X184.3 Y151.142 E12.69808
G1 X184.843 Y151.49 E12.71953
G1 X185.457 Y152.057 E12.74732
G1 X185.893 Y152.664 E12.77218
G1 X186.152 Y153.131 E12.78994
G1 X186.404 Y153.884 E12.81635
G1 X186.404 Y128.23 E13.66961
G1 X186.311 Y128.113 E13.67458
G1 X115.685 Y128.113 E16.02361
G1 X115.608 Y128.203 E16.02755
G1 X115.594 Y133.577 E16.20629
G1 X116.418 Y133.718 E16.23409
G1 X117.369 Y134.033 E16.26741
G1 X118.225 Y134.402 E16.29842
G1 X119.073 Y134.935 E16.33173
G1 X119.764 Y135.46 E16.3606
G1 X120.447 Y136.147 E16.39282
G1 X120.985 Y136.815 E16.42134
G1 X121.413 Y137.478 E16.44759
G1 X121.84 Y138.294 E16.47822
G1 X122.18 Y139.263 E16.51238
G1 X122.362 Y140.026 E16.53847
G1 X122.5 Y140.968 E16.57013
G1 X122.495 Y151.851 E16.9321
G1 X122.42 Y152.615 E16.95764
G1 X122.231 Y153.607 E16.99122
G1 X121.846 Y154.691 E17.02948
G1 X121.425 Y155.503 E17.0599
G1 X120.942 Y156.237 E17.08913
G1 X120.363 Y156.956 E17.11983
G1 X119.518 Y157.744 E17.15826
G1 X118.716 Y158.299 E17.1907
G1 X118.046 Y158.668 E17.21614
G1 X117.377 Y158.961 E17.24043
G1 X116.403 Y159.282 E17.27454
G1 X115.597 Y159.422 E17.30175
G1 X115.613 Y173.811 E17.78033
G1 X115.697 Y173.888 E17.78412
G1 X123.072 Y173.9 E18.02942
G1 X122.917 Y173.409 E18.04654
G1 X122.894 Y173.061 E18.05814
G1 X122.93 Y172.779 E18.0676
G1 X123.027 Y172.519 E18.07683
G1 X123.29 Y172.044 E18.09488
G1 X123.776 Y171.558 E18.11774
G1 X123.005 Y171.557 E18.14339
G1 X122.435 Y171.359 E18.16346
G1 X122.109 Y171.13 E18.17671
G1 X121.845 Y170.831 E18.18997
G1 X121.551 Y170.23 E18.21223
G1 X121.512 Y169.682 E18.2305
G1 X121.588 Y169.296 E18.24358
G1 X121.802 Y168.825 E18.26079
G1 X122.241 Y168.363 E18.28199
G1 X122.967 Y168.06 E18.30815
G1 X123.775 Y168.06 E18.33503
G1 X123.229 Y167.516 E18.36066
G1 X122.987 Y167.025 E18.37887
G1 X122.891 Y166.53 E18.39564
G1 X122.943 Y166.044 E18.4119
G1 X123.016 Y165.807 E18.42015
G1 X123.244 Y165.401 E18.43563
G1 X123.662 Y164.999 E18.45492
G1 X124.151 Y164.771 E18.47287
G1 X124.409 Y164.718 E18.48163
G1 X125.034 Y164.743 E18.50243
G1 X125.477 Y164.913 E18.51821
G1 X125.827 Y165.163 E18.53252
G1 X126.248 Y165.582 E18.55227
G1 X126.251 Y164.882 E18.57556
G1 X126.368 Y164.42 E18.59141
G1 X126.615 Y163.987 E18.60799
G1 X126.969 Y163.648 E18.62429
G1 X127.164 Y163.517 E18.6321
G1 X127.816 Y163.32 E18.65476
G1 X128.15 Y163.323 E18.66587
G1 X128.572 Y163.406 E18.68017
G1 X128.946 Y163.587 E18.69399
G1 X129.141 Y163.737 E18.70217
G1 X129.539 Y164.2 E18.72248
G1 X129.748 Y164.839 E18.74484
G1 X129.749 Y165.583 E18.76959
G1 X130.333 Y165 E18.79703
G1 X131.004 Y164.735 E18.82103
G1 X131.555 Y164.71 E18.83937
G1 X132.133 Y164.863 E18.85926
G1 X132.674 Y165.298 E18.88235
G1 X132.968 Y165.762 E18.90062
G1 X133.107 Y166.374 E18.92149
G1 X133.023 Y166.98 E18.94184
G1 X132.847 Y167.37 E18.95607
G1 X132.657 Y167.627 E18.9667
G1 X132.223 Y168.06 E18.98709
G1 X132.964 Y168.06 E19.01174
G1 X133.417 Y168.197 E19.02748
G1 X133.668 Y168.321 E19.03679
G1 X133.983 Y168.567 E19.05008
G1 X134.152 Y168.785 E19.05926
G1 X134.426 Y169.313 E19.07904
G1 X134.489 Y169.941 E19.10004
G1 X134.469 Y170.139 E19.10665
G1 X134.274 Y170.643 E19.12463
G1 X134.081 Y170.934 E19.13624
G1 X133.72 Y171.263 E19.15249
G1 X133.207 Y171.486 E19.17109
G1 X132.935 Y171.56 E19.18047
G1 X132.222 Y171.56 E19.20418
G1 X132.711 Y172.048 E19.22716
G1 X133.021 Y172.627 E19.249
G1 X133.103 Y173.064 E19.26379
G1 X133.044 Y173.613 E19.28216
G1 X132.937 Y173.908 E19.29259
G1 X141.553 Y173.907 E19.57916
G1 X141.217 Y173.616 E19.59395
G1 X140.985 Y173.3 E19.60699
G1 X140.747 Y172.749 E19.62695
G1 X140.692 Y172.419 E19.63808
G1 X140.699 Y159.149 E20.07944
G1 X140.802 Y158.632 E20.09697
G1 X141.12 Y158.042 E20.11926
G1 X141.531 Y157.65 E20.13816
G1 X141.847 Y157.466 E20.15032
G1 X142.418 Y157.28 E20.17029
G1 X166.821 Y157.283 E20.98194
G1 X167.248 Y157.359 E20.99636
G1 X167.806 Y157.616 E21.0168
G1 X167.968 Y157.737 E21.02352
G1 X168.393 Y158.223 E21.04499
G1 X168.512 Y158.46 E21.05382
G1 X168.692 Y159.001 E21.07278
G1 X168.692 Y172.324 E21.5159
G1 X168.632 Y172.746 E21.53008
G1 X168.526 Y173.049 E21.54076
G1 X168.317 Y173.428 E21.55515
G1 X168.032 Y173.755 E21.56958
G1 X167.824 Y173.907 E21.57815
G1 X173.072 Y173.907 E21.7527
G1 X173.119 Y173.535 E21.76517
G1 X173.333 Y172.967 E21.78536
G0 F1800 X173.806 Y173.02
G1 F1200 X173.96 Y172.926 E21.79136
G1 X174.139 Y172.882 E21.79749
G1 X180.245 Y172.882 E22.00057
G1 X180.525 Y172.962 E22.01026
G1 X181.031 Y173.477 E22.03427
G1 X181.3 Y173.652 E22.04495
G1 X181.773 Y173.828 E22.06173
G1 X182.159 Y173.872 E22.07465
G1 X182.652 Y173.819 E22.09115
G1 X183.02 Y173.687 E22.10415
G1 X183.31 Y173.511 E22.11543
G1 X183.567 Y173.283 E22.12686
G1 X183.896 Y172.805 E22.14616
G1 X184.05 Y172.366 E22.16163
G1 X184.088 Y172.011 E22.17351
G1 X184.038 Y171.537 E22.18936
G1 X183.917 Y171.189 E22.20161
G1 X183.728 Y170.867 E22.21403
G1 X183.478 Y170.587 E22.22652
G1 X183.189 Y170.366 E22.23862
G1 X182.744 Y170.163 E22.25489
G1 X182.504 Y170.107 E22.26308
G1 X182.013 Y170.091 E22.27942
G1 X181.662 Y170.159 E22.29131
G1 X181.315 Y170.296 E22.30372
G1 X180.921 Y170.573 E22.31974
G1 X180.623 Y170.902 E22.33451
G1 X180.468 Y171.016 E22.3409
G1 X180.248 Y171.078 E22.34851
G1 X174.139 Y171.078 E22.55169
G1 X173.96 Y171.034 E22.55782
G1 X173.806 Y170.94 E22.56382
G1 X173.676 Y170.788 E22.57048
G1 X173.482 Y170.247 E22.58959
G1 X173.496 Y169.685 E22.60829
G1 X173.541 Y169.482 E22.61521
G1 X173.703 Y169.131 E22.62806
G1 X173.976 Y168.92 E22.63954
G1 X174.149 Y168.881 E22.64544
G1 X179.992 Y168.88 E22.83978
G1 X180.173 Y168.754 E22.84711
G1 X180.942 Y168.359 E22.87587
G1 X181.861 Y168.149 E22.90722
G1 X182.655 Y168.149 E22.93363
G1 X183.059 Y168.212 E22.94723
G1 X183.722 Y168.408 E22.97022
G1 X184.396 Y168.767 E22.99562
G1 X184.976 Y169.236 E23.02043
G1 X185.352 Y169.669 E23.0395
G1 F1142.9 X185.742 Y170.304 E23.06553
G1 F1043.5 X186.064 Y171.134 E23.09958
G1 F909.1 X186.14 Y171.266 E23.10627
G1 F857.1 X186.19 Y171.895 E23.13565
G1 F866.4 X186.161 Y172.558 E23.16622
G1 F879.1 X186.127 Y172.616 E23.16927
G1 F1036.7 X185.804 Y173.501 E23.20554
G1 F1200 X185.542 Y174.007 E23.22449
G1 X185.339 Y174.293 E23.23616
G1 X186.379 Y174.284 E23.27075
G1 X186.576 Y174.203 E23.27784
G1 X186.72 Y174.051 E23.2848
G1 F1111.1 X186.827 Y173.794 E23.2948
G1 F971.7 X186.742 Y172.698 E23.33995
G1 F879.1 X186.722 Y172.606 E23.34423
G1 F866.4 X186.733 Y171.964 E23.37381
G1 F857.1 X186.716 Y171.237 E23.40767
G1 F909.1 X186.764 Y171.021 E23.41738
G1 F1090.9 X186.804 Y170.221 E23.44669
G1 F1200 X186.804 Y155.77 E23.92733
G1 F991.7 X186.721 Y155.352 E23.94448
G1 F866.4 X186.733 Y154.792 E23.97028
G1 F851.1 X186.711 Y154.033 E24.00589
G1 F973.6 X186.804 Y153.837 E24.01479
G1 F1200 X186.804 Y128.148 E24.86921
G1 X186.695 Y127.894 E24.8784
G1 X186.558 Y127.779 E24.88435
G1 X186.386 Y127.712 E24.89049
G1 X115.61 Y127.712 E27.24451
G1 X115.438 Y127.779 E27.25065
G1 X115.308 Y127.889 E27.25631
G1 X115.208 Y128.121 E27.26471
G1 X115.194 Y133.937 E27.45815
G1 X115.539 Y133.972 E27.46969
G1 X116.363 Y134.121 E27.49754
G1 X117.159 Y134.381 E27.52539
G1 X118.077 Y134.782 E27.55871
G1 X118.831 Y135.254 E27.5883
G1 X119.512 Y135.77 E27.61671
G1 X120.2 Y136.471 E27.64938
G1 X120.616 Y136.987 E27.67143
G1 X121.059 Y137.664 E27.69834
G1 X121.474 Y138.454 E27.72802
G1 X121.791 Y139.357 E27.75985
G1 X121.966 Y140.084 E27.78472
G1 X122.094 Y140.952 E27.8139
G1 X122.097 Y151.812 E28.17511
G1 X122.022 Y152.576 E28.20064
G1 X121.854 Y153.452 E28.23031
G1 X121.461 Y154.565 E28.26956
G1 X121.071 Y155.317 E28.29774
G1 X120.636 Y155.979 E28.32409
G1 X120.072 Y156.681 E28.35404
G1 X119.234 Y157.454 E28.39196
G1 X118.505 Y157.959 E28.42145
G1 X117.871 Y158.308 E28.44552
G1 X117.162 Y158.615 E28.47122
G1 X116.268 Y158.9 E28.50243
G1 X115.196 Y159.084 E28.5386
G1 X115.212 Y173.892 E29.03112
G1 X115.272 Y174.048 E29.03668
G1 X115.391 Y174.192 E29.04289
G1 X115.615 Y174.288 E29.051
G1 X123.955 Y174.303 E29.32839
G1 X123.63 Y174.057 E29.34195
G1 X123.384 Y173.643 E29.35796
G1 X123.291 Y173.105 E29.37612
G1 X123.321 Y172.864 E29.3842
G1 X123.608 Y172.291 E29.40552
G1 X124.74 Y171.16 E29.45874
G1 X123.081 Y171.151 E29.51392
G1 X122.618 Y171.003 E29.53008
G1 X122.35 Y170.811 E29.54105
G1 X122.191 Y170.632 E29.54901
G1 X121.942 Y170.143 E29.56726
G1 X121.912 Y169.681 E29.58266
G1 X121.957 Y169.449 E29.59052
G1 X122.137 Y169.044 E29.60526
G1 X122.466 Y168.699 E29.62112
G1 X123.075 Y168.46 E29.64288
G1 X124.742 Y168.46 E29.69832
G1 X123.551 Y167.272 E29.75427
G1 X123.365 Y166.894 E29.76829
G1 X123.288 Y166.412 E29.78452
G1 X123.381 Y165.972 E29.79948
G1 X123.498 Y165.728 E29.80848
G1 X123.878 Y165.336 E29.82664
G1 X124.32 Y165.137 E29.84276
G1 X124.885 Y165.123 E29.86156
G1 X125.283 Y165.263 E29.87559
G1 X125.564 Y165.464 E29.88708
G1 X126.648 Y166.549 E29.93809
G1 X126.65 Y164.918 E29.99234
