;FLAVOR:Marlin
;TIME:4987
;Filament used: 5.7661m
;Layer height: 0.2
;MINX:106.2
;MINY:118.7
;MINZ:0.2
;MAXX:195.8
;MAXY:183.3
;MAXZ:19.1
;TARGET_MACHINE.NAME:Anycubic Kobra Plus
;Generated with Cura_SteamEngine 5.9.0
M140 S70
M105
M190 S70
M104 S195
M105
M109 S195
M82 ;absolute extrusion mode
G28 ;Home
G1 Z15.0 F6000 ;Move the platform down 15mm
;Prime the extruder
G92 E0
M355 S1; Turn LED on
; Add Custom purge lines
G1 Z2.0 F3000 ; Move Z Axis up little to prevent scratching of Heat Bed
G1 X1.0 Y30 Z0.3 F5000.0 ; Move to start position
G1 X1.0 Y100.0 Z0.3 F1500.0 E15 ; Draw the first line
G1 X1.3 Y100.0 Z0.3 F5000.0 ; Move to side a little
G1 X1.3 Y30 Z0.3 F1500.0 E30 ; Draw the second line
G92 E0 ; Reset Extruder
G1 E-2 F500 ; Retract a little 
G1 X50 F500 ; wipe away from the filament line
G1 X100 F9000 ; Quickly wipe away from the filament line
G1 Z5.0 F3000 ; Move Z Axis up little to prevent scratching of Heat Bed
; End custom purge lines
G92 E0
G92 E0
G1 F1500 E-6.5
;LAYER_COUNT:95
;LAYER:0
M107
G1 F600 Z0.3
G0 F1800 X187.619 Y179.752 Z0.3
;TYPE:SKIRT
G1 F600 Z0.2
G1 F1500 E0
G1 F1200 X187.078 Y179.807 E0.01809
G1 X186.238 Y179.82 E0.04603
G1 X115.649 Y179.82 E2.39383
G1 X114.968 Y179.81 E2.41648
G1 X114.428 Y179.756 E2.43453
G1 X113.664 Y179.611 E2.4604
G1 X112.922 Y179.383 E2.48621
G1 X112.154 Y179.028 E2.51435
G1 X111.722 Y178.765 E2.53118
G1 X111.092 Y178.195 E2.55943
G1 X110.76 Y177.813 E2.57627
G1 X110.496 Y177.391 E2.59282
G1 X110.146 Y176.65 E2.62008
G1 X109.888 Y175.817 E2.64908
G1 X109.751 Y175.121 E2.67268
G1 X109.691 Y174.551 E2.69174
G1 X109.681 Y173.833 E2.71562
G1 X109.68 Y128.113 E4.23628
G1 X109.691 Y127.441 E4.25863
G1 X109.754 Y126.86 E4.27807
G1 X109.9 Y126.136 E4.30263
G1 X110.132 Y125.382 E4.32887
G1 X110.489 Y124.623 E4.35677
G1 X110.755 Y124.194 E4.37356
G1 X111.308 Y123.587 E4.40087
G1 X111.691 Y123.258 E4.41766
G1 X112.279 Y122.918 E4.44025
G1 X112.899 Y122.642 E4.46282
G1 X113.501 Y122.442 E4.48392
G1 X114.274 Y122.269 E4.51027
G1 X114.926 Y122.192 E4.53211
G1 X115.716 Y122.181 E4.55838
G1 X186.351 Y122.18 E6.90771
G1 X187.033 Y122.19 E6.9304
G1 X187.572 Y122.244 E6.94842
G1 X188.337 Y122.389 E6.97431
G1 X189.078 Y122.617 E7.0001
G1 X189.862 Y122.981 E7.02885
G1 X190.293 Y123.245 E7.04566
G1 X190.916 Y123.813 E7.0737
G1 X191.245 Y124.197 E7.09052
G1 X191.579 Y124.772 E7.11263
G1 X191.858 Y125.395 E7.13534
G1 X192.061 Y126.011 E7.15691
G1 X192.231 Y126.778 E7.18304
G1 X192.307 Y127.421 E7.20458
G1 X192.32 Y128.263 E7.23258
G1 X192.32 Y173.851 E8.74885
G1 X192.31 Y174.532 E8.7715
G1 X192.25 Y175.103 E8.7906
G1 X192.106 Y175.835 E8.81541
G1 X191.885 Y176.572 E8.841
G1 X191.514 Y177.37 E8.87027
G1 X191.249 Y177.8 E8.88707
G1 X190.791 Y178.33 E8.91037
G1 X190.262 Y178.774 E8.93334
G1 X189.886 Y179.005 E8.94801
G1 X189.188 Y179.338 E8.97374
G1 X188.453 Y179.58 E8.99947
G1 X187.619 Y179.752 E9.0278
G1 F1500 E2.5278
G1 F600 Z0.3
;MESH:Case_3-Bottom Case.stl
G0 F1800 X186.388 Y173.772 Z0.3
;TYPE:WALL-INNER
G1 F600 Z0.2
G1 F1500 E9.0278
G1 F1200 X186.388 Y128.197 E10.54363
G1 X186.269 Y128.108 E10.54857
G1 X115.67 Y128.112 E12.8967
G1 X115.592 Y128.223 E12.90121
G1 X115.593 Y173.809 E14.41741
G1 X115.723 Y173.888 E14.42247
G1 X186.302 Y173.888 E16.76994
G1 X186.388 Y173.772 E16.77474
G0 F1800 X186.573 Y174.206
G1 F1200 X186.711 Y174.057 E16.7815
G1 X186.788 Y173.84 E16.78915
G1 X186.788 Y128.115 E18.30997
G1 X186.708 Y127.928 E18.31674
G1 X186.553 Y127.786 E18.32373
G1 X186.339 Y127.708 E18.33131
G1 X115.618 Y127.712 E20.6835
G1 X115.415 Y127.797 E20.69082
G1 X115.274 Y127.945 E20.69761
G1 X115.192 Y128.145 E20.7048
G1 X115.193 Y173.848 E22.22489
G1 X115.289 Y174.073 E22.23303
G1 X115.438 Y174.212 E22.23981
G1 X115.655 Y174.288 E22.24745
G1 X186.384 Y174.288 E24.59991
G1 X186.573 Y174.206 E24.60676
G1 F1500 E18.10676
G1 F600 Z0.3
G0 F1800 X179.484 Y162.376 Z0.3
G1 F600 Z0.2
G1 F1500 E24.60676
G1 F1200 X179.236 Y162.473 E24.61562
G1 X179 Y162.5 E24.62352
G1 X167.882 Y162.494 E24.9933
G1 X167.458 Y162.341 E25.0083
G1 X167.172 Y162.063 E25.02156
G1 X167.034 Y161.763 E25.03255
G1 X167.001 Y161.561 E25.03935
G1 X167.001 Y140.439 E25.74187
G1 X167.034 Y140.237 E25.74868
G1 X167.172 Y139.937 E25.75966
G1 X167.458 Y139.659 E25.77293
G1 X167.882 Y139.506 E25.78792
G1 X179.122 Y139.5 E26.16177
G1 X179.357 Y139.565 E26.16988
G1 X179.611 Y139.707 E26.17956
G1 X179.84 Y139.956 E26.19081
G1 X180 Y140.348 E26.20489
G1 X180 Y161.636 E26.91293
G1 X179.926 Y161.879 E26.92138
G1 X179.733 Y162.182 E26.93333
G1 X179.484 Y162.376 E26.94383
G0 F1800 X179.367 Y161.976
G1 F1200 X179.072 Y162.096 E26.95442
G1 X167.925 Y162.1 E27.32517
G1 X167.675 Y162.005 E27.33407
G1 X167.503 Y161.838 E27.34204
G1 X167.404 Y161.575 E27.35139
G1 X167.404 Y140.425 E28.05484
G1 X167.452 Y140.254 E28.06074
G1 X167.675 Y139.995 E28.07211
G1 X167.925 Y139.9 E28.08101
G1 X179.075 Y139.9 E28.45186
G1 X179.367 Y140.024 E28.46241
G1 X179.504 Y140.174 E28.46917
G1 X179.6 Y140.419 E28.47792
G1 X179.6 Y161.576 E29.1816
G1 X179.505 Y161.826 E29.1905
G1 X179.367 Y161.976 E29.19728
G0 F1800 X179.197 Y161.539
;TYPE:WALL-OUTER
G1 F1200 X179.123 Y161.659 E29.20197
G1 X179.035 Y161.698 E29.20517
G1 X167.965 Y161.698 E29.57336
G1 X167.845 Y161.628 E29.57798
G1 X167.806 Y161.553 E29.58079
G1 X167.801 Y140.475 E30.28185
G1 X167.845 Y140.372 E30.28557
G1 X167.965 Y140.302 E30.29019
G1 X179.035 Y140.302 E30.65838
G1 X179.147 Y140.363 E30.66262
G1 X179.197 Y140.46 E30.66625
G1 X179.197 Y161.539 E31.36734
G0 F1800 X179.123 Y161.659
G0 X179.069 Y161.682
G1 F1500 E24.86734
G1 F600 Z0.3
G0 F1800 X186.466 Y174.688 Z0.3
G1 F600 Z0.2
G1 F1500 E31.36734
G1 F1200 X186.847 Y174.524 E31.38114
G1 X187.049 Y174.299 E31.3912
G1 X187.188 Y173.909 E31.40497
G1 X187.188 Y128.033 E32.93081
G1 X187.025 Y127.651 E32.94462
G1 X186.802 Y127.45 E32.95461
G1 X186.409 Y127.308 E32.96851
G1 X115.537 Y127.312 E35.32572
G1 X115.146 Y127.477 E35.33983
G1 X114.942 Y127.699 E35.34986
G1 X114.792 Y128.067 E35.36308
G1 X114.793 Y173.93 E36.88849
G1 X114.971 Y174.347 E36.90357
G1 X115.196 Y174.551 E36.91367
G1 X115.587 Y174.688 E36.92745
G1 X186.466 Y174.688 E39.2849
G0 F1800 X186.649 Y174.609
G1 F1500 E32.7849
G1 F600 Z0.3
G0 F1800 X179.659 Y162.711 Z0.3
;TYPE:SKIN
G1 F600 Z0.2
G1 F1500 E39.2849
G1 F1200 X179.987 Y162.463 E39.29857
G1 X180.174 Y162.22 E39.30877
G1 X180.378 Y161.707 E39.32713
G1 X180.38 Y140.283 E40.0397
G1 X180.159 Y139.749 E40.05892
G1 X179.84 Y139.402 E40.0746
G1 X179.495 Y139.208 E40.08776
G1 X179.137 Y139.125 E40.09998
G1 X167.88 Y139.121 E40.47439
G1 X167.368 Y139.272 E40.49215
G1 X166.931 Y139.624 E40.51081
G1 X166.697 Y140.04 E40.52669
G1 X166.621 Y140.401 E40.53896
G1 X166.622 Y161.633 E41.24514
G1 X166.736 Y162.061 E41.25987
G1 X166.857 Y162.281 E41.26822
G1 X167.131 Y162.574 E41.28156
G1 X167.389 Y162.739 E41.29175
G1 X167.869 Y162.878 E41.30837
G1 X179.127 Y162.878 E41.68281
G1 X179.659 Y162.711 E41.70136
G1 F1500 E35.20136
G1 F600 Z0.3
G0 F1800 X186.008 Y173.508 Z0.3
G1 F600 Z0.2
G1 F1500 E41.70136
G1 F1200 X115.972 Y173.508 E44.03076
G1 X115.972 Y128.488 E45.52813
G1 X186.008 Y128.488 E47.85754
G1 X186.008 Y173.508 E49.35491
G1 F1500 E42.85491
G1 F600 Z0.3
G0 F1800 X185.808 Y129.239 Z0.3
G1 F600 Z0.2
G1 F1500 E49.35491
G1 F1200 X185.256 Y128.688 E49.38085
G0 F1800 X184.691 Y128.688
G1 F1200 X185.808 Y129.805 E49.43339
G0 F1800 X185.808 Y130.371
G1 F1200 X184.125 Y128.688 E49.51256
G0 F1800 X183.559 Y128.688
G1 F1200 X185.808 Y130.936 E49.61832
G0 F1800 X185.808 Y131.502
G1 F1200 X182.994 Y128.688 E49.75068
G0 F1800 X182.428 Y128.688
G1 F1200 X185.808 Y132.068 E49.90967
G0 F1800 X185.808 Y132.633
G1 F1200 X181.862 Y128.688 E50.09525
G0 F1800 X181.297 Y128.688
G1 F1200 X185.808 Y133.199 E50.30743
G0 F1800 X185.808 Y133.765
G1 F1200 X180.731 Y128.688 E50.54624
G0 F1800 X180.165 Y128.688
G1 F1200 X185.808 Y134.33 E50.81165
G0 F1800 X185.808 Y134.896
G1 F1200 X179.599 Y128.688 E51.10368
G0 F1800 X179.034 Y128.688
G1 F1200 X185.808 Y135.462 E51.4223
G0 F1800 X185.808 Y136.028
G1 F1200 X178.468 Y128.688 E51.76755
G0 F1800 X177.902 Y128.688
G1 F1200 X185.808 Y136.593 E52.1394
G0 F1800 X185.808 Y137.159
G1 F1200 X177.337 Y128.688 E52.53785
G0 F1800 X176.771 Y128.688
G1 F1200 X185.808 Y137.725 E52.96293
G0 F1800 X185.808 Y138.29
G1 F1200 X176.205 Y128.688 E53.4146
G0 F1800 X175.64 Y128.688
G1 F1200 X185.808 Y138.856 E53.89287
G0 F1800 X185.808 Y139.422
G1 F1200 X175.074 Y128.688 E54.39777
G0 F1800 X174.508 Y128.688
G1 F1200 X185.808 Y139.987 E54.92926
G0 F1800 X185.808 Y140.553
G1 F1200 X173.943 Y128.688 E55.48735
G0 F1800 X173.377 Y128.688
G1 F1200 X185.808 Y141.119 E56.07207
G0 F1800 X185.808 Y141.684
G1 F1200 X172.811 Y128.688 E56.68338
G0 F1800 X172.246 Y128.688
G1 F1200 X185.808 Y142.25 E57.3213
G0 F1800 X185.808 Y142.816
G1 F1200 X171.68 Y128.688 E57.98584
G0 F1800 X171.114 Y128.688
G1 F1200 X185.808 Y143.381 E58.67697
G0 F1800 X185.808 Y143.947
G1 F1200 X170.548 Y128.688 E59.39473
G0 F1800 X169.983 Y128.688
G1 F1200 X185.808 Y144.513 E60.13909
G0 F1800 X185.808 Y145.079
G1 F1200 X169.417 Y128.688 E60.91008
G0 F1800 X168.851 Y128.688
G1 F1200 X179.085 Y138.922 E61.39145
G0 F1800 X178.52 Y138.922
G1 F1200 X168.286 Y128.688 E61.87283
G0 F1800 X167.72 Y128.688
G1 F1200 X177.954 Y138.922 E62.3542
G0 F1800 X177.388 Y138.922
G1 F1200 X167.154 Y128.688 E62.83558
G0 F1800 X166.589 Y128.688
G1 F1200 X176.823 Y138.922 E63.31696
G0 F1800 X176.257 Y138.922
G1 F1200 X166.023 Y128.688 E63.79833
G0 F1800 X165.457 Y128.688
G1 F1200 X175.691 Y138.922 E64.27971
G0 F1800 X175.126 Y138.922
G1 F1200 X164.892 Y128.688 E64.76108
G0 F1800 X164.326 Y128.688
G1 F1200 X174.56 Y138.922 E65.24246
G0 F1800 X173.994 Y138.922
G1 F1200 X163.76 Y128.688 E65.72384
G0 F1800 X163.195 Y128.688
G1 F1200 X173.429 Y138.922 E66.20521
G0 F1800 X172.864 Y138.922
G1 F1200 X162.629 Y128.688 E66.68661
G0 F1800 X162.063 Y128.688
G1 F1200 X172.298 Y138.922 E67.16801
G0 F1800 X171.732 Y138.922
G1 F1200 X161.498 Y128.688 E67.64939
G0 F1800 X160.932 Y128.688
G1 F1200 X171.167 Y138.922 E68.13079
G0 F1800 X170.601 Y138.922
G1 F1200 X160.366 Y128.688 E68.61219
G0 F1800 X159.8 Y128.688
G1 F1200 X170.035 Y138.922 E69.09359
G0 F1800 X169.469 Y138.922
G1 F1200 X159.235 Y128.688 E69.57496
G0 F1800 X158.669 Y128.688
G1 F1200 X168.904 Y138.922 E70.05636
G0 F1800 X168.338 Y138.922
G1 F1200 X158.103 Y128.688 E70.53776
G0 F1800 X157.538 Y128.688
G1 F1200 X167.79 Y138.94 E71.01998
G0 F1800 X167.347 Y139.063
G1 F1200 X156.972 Y128.688 E71.50799
G0 F1800 X156.406 Y128.688
G1 F1200 X167.017 Y139.298 E72.00708
G0 F1800 X166.736 Y139.584
G1 F1200 X155.841 Y128.688 E72.51957
G0 F1800 X155.275 Y128.688
G1 F1200 X166.529 Y139.941 E73.0489
G0 F1800 X166.421 Y140.4
G1 F1200 X154.709 Y128.688 E73.59979
G0 F1800 X154.144 Y128.688
G1 F1200 X166.421 Y140.965 E74.17727
G0 F1800 X166.421 Y141.531
G1 F1200 X153.578 Y128.688 E74.78136
G0 F1800 X153.012 Y128.688
G1 F1200 X166.421 Y142.097 E75.41208
G0 F1800 X166.421 Y142.662
G1 F1200 X152.447 Y128.688 E76.06937
G0 F1800 X151.881 Y128.688
G1 F1200 X166.421 Y143.228 E76.75329
G0 F1800 X166.421 Y143.794
G1 F1200 X151.315 Y128.688 E77.46383
G0 F1800 X150.75 Y128.688
G1 F1200 X166.422 Y144.36 E78.20099
G0 F1800 X166.422 Y144.926
G1 F1200 X150.184 Y128.688 E78.96478
G0 F1800 X149.618 Y128.688
G1 F1200 X166.422 Y145.491 E79.75517
G0 F1800 X166.422 Y146.057
G1 F1200 X149.052 Y128.688 E80.57217
G0 F1800 X148.487 Y128.688
G1 F1200 X166.422 Y146.623 E81.41578
G0 F1800 X166.422 Y147.189
G1 F1200 X147.921 Y128.688 E82.28601
G0 F1800 X147.355 Y128.688
G1 F1200 X166.423 Y147.755 E83.18289
G0 F1800 X166.423 Y148.321
G1 F1200 X146.79 Y128.688 E84.10636
G0 F1800 X146.224 Y128.688
G1 F1200 X166.423 Y148.886 E85.05644
G0 F1800 X166.423 Y149.452
G1 F1200 X145.658 Y128.688 E86.03314
G0 F1800 X145.093 Y128.688
G1 F1200 X166.423 Y150.018 E87.03644
G0 F1800 X166.423 Y150.583
G1 F1200 X144.527 Y128.688 E88.06633
G0 F1800 X143.961 Y128.688
G1 F1200 X166.423 Y151.15 E89.12288
G0 F1800 X166.423 Y151.715
G1 F1200 X143.396 Y128.688 E90.206
G0 F1800 X142.83 Y128.688
G1 F1200 X166.423 Y152.281 E91.31574
G0 F1800 X166.423 Y152.847
G1 F1200 X142.264 Y128.688 E92.4521
G0 F1800 X141.699 Y128.688
G1 F1200 X166.423 Y153.412 E93.61504
G0 F1800 X166.423 Y153.978
G1 F1200 X141.133 Y128.688 E94.80461
G0 F1800 X140.567 Y128.688
G1 F1200 X166.423 Y154.544 E96.0208
G0 F1800 X166.424 Y155.11
G1 F1200 X140.001 Y128.688 E97.26363
G0 F1800 X139.436 Y128.688
G1 F1200 X166.424 Y155.676 E98.53306
G0 F1800 X166.424 Y156.242
G1 F1200 X138.87 Y128.688 E99.82912
G0 F1800 X138.304 Y128.688
G1 F1200 X166.424 Y156.807 E101.15177
G0 F1800 X166.424 Y157.373
G1 F1200 X137.739 Y128.688 E102.50103
G0 F1800 X137.173 Y128.688
G1 F1200 X166.424 Y157.939 E103.8769
G0 F1800 X166.425 Y158.505
G1 F1200 X136.607 Y128.688 E105.27943
G0 F1800 X136.042 Y128.688
G1 F1200 X166.425 Y159.071 E106.70855
G0 F1800 X166.425 Y159.636
G1 F1200 X135.476 Y128.688 E108.16427
G0 F1800 X134.91 Y128.688
G1 F1200 X166.425 Y160.202 E109.64662
G0 F1800 X166.425 Y160.768
G1 F1200 X134.345 Y128.688 E111.15556
G0 F1800 X133.779 Y128.688
G1 F1200 X166.425 Y161.333 E112.69111
G0 F1800 X166.507 Y161.982
G1 F1200 X133.213 Y128.688 E114.25716
G0 F1800 X132.648 Y128.688
G1 F1200 X177.267 Y173.308 E116.35592
G0 F1800 X176.702 Y173.308
G1 F1200 X132.082 Y128.688 E118.45471
G0 F1800 X131.516 Y128.688
G1 F1200 X176.136 Y173.308 E120.5535
G0 F1800 X175.57 Y173.308
G1 F1200 X130.951 Y128.688 E122.65226
G0 F1800 X130.385 Y128.688
G1 F1200 X175.005 Y173.308 E124.75105
G0 F1800 X174.439 Y173.308
G1 F1200 X129.819 Y128.688 E126.84984
G0 F1800 X129.253 Y128.688
G1 F1200 X173.873 Y173.308 E128.94862
G0 F1800 X173.308 Y173.308
G1 F1200 X128.688 Y128.688 E131.04741
G0 F1800 X128.122 Y128.688
G1 F1200 X172.742 Y173.308 E133.1462
G0 F1800 X172.176 Y173.308
G1 F1200 X127.556 Y128.688 E135.24499
G0 F1800 X126.991 Y128.688
G1 F1200 X171.611 Y173.308 E137.34378
G0 F1800 X171.045 Y173.308
G1 F1200 X126.425 Y128.688 E139.44256
G0 F1800 X125.859 Y128.688
G1 F1200 X170.479 Y173.308 E141.54135
G0 F1800 X169.914 Y173.308
G1 F1200 X125.294 Y128.688 E143.64014
G0 F1800 X124.728 Y128.688
G1 F1200 X169.348 Y173.308 E145.73893
G0 F1800 X168.782 Y173.308
G1 F1200 X124.162 Y128.688 E147.83772
G0 F1800 X123.597 Y128.688
G1 F1200 X168.216 Y173.308 E149.93648
G0 F1800 X167.651 Y173.308
G1 F1200 X123.031 Y128.688 E152.03527
G0 F1800 X122.465 Y128.688
G1 F1200 X167.085 Y173.308 E154.13406
G0 F1800 X166.519 Y173.308
G1 F1200 X121.9 Y128.688 E156.23282
G0 F1800 X121.334 Y128.688
G1 F1200 X165.954 Y173.308 E158.33161
G0 F1800 X165.388 Y173.308
G1 F1200 X120.768 Y128.688 E160.4304
G0 F1800 X120.202 Y128.688
G1 F1200 X164.822 Y173.308 E162.52919
G0 F1800 X164.257 Y173.308
G1 F1200 X119.637 Y128.688 E164.62797
G0 F1800 X119.071 Y128.688
G1 F1200 X163.691 Y173.308 E166.72676
G0 F1800 X163.125 Y173.308
G1 F1200 X118.505 Y128.688 E168.82555
G0 F1800 X117.94 Y128.688
G1 F1200 X162.56 Y173.308 E170.92434
G0 F1800 X161.994 Y173.308
G1 F1200 X117.374 Y128.688 E173.02313
G0 F1800 X116.808 Y128.688
G1 F1200 X161.428 Y173.308 E175.12191
G0 F1800 X160.863 Y173.308
G1 F1200 X116.243 Y128.688 E177.2207
G0 F1800 X116.172 Y129.183
G1 F1200 X160.297 Y173.308 E179.29621
G0 F1800 X159.731 Y173.308
G1 F1200 X116.172 Y129.748 E181.34511
G0 F1800 X116.172 Y130.314
G1 F1200 X159.165 Y173.308 E183.36739
G0 F1800 X158.6 Y173.308
G1 F1200 X116.172 Y130.88 E185.36308
G0 F1800 X116.172 Y131.445
G1 F1200 X158.034 Y173.308 E187.33216
G0 F1800 X157.468 Y173.308
G1 F1200 X116.172 Y132.011 E189.27462
G0 F1800 X116.172 Y132.577
G1 F1200 X156.903 Y173.308 E191.19048
G0 F1800 X156.337 Y173.308
G1 F1200 X116.172 Y133.143 E193.07972
G0 F1800 X116.172 Y133.708
G1 F1200 X155.771 Y173.308 E194.94236
G0 F1800 X155.206 Y173.308
G1 F1200 X116.172 Y134.274 E196.7784
G0 F1800 X116.172 Y134.84
G1 F1200 X154.64 Y173.308 E198.58782
G0 F1800 X154.074 Y173.308
G1 F1200 X116.172 Y135.405 E200.37063
G0 F1800 X116.172 Y135.971
G1 F1200 X153.509 Y173.308 E202.12685
G0 F1800 X152.943 Y173.308
G1 F1200 X116.172 Y136.537 E203.85645
G0 F1800 X116.172 Y137.102
