;FLAVOR:Marlin
;TIME:4373
;Filament used: 4.5746m
;Layer height: 0.2
;MINX:106.2
;MINY:118.7
;MINZ:0.2
;MAXX:195.8
;MAXY:183.3
;MAXZ:12.1
;TARGET_MACHINE.NAME:Anycubic Kobra Plus
;Generated with Cura_SteamEngine 5.9.0
M140 S70
M105
M190 S70
M104 S195
M105
M109 S195
M82 ;absolute extrusion mode
G28 ;Home
G1 Z15.0 F6000 ;Move the platform down 15mm
;Prime the extruder
G92 E0
M355 S1; Turn LED on
; Add Custom purge lines
G1 Z2.0 F3000 ; Move Z Axis up little to prevent scratching of Heat Bed
G1 X1.0 Y30 Z0.3 F5000.0 ; Move to start position
G1 X1.0 Y100.0 Z0.3 F1500.0 E15 ; Draw the first line
G1 X1.3 Y100.0 Z0.3 F5000.0 ; Move to side a little
G1 X1.3 Y30 Z0.3 F1500.0 E30 ; Draw the second line
G92 E0 ; Reset Extruder
G1 E-2 F500 ; Retract a little 
G1 X50 F500 ; wipe away from the filament line
G1 X100 F9000 ; Quickly wipe away from the filament line
G1 Z5.0 F3000 ; Move Z Axis up little to prevent scratching of Heat Bed
; End custom purge lines
G92 E0
G92 E0
G1 F1500 E-6.5
;LAYER_COUNT:60
;LAYER:0
M107
G1 F600 Z0.3
G0 F1800 X187.726 Y179.731 Z0.3
;TYPE:SKIRT
G1 F600 Z0.2
G1 F1500 E0
G1 F1200 X187.074 Y179.808 E0.02184
G1 X186.284 Y179.819 E0.04811
G1 X115.65 Y179.82 E2.39741
G1 X114.965 Y179.81 E2.4202
G1 X114.425 Y179.756 E2.43825
G1 X113.563 Y179.582 E2.46749
G1 X112.903 Y179.375 E2.4905
G1 X112.139 Y179.02 E2.51852
G1 X111.708 Y178.755 E2.53535
G1 X111.068 Y178.171 E2.56417
G1 X110.74 Y177.786 E2.58099
G1 X110.486 Y177.373 E2.59711
G1 X110.134 Y176.619 E2.62479
G1 X109.883 Y175.819 E2.65268
G1 X109.746 Y175.093 E2.67725
G1 X109.692 Y174.558 E2.69514
G1 X109.681 Y173.783 E2.72091
G1 X109.68 Y128.119 E4.23971
G1 X109.69 Y127.463 E4.26153
G1 X109.752 Y126.886 E4.28083
G1 X109.902 Y126.134 E4.30633
G1 X110.121 Y125.412 E4.33143
G1 X110.483 Y124.634 E4.35997
G1 X110.748 Y124.204 E4.37677
G1 X111.308 Y123.587 E4.40448
G1 X111.691 Y123.258 E4.42127
G1 X112.289 Y122.913 E4.44424
G1 X112.983 Y122.607 E4.46946
G1 X113.554 Y122.417 E4.48948
G1 X114.39 Y122.247 E4.51785
G1 X114.935 Y122.192 E4.53607
G1 X115.668 Y122.181 E4.56045
G1 X186.35 Y122.181 E6.91135
G1 X187.033 Y122.191 E6.93407
G1 X187.608 Y122.252 E6.9533
G1 X188.315 Y122.392 E6.97727
G1 X188.926 Y122.578 E6.99851
G1 X189.618 Y122.867 E7.02345
G1 X190.068 Y123.098 E7.04028
G1 X190.747 Y123.628 E7.06893
G1 X191.234 Y124.182 E7.09346
G1 X191.505 Y124.612 E7.11037
G1 X191.827 Y125.287 E7.13524
G1 X192.105 Y126.151 E7.16543
G1 X192.247 Y126.859 E7.18944
G1 X192.309 Y127.438 E7.20881
G1 X192.319 Y128.082 E7.23023
G1 X192.319 Y173.848 E8.75242
G1 X192.309 Y174.545 E8.7756
G1 X192.247 Y175.127 E8.79507
G1 X192.103 Y175.846 E8.81946
G1 X191.886 Y176.566 E8.84447
G1 X191.532 Y177.338 E8.87272
G1 X191.27 Y177.771 E8.88955
G1 X190.701 Y178.404 E8.91786
G1 X190.319 Y178.735 E8.93467
G1 X189.721 Y179.082 E8.95767
G1 X189.101 Y179.358 E8.98024
G1 X188.499 Y179.558 E9.00134
G1 X187.726 Y179.731 E9.02768
G1 F1500 E2.52768
G1 F600 Z0.3
;MESH:Case_3-Top Case.stl
G0 F1800 X186.356 Y173.744 Z0.3
;TYPE:WALL-INNER
G1 F600 Z0.2
G1 F1500 E9.02768
G1 F727.3 X186.315 Y173.673 E9.03218
G1 X186.233 Y173.673 E9.03668
G1 X186.192 Y173.744 E9.04118
G1 X186.233 Y173.815 E9.04568
G1 X186.315 Y173.815 E9.05018
G1 X186.356 Y173.744 E9.05468
G1 F1500 E2.55468
G1 F600 Z0.3
G0 F1800 X173.333 Y172.967 Z0.3
G1 F600 Z0.2
G1 F1500 E9.05468
G1 F1200 X173.549 Y172.713 E9.06577
G1 X173.805 Y172.557 E9.07574
G1 X174.105 Y172.483 E9.08602
G1 X180.281 Y172.483 E9.29143
G1 X180.647 Y172.588 E9.3041
G1 X180.906 Y172.779 E9.3148
G1 X181.286 Y173.165 E9.33282
G1 X181.481 Y173.293 E9.34058
G1 X181.867 Y173.436 E9.35427
G1 X182.16 Y173.47 E9.36408
G1 X182.562 Y173.426 E9.37753
G1 X182.847 Y173.324 E9.3876
G1 X183.265 Y173.016 E9.40486
G1 X183.537 Y172.622 E9.42079
G1 X183.658 Y172.278 E9.43292
G1 X183.686 Y172.011 E9.44185
G1 X183.646 Y171.625 E9.45475
G1 X183.552 Y171.358 E9.46417
G1 X183.403 Y171.104 E9.47396
G1 X183.205 Y170.881 E9.48388
G1 X182.982 Y170.711 E9.49321
G1 X182.451 Y170.505 E9.51215
G1 X182.045 Y170.492 E9.52566
G1 X181.506 Y170.651 E9.54435
G1 X181.188 Y170.874 E9.55727
G1 X180.908 Y171.183 E9.57114
G1 X180.648 Y171.373 E9.58185
G1 X180.282 Y171.477 E9.59451
G1 X174.105 Y171.477 E9.79995
G1 X173.805 Y171.403 E9.81023
G1 X173.549 Y171.247 E9.8202
G1 X173.409 Y171.103 E9.82688
G1 X173.25 Y170.817 E9.83777
G1 X173.09 Y170.329 E9.85485
G1 X173.096 Y169.667 E9.87687
G1 X173.171 Y169.329 E9.88838
G1 X173.378 Y168.898 E9.90428
G1 X173.519 Y168.739 E9.91135
G1 X173.832 Y168.546 E9.92358
G1 X174.12 Y168.482 E9.93339
G1 X179.86 Y168.48 E10.12431
G1 X179.99 Y168.398 E10.12942
G1 X180.806 Y167.98 E10.15991
G1 X181.842 Y167.745 E10.19525
G1 X182.646 Y167.744 E10.22199
G1 X183.173 Y167.828 E10.23974
G1 X183.882 Y168.04 E10.26435
G1 X184.615 Y168.429 E10.29195
G1 X185.184 Y168.889 E10.31629
G1 X185.672 Y169.423 E10.34035
G1 X186.117 Y170.153 E10.36878
G1 X186.404 Y171.014 E10.39897
G1 X186.404 Y156.754 E10.87326
G1 F1218.3 X186.414 Y155.829 E10.90356
G1 X186.067 Y156.807 E10.93756
G1 F1200 X185.587 Y157.548 E10.96693
G1 X184.841 Y158.27 E11.00146
G1 X183.944 Y158.79 E11.03594
G1 X183.21 Y159.019 E11.06151
G1 X182.671 Y159.114 E11.07972
G1 X181.686 Y159.091 E11.11249
G1 X181.015 Y158.944 E11.13533
G1 X180.343 Y158.664 E11.15955
G1 X179.889 Y158.38 E11.17736
G1 X174.12 Y158.378 E11.36924
G1 X173.806 Y158.303 E11.37997
G1 X173.469 Y158.072 E11.39356
G1 X173.285 Y157.803 E11.4044
G1 X173.114 Y157.331 E11.4211
G1 X173.078 Y157.119 E11.42825
G1 X173.102 Y156.409 E11.45188
G1 X173.321 Y155.888 E11.47068
G1 X173.429 Y155.733 E11.47696
G1 X173.683 Y155.518 E11.48803
G1 X174.105 Y155.383 E11.50277
G1 X180.192 Y155.38 E11.70522
G1 X180.65 Y155.49 E11.72089
G1 X180.913 Y155.686 E11.7318
G1 X181.249 Y156.034 E11.74789
G1 X181.567 Y156.231 E11.76033
G1 X181.927 Y156.344 E11.77288
G1 X182.322 Y156.367 E11.78604
G1 X182.819 Y156.238 E11.80311
G1 X183.155 Y156.02 E11.81644
G1 X183.416 Y155.727 E11.82949
G1 X183.624 Y155.298 E11.84534
G1 X183.688 Y154.95 E11.85711
G1 X183.631 Y154.461 E11.87349
G1 X183.399 Y153.991 E11.89092
G1 X183.033 Y153.641 E11.90776
G1 X182.665 Y153.463 E11.92136
G1 X182.291 Y153.387 E11.93405
G1 X181.813 Y153.431 E11.95002
G1 X181.275 Y153.702 E11.97006
G1 X180.909 Y154.078 E11.98751
G1 X180.65 Y154.27 E11.99823
G1 X180.192 Y154.38 E12.0139
G1 X174.105 Y154.377 E12.21635
G1 X173.683 Y154.242 E12.23109
G1 X173.429 Y154.027 E12.24216
G1 X173.17 Y153.533 E12.26071
G1 X173.095 Y153.232 E12.27103
G1 X173.073 Y152.52 E12.29472
G1 X173.329 Y151.873 E12.31786
G1 X173.63 Y151.552 E12.3325
G1 X173.859 Y151.436 E12.34103
G1 X174.192 Y151.379 E12.35227
G1 X179.886 Y151.38 E12.54165
G1 X180.273 Y151.125 E12.55707
G1 X181.036 Y150.811 E12.58451
G1 X181.86 Y150.641 E12.6125
G1 X182.72 Y150.646 E12.6411
G1 X183.541 Y150.818 E12.669
G1 X184.3 Y151.142 E12.69645
G1 X184.843 Y151.49 E12.7179
G1 X185.457 Y152.057 E12.7457
G1 X185.893 Y152.664 E12.77055
G1 X186.152 Y153.131 E12.78831
G1 X186.404 Y153.884 E12.81472
G1 X186.404 Y128.23 E13.66798
G1 X186.311 Y128.113 E13.67295
G1 X115.685 Y128.113 E16.02198
G1 X115.612 Y128.199 E16.02573
G1 X115.612 Y173.812 E17.54283
G1 X115.697 Y173.888 E17.54662
G1 X123.072 Y173.9 E17.79191
G1 X122.917 Y173.409 E17.80904
G1 X122.894 Y173.061 E17.82064
G1 X122.93 Y172.779 E17.83009
G1 X123.027 Y172.519 E17.83932
G1 X123.29 Y172.044 E17.85738
G1 X123.776 Y171.558 E17.88024
G1 X123.005 Y171.557 E17.90589
G1 X122.435 Y171.359 E17.92596
G1 X122.109 Y171.13 E17.93921
G1 X121.845 Y170.831 E17.95247
G1 X121.552 Y170.231 E17.97468
G1 X121.512 Y169.68 E17.99306
G1 X121.588 Y169.296 E18.00608
G1 X121.802 Y168.825 E18.02328
G1 X122.241 Y168.363 E18.04448
G1 X122.967 Y168.06 E18.07064
G1 X123.775 Y168.06 E18.09752
G1 X123.229 Y167.516 E18.12315
G1 X122.987 Y167.025 E18.14136
G1 X122.891 Y166.53 E18.15813
G1 X122.943 Y166.044 E18.17439
G1 X123.184 Y165.478 E18.19485
G1 X123.638 Y165.017 E18.21637
G1 X123.855 Y164.892 E18.2247
G1 X124.363 Y164.722 E18.24251
G1 X124.985 Y164.724 E18.2632
G1 X125.477 Y164.913 E18.28073
G1 X125.827 Y165.163 E18.29504
G1 X126.248 Y165.582 E18.31479
G1 X126.251 Y164.882 E18.33808
G1 X126.368 Y164.42 E18.35393
G1 X126.626 Y163.973 E18.37109
G1 X127.171 Y163.497 E18.39516
G1 X127.879 Y163.312 E18.4195
G1 X128.541 Y163.396 E18.44169
G1 X129.074 Y163.658 E18.46145
G1 X129.539 Y164.201 E18.48523
G1 X129.748 Y164.839 E18.50755
G1 X129.749 Y165.583 E18.5323
G1 X130.274 Y165.059 E18.55697
G1 X130.834 Y164.789 E18.57765
G1 X131.119 Y164.716 E18.58743
G1 X131.702 Y164.732 E18.60683
G1 X132.159 Y164.894 E18.62296
G1 X132.662 Y165.27 E18.64385
G1 X132.968 Y165.762 E18.66312
G1 X133.107 Y166.374 E18.68399
G1 X133.023 Y166.98 E18.70434
G1 X132.847 Y167.37 E18.71857
G1 X132.657 Y167.627 E18.7292
G1 X132.223 Y168.06 E18.74959
G1 X132.964 Y168.06 E18.77424
G1 X133.417 Y168.197 E18.78998
G1 X133.668 Y168.321 E18.79929
G1 X133.983 Y168.567 E18.81258
G1 X134.152 Y168.785 E18.82176
G1 X134.426 Y169.313 E18.84154
G1 X134.489 Y169.941 E18.86253
G1 X134.469 Y170.139 E18.86915
G1 X134.274 Y170.643 E18.88713
G1 X134.081 Y170.934 E18.89874
G1 X133.72 Y171.263 E18.91499
G1 X133.207 Y171.486 E18.93359
G1 X132.935 Y171.56 E18.94297
G1 X132.222 Y171.56 E18.96668
G1 X132.711 Y172.048 E18.98966
G1 X133.021 Y172.627 E19.0115
G1 X133.103 Y173.064 E19.02629
G1 X133.044 Y173.613 E19.04466
G1 X132.937 Y173.908 E19.05509
G1 X141.553 Y173.907 E19.34166
G1 X141.217 Y173.616 E19.35645
G1 X140.985 Y173.3 E19.36948
G1 X140.747 Y172.749 E19.38945
G1 X140.692 Y172.419 E19.40057
G1 X140.698 Y159.163 E19.84147
G1 X140.757 Y158.784 E19.85423
G1 X140.839 Y158.549 E19.86251
G1 X141.107 Y158.058 E19.88111
G1 X141.479 Y157.688 E19.89856
G1 X141.833 Y157.473 E19.91234
G1 X142.457 Y157.279 E19.93407
G1 X166.829 Y157.283 E20.74469
G1 X167.248 Y157.359 E20.75885
G1 X167.806 Y157.616 E20.77928
G1 X167.968 Y157.737 E20.78601
G1 X168.393 Y158.223 E20.80748
G1 X168.512 Y158.46 E20.8163
G1 X168.692 Y159.001 E20.83527
G1 X168.692 Y172.324 E21.27839
G1 X168.632 Y172.746 E21.29257
G1 X168.526 Y173.049 E21.30325
G1 X168.317 Y173.428 E21.31764
G1 X168.032 Y173.755 E21.33207
G1 X167.824 Y173.907 E21.34064
G1 X173.072 Y173.907 E21.51519
G1 X173.119 Y173.535 E21.52766
G1 X173.333 Y172.967 E21.54785
G0 F1800 X173.806 Y173.02
G1 F1200 X173.96 Y172.926 E21.55385
G1 X174.139 Y172.882 E21.55998
G1 X180.245 Y172.882 E21.76306
G1 X180.525 Y172.962 E21.77275
G1 X181.031 Y173.477 E21.79676
G1 X181.3 Y173.652 E21.80744
G1 X181.773 Y173.828 E21.82422
G1 X182.159 Y173.872 E21.83714
G1 X182.652 Y173.819 E21.85363
G1 X183.02 Y173.687 E21.86664
G1 X183.31 Y173.511 E21.87792
G1 X183.567 Y173.283 E21.88935
G1 X183.896 Y172.805 E21.90865
G1 X184.05 Y172.366 E21.92412
G1 X184.088 Y172.011 E21.936
G1 X184.038 Y171.537 E21.95185
G1 X183.917 Y171.189 E21.9641
G1 X183.728 Y170.867 E21.97652
G1 X183.478 Y170.587 E21.98901
G1 X183.189 Y170.366 E22.00111
G1 X182.744 Y170.163 E22.01737
G1 X182.504 Y170.107 E22.02557
G1 X182.013 Y170.091 E22.04191
G1 X181.662 Y170.159 E22.0538
G1 X181.315 Y170.296 E22.06621
G1 X180.921 Y170.573 E22.08223
G1 X180.623 Y170.902 E22.09699
G1 X180.468 Y171.016 E22.10339
G1 X180.248 Y171.078 E22.111
G1 X174.139 Y171.078 E22.31418
G1 X173.96 Y171.034 E22.32031
G1 X173.806 Y170.94 E22.32631
G1 X173.676 Y170.788 E22.33297
G1 X173.482 Y170.247 E22.35208
G1 X173.496 Y169.685 E22.37078
G1 X173.541 Y169.482 E22.3777
G1 X173.703 Y169.131 E22.39055
G1 X173.976 Y168.92 E22.40203
G1 X174.149 Y168.881 E22.40793
G1 X179.992 Y168.88 E22.60227
G1 X180.173 Y168.754 E22.6096
G1 X180.942 Y168.359 E22.63836
G1 X181.861 Y168.149 E22.66971
G1 X182.655 Y168.149 E22.69612
G1 X183.059 Y168.212 E22.70972
G1 X183.722 Y168.408 E22.73271
G1 X184.396 Y168.767 E22.75811
G1 X184.976 Y169.236 E22.78292
G1 X185.352 Y169.669 E22.80199
G1 F1142.9 X185.742 Y170.304 E22.82802
G1 F1043.5 X186.064 Y171.134 E22.86207
G1 F909.1 X186.14 Y171.266 E22.86876
G1 F857.1 X186.19 Y171.895 E22.89814
G1 F866.4 X186.161 Y172.558 E22.92871
G1 F879.1 X186.127 Y172.616 E22.93176
G1 F1036.7 X185.804 Y173.501 E22.96803
G1 F1200 X185.542 Y174.007 E22.98698
G1 X185.339 Y174.293 E22.99865
G1 X186.379 Y174.284 E23.03324
G1 X186.576 Y174.203 E23.04032
G1 X186.72 Y174.051 E23.04729
G1 F1111.1 X186.827 Y173.794 E23.05729
G1 F971.7 X186.742 Y172.698 E23.10244
G1 F879.1 X186.722 Y172.606 E23.10672
G1 F866.4 X186.733 Y171.964 E23.1363
G1 F857.1 X186.716 Y171.237 E23.17016
G1 F909.1 X186.764 Y171.021 E23.17987
G1 F1090.9 X186.804 Y170.221 E23.20918
G1 F1200 X186.804 Y155.77 E23.68982
G1 F991.7 X186.721 Y155.352 E23.70697
G1 F866.4 X186.733 Y154.792 E23.73277
G1 F851.1 X186.711 Y154.033 E23.76838
G1 F973.6 X186.804 Y153.837 E23.77728
G1 F1200 X186.804 Y128.148 E24.63169
G1 X186.695 Y127.894 E24.64089
G1 X186.558 Y127.779 E24.64684
G1 X186.386 Y127.712 E24.65298
G1 X115.61 Y127.712 E27.007
G1 X115.438 Y127.779 E27.01314
G1 X115.31 Y127.888 E27.01873
G1 X115.212 Y128.118 E27.02704
G1 X115.212 Y173.892 E28.54949
G1 X115.272 Y174.048 E28.55505
G1 X115.391 Y174.192 E28.56126
G1 X115.615 Y174.288 E28.56937
G1 X123.955 Y174.303 E28.84676
G1 X123.63 Y174.057 E28.86032
G1 X123.384 Y173.643 E28.87633
G1 X123.291 Y173.105 E28.89449
G1 X123.321 Y172.864 E28.90257
G1 X123.608 Y172.291 E28.92389
G1 X124.74 Y171.16 E28.97711
G1 X123.081 Y171.151 E29.03229
G1 X122.618 Y171.003 E29.04845
G1 X122.35 Y170.811 E29.05942
G1 X122.191 Y170.632 E29.06738
G1 X121.942 Y170.144 E29.0856
G1 X121.912 Y169.68 E29.10107
G1 X121.957 Y169.449 E29.1089
G1 X122.137 Y169.044 E29.12364
G1 X122.466 Y168.699 E29.13949
G1 X123.075 Y168.46 E29.16125
G1 X124.742 Y168.46 E29.2167
G1 X123.551 Y167.272 E29.27265
G1 X123.365 Y166.894 E29.28666
G1 X123.288 Y166.412 E29.30289
G1 X123.381 Y165.972 E29.31785
G1 X123.512 Y165.708 E29.32765
G1 X123.878 Y165.336 E29.34501
G1 X124.309 Y165.14 E29.36076
G1 X124.875 Y165.122 E29.37959
G1 X125.283 Y165.263 E29.39395
G1 X125.564 Y165.464 E29.40544
G1 X126.648 Y166.549 E29.45645
G1 X126.65 Y164.918 E29.5107
G1 X126.737 Y164.573 E29.52254
G1 X126.977 Y164.174 E29.53802
G1 X127.271 Y163.919 E29.55097
G1 X127.446 Y163.833 E29.55745
G1 X127.917 Y163.71 E29.57364
G1 X128.434 Y163.782 E29.591
G1 X128.743 Y163.932 E29.60243
G1 X129.152 Y164.36 E29.62212
G1 X129.349 Y164.899 E29.64121
G1 X129.349 Y166.548 E29.69605
G1 X130.565 Y165.334 E29.7532
G1 X131.159 Y165.114 E29.77427
G1 X131.51 Y165.108 E29.78595
G1 X131.958 Y165.24 E29.80148
G1 X132.386 Y165.576 E29.81958
G1 X132.598 Y165.916 E29.8329
G1 X132.707 Y166.4 E29.84941
G1 X132.64 Y166.867 E29.8651
G1 X132.437 Y167.28 E29.8804
G1 X131.256 Y168.46 E29.93593
G1 X132.914 Y168.46 E29.99108
G1 X133.442 Y168.652 E30.00976
G1 X133.736 Y168.888 E30.0223
G1 X134.043 Y169.429 E30.04299
G1 X134.096 Y170.014 E30.06253
G1 X133.907 Y170.483 E30.07934
G1 X133.791 Y170.658 E30.08633
G1 X133.512 Y170.921 E30.09908
G1 X132.947 Y171.155 E30.11942
G1 X131.255 Y171.158 E30.1757
G1 X132.394 Y172.297 E30.22927
G1 X132.665 Y172.82 E30.24886
G1 X132.705 Y173.107 E30.2585
G1 X132.65 Y173.539 E30.27299
G1 X132.59 Y173.711 E30.27904
G1 X132.389 Y174.033 E30.29167
G1 X132.062 Y174.307 E30.30586
G1 F1176.5 X142.648 Y174.3 E30.66499
G1 F1148.3 X166.977 Y174.298 E31.51059
G1 F1170.7 X167.415 Y174.307 E31.52553
G1 F1200 X173.502 Y174.308 E31.72798
G1 X173.469 Y173.895 E31.74176
G1 X173.498 Y173.662 E31.74957
G1 X173.676 Y173.172 E31.76691
G1 X173.806 Y173.02 E31.77356
G1 F1500 E25.27356
G1 F600 Z0.3
G0 F1800 X166.941 Y173.882 Z0.3
G1 F600 Z0.2
G1 F1500 E31.77356
G1 F1140.1 X142.549 Y173.879 E32.62744
G1 F1111.1 X142.303 Y173.848 E32.63634
G1 F1142.9 X141.731 Y173.549 E32.65888
G1 F1200 X141.54 Y173.38 E32.66737
G1 X141.308 Y173.064 E32.6804
G1 X141.125 Y172.617 E32.69647
G1 X141.092 Y172.419 E32.70315
G1 X141.097 Y159.19 E33.14314
G1 X141.162 Y158.814 E33.15584
G1 X141.419 Y158.308 E33.17471
G1 X141.726 Y158.003 E33.1891
G1 X142.005 Y157.834 E33.19995
G1 X142.452 Y157.681 E33.21567
G1 X166.794 Y157.682 E34.02529
G1 X167.189 Y157.759 E34.03867
G1 X167.696 Y158.031 E34.05781
G1 X168.09 Y158.484 E34.07778
G1 X168.29 Y159.022 E34.09687
G1 X168.292 Y172.324 E34.53929
