;FLAVOR:Marlin
;TIME:546
;Filament used: 0.287504m
;Layer height: 0.15
;MINX:137.222
;MINY:141.7
;MINZ:0.3
;MAXX:164.797
;MAXY:160.3
;MAXZ:19.95
;TARGET_MACHINE.NAME:Unknown
;Generated with Cura_SteamEngine 5.7.2
M104 S228
M105
M109 S228
M82 ;absolute extrusion mode
; Script based on an original created by tjjfvi (https://github.com/tjjfvi)
; An up-to-date version of the tjjfvi's original script can be found
; here:  https://csi.t6.fyi/
; Note - This script will only work in Cura V4.2 and above!
; --- Global Settings
; layer_height = 0.15
; smooth_spiralized_contours = True
; magic_mesh_surface_mode = normal
; machine_extruder_count = 1
; --- Single Extruder Settings
; speed_z_hop = 10
; retraction_amount = 6.5
; retraction_hop = 1
; retraction_hop_enabled = False
; retraction_enable = True
; retraction_speed = 25
; retraction_retract_speed = 25
; retraction_prime_speed = 25
; speed_travel = 120

G28 ;Home
G1 Z15.0 F6000 ;Move the platform down 15mm
;Prime the extruder
G92 E0
G1 F200 E3
G92 E0
G92 E0
G92 E0
G1 F1500 E-6.5
;LAYER_COUNT:132
;LAYER:0
M107
G0 F3600 X139.849 Y143.756 Z0.3
;TYPE:SKIRT
G1 F1500 E0
G1 F1800 X140.68 Y143.131 E0.05188
G1 X142.11 Y142.328 E0.1337
G1 X144.205 Y141.7 E0.24281
G1 X157.467 Y141.744 E0.90446
G1 X159.257 Y142.01 E0.99474
G1 X161.351 Y143.119 E1.11296
G1 X162.509 Y144.214 E1.19247
G1 X163.314 Y145.205 E1.25617
G1 X164.253 Y146.966 E1.35574
G1 X164.576 Y148.517 E1.43478
G1 X164.779 Y150.227 E1.52069
G1 X164.797 Y150.969 E1.55772
G1 X164.617 Y153.261 E1.67242
G1 X164.308 Y154.588 E1.74039
G1 X163.619 Y156.453 E1.83958
G1 X162.113 Y158.256 E1.95679
G1 X160.941 Y159.125 E2.02958
G1 X159.381 Y159.824 E2.11486
G1 X157.813 Y160.3 E2.19662
G1 X144.303 Y160.23 E2.87064
G1 X142.972 Y160.019 E2.93787
G1 X141.018 Y159.148 E3.04461
G1 X139.714 Y158.041 E3.12994
G1 X138.815 Y157.053 E3.19659
G1 X137.71 Y154.912 E3.31679
G1 X137.381 Y153.19 E3.40425
G1 X137.222 Y150.445 E3.54143
G1 X137.357 Y148.986 E3.61453
G1 X137.696 Y147.401 E3.6954
G1 X138.293 Y145.695 E3.78557
G1 X139.849 Y143.756 E3.90961
G0 F3600 X140.129 Y144.045
G1 F1800 X140.876 Y143.48 E3.95633
G1 X142.269 Y142.698 E4.03603
G1 X144.263 Y142.1 E4.13989
G1 X157.408 Y142.14 E4.7957
G1 X159.13 Y142.396 E4.88256
G1 X161.118 Y143.448 E4.99477
G1 X162.199 Y144.466 E5.06885
G1 X162.978 Y145.425 E5.13049
G1 X163.873 Y147.103 E5.22537
G1 X164.184 Y148.598 E5.30155
G1 X164.379 Y150.238 E5.38395
G1 X164.398 Y150.938 E5.41888
G1 X164.227 Y153.17 E5.53057
G1 X163.918 Y154.497 E5.59854
G1 X163.268 Y156.25 E5.69182
G1 X161.836 Y157.964 E5.80325
G1 X160.74 Y158.777 E5.87133
G1 X159.265 Y159.441 E5.95203
G1 X157.754 Y159.9 E6.03081
G1 X144.366 Y159.835 E6.69875
G1 X143.086 Y159.632 E6.76341
G1 X141.232 Y158.806 E6.86467
G1 X140.01 Y157.772 E6.94453
G1 X139.146 Y156.822 E7.0086
G1 X138.092 Y154.781 E7.1232
G1 X137.774 Y153.115 E7.20782
G1 X137.62 Y150.481 E7.33945
G1 X137.748 Y149.069 E7.41019
G1 X138.074 Y147.533 E7.48852
G1 X138.649 Y145.89 E7.57537
G1 X140.129 Y144.045 E7.69337
G0 F3600 X140.409 Y144.335
G1 F1800 X141.072 Y143.829 E7.73498
G1 X142.428 Y143.068 E7.81256
G1 X144.321 Y142.5 E7.91116
G1 X157.349 Y142.536 E8.56113
G1 X159.003 Y142.782 E8.64456
G1 X160.885 Y143.778 E8.75079
G1 X161.889 Y144.718 E8.81941
G1 X162.642 Y145.645 E8.87899
G1 X163.492 Y147.239 E8.96912
G1 X163.792 Y148.68 E9.04255
G1 X163.979 Y150.25 E9.12143
G1 X163.999 Y150.908 E9.15427
G1 X163.837 Y153.079 E9.26289
G1 X163.528 Y154.406 E9.33086
G1 X162.916 Y156.048 E9.41829
G1 X161.559 Y157.672 E9.52387
G1 X160.537 Y158.43 E9.58735
G1 X159.149 Y159.058 E9.66336
G1 X157.695 Y159.5 E9.73917
G1 X144.429 Y159.44 E10.40102
G1 X143.2 Y159.245 E10.46311
G1 X141.448 Y158.465 E10.55879
G1 X140.306 Y157.503 E10.63328
G1 X139.476 Y156.59 E10.69484
G1 X138.475 Y154.651 E10.80371
G1 X138.167 Y153.04 E10.88554
G1 X138.018 Y150.516 E11.01168
G1 X138.139 Y149.151 E11.08005
G1 X138.452 Y147.665 E11.15581
G1 X139.005 Y146.085 E11.23932
G1 X140.409 Y144.335 E11.35126
G0 F3600 X140.69 Y144.624
G1 F1800 X141.268 Y144.178 E11.38768
G1 X142.587 Y143.438 E11.46313
G1 X144.379 Y142.9 E11.55648
G1 X157.348 Y142.936 E12.20351
G1 X158.874 Y143.167 E12.28051
G1 X160.652 Y144.108 E12.38087
G1 X161.579 Y144.97 E12.44402
G1 X162.306 Y145.865 E12.50155
G1 X163.111 Y147.375 E12.58692
G1 X163.4 Y148.762 E12.65761
G1 X163.579 Y150.264 E12.73307
G1 X163.6 Y150.879 E12.76377
G1 X163.447 Y152.989 E12.86932
G1 X163.153 Y154.266 E12.93469
G1 X162.565 Y155.844 E13.01871
G1 X161.28 Y157.381 E13.11866
G1 X160.335 Y158.082 E13.17736
G1 X159.033 Y158.675 E13.24874
G1 X157.636 Y159.1 E13.32159
G1 X144.492 Y159.045 E13.97735
G1 X143.314 Y158.858 E14.03685
G1 X141.664 Y158.124 E14.12695
G1 X140.602 Y157.234 E14.19608
G1 X139.806 Y156.358 E14.25513
G1 X138.858 Y154.521 E14.35826
G1 X138.56 Y152.965 E14.4373
G1 X138.416 Y150.551 E14.55795
G1 X138.531 Y149.233 E14.62396
G1 X138.83 Y147.797 E14.69714
G1 X139.361 Y146.28 E14.77732
G1 X140.69 Y144.624 E14.88326
G0 F3600 X140.971 Y144.912
G1 F1800 X141.512 Y144.495 E14.91734
G1 X142.744 Y143.808 E14.98771
G1 X144.437 Y143.3 E15.0759
G1 X157.288 Y143.332 E15.71704
G1 X158.75 Y143.553 E15.7908
G1 X160.417 Y144.436 E15.88492
G1 X161.268 Y145.222 E15.94271
G1 X161.972 Y146.089 E15.99843
G1 X162.731 Y147.512 E16.07889
G1 X163.008 Y148.843 E16.14672
G1 X163.179 Y150.278 E16.21882
G1 X163.2 Y150.893 E16.24952
G1 X163.057 Y152.9 E16.3499
G1 X162.778 Y154.126 E16.41263
G1 X162.214 Y155.64 E16.49324
G1 X161.001 Y157.09 E16.58755
G1 X160.134 Y157.733 E16.6414
G1 X158.916 Y158.292 E16.70826
G1 X157.576 Y158.7 E16.77815
G1 X144.555 Y158.65 E17.42777
G1 X143.43 Y158.471 E17.48461
G1 X141.878 Y157.781 E17.56934
G1 X140.859 Y156.927 E17.63567
G1 X140.137 Y156.127 E17.68944
G1 X139.24 Y154.39 E17.78697
G1 X138.953 Y152.89 E17.86316
G1 X138.815 Y150.585 E17.97836
G1 X138.923 Y149.314 E18.042
G1 X139.208 Y147.929 E18.11255
G1 X139.717 Y146.475 E18.18941
G1 X140.971 Y144.912 E18.28938
G0 F3600 X141.253 Y145.199
G1 F1800 X141.707 Y144.844 E18.31813
G1 X142.9 Y144.179 E18.38627
G1 X144.495 Y143.7 E18.46936
G1 X157.228 Y143.728 E19.10461
G1 X158.626 Y143.939 E19.17515
G1 X160.183 Y144.764 E19.26306
G1 X160.957 Y145.474 E19.31546
G1 X161.638 Y146.313 E19.36937
G1 X162.35 Y147.648 E19.44485
G1 X162.616 Y148.925 E19.50993
G1 X162.779 Y150.292 E19.57861
G1 X162.8 Y150.907 E19.60931
G1 X162.667 Y152.812 E19.70459
G1 X162.403 Y153.986 E19.76462
G1 X161.863 Y155.436 E19.84182
G1 X160.724 Y156.797 E19.93036
G1 X159.927 Y157.389 E19.97989
G1 X158.799 Y157.909 E20.04186
G1 X157.516 Y158.3 E20.10877
G1 X144.618 Y158.255 E20.75226
G1 X143.544 Y158.084 E20.80652
G1 X142.094 Y157.439 E20.88569
G1 X141.116 Y156.62 E20.94933
G1 X140.468 Y155.897 E20.99777
G1 X139.622 Y154.259 E21.08975
G1 X139.346 Y152.815 E21.16309
G1 X139.214 Y150.618 E21.2729
G1 X139.315 Y149.394 E21.33417
G1 X139.586 Y148.061 E21.40204
G1 X140.073 Y146.67 E21.47556
G1 X141.253 Y145.199 E21.56965
G0 F3600 X141.535 Y145.487
G1 F1800 X141.954 Y145.159 E21.59619
G1 X143.056 Y144.55 E21.65901
G1 X144.553 Y144.1 E21.737
G1 X157.168 Y144.124 E22.36636
G1 X158.499 Y144.325 E22.43352
G1 X159.952 Y145.094 E22.51554
G1 X160.646 Y145.726 E22.56237
G1 X161.304 Y146.537 E22.61447
G1 X161.97 Y147.785 E22.68504
G1 X162.224 Y149.006 E22.74726
G1 X162.379 Y150.306 E22.81258
G1 X162.4 Y150.921 E22.84328
G1 X162.276 Y152.726 E22.93354
G1 X162.028 Y153.846 E22.99078
G1 X161.512 Y155.232 E23.06456
G1 X160.447 Y156.504 E23.14733
G1 X159.721 Y157.044 E23.19247
G1 X158.682 Y157.526 E23.24961
G1 X157.455 Y157.9 E23.31361
G1 X144.681 Y157.86 E23.95091
G1 X143.66 Y157.697 E24.00249
G1 X142.308 Y157.096 E24.0763
G1 X141.373 Y156.313 E24.13715
G1 X140.799 Y155.667 E24.18026
G1 X140.004 Y154.128 E24.26668
G1 X139.739 Y152.74 E24.33718
G1 X139.613 Y150.651 E24.44159
G1 X139.714 Y149.427 E24.50286
G1 X139.964 Y148.193 E24.56568
G1 X140.429 Y146.865 E24.63588
G1 X141.535 Y145.487 E24.72403
G0 F3600 X141.818 Y145.773
G1 F1800 X142.147 Y145.509 E24.74508
G1 X143.211 Y144.921 E24.80573
G1 X144.611 Y144.5 E24.87866
G1 X157.108 Y144.52 E25.50214
G1 X158.372 Y144.711 E25.56592
G1 X159.721 Y145.425 E25.64207
G1 X160.335 Y145.978 E25.68329
G1 X160.97 Y146.761 E25.73359
G1 X161.589 Y147.921 E25.79918
G1 X161.832 Y149.088 E25.85865
G1 X161.979 Y150.32 E25.92055
G1 X162 Y150.935 E25.95125
G1 X161.877 Y152.698 E26.03942
G1 X161.653 Y153.707 E26.09099
G1 X161.162 Y155.027 E26.16125
G1 X160.17 Y156.211 E26.23832
G1 X159.514 Y156.699 E26.27911
G1 X158.565 Y157.143 E26.33138
G1 X157.394 Y157.5 E26.39245
G1 X144.744 Y157.465 E27.02357
G1 X143.776 Y157.31 E27.07248
G1 X142.522 Y156.753 E27.14093
G1 X141.63 Y156.006 E27.19898
G1 X141.13 Y155.438 E27.23673
G1 X140.387 Y153.998 E27.31757
G1 X140.132 Y152.665 E27.38528
G1 X140.012 Y150.684 E27.4843
G1 X140.113 Y149.46 E27.54557
G1 X140.342 Y148.325 E27.60334
G1 X140.785 Y147.06 E27.6702
G1 X141.818 Y145.773 E27.75254
G0 F3600 X142.103 Y146.057
G1 F1800 X142.34 Y145.859 E27.76795
G1 X143.366 Y145.292 E27.82643
G1 X144.669 Y144.9 E27.89431
G1 X157.048 Y144.916 E28.51191
G1 X158.248 Y145.097 E28.57245
G1 X159.488 Y145.754 E28.64246
G1 X160.067 Y146.275 E28.68132
G1 X160.633 Y146.981 E28.72647
G1 X161.209 Y148.059 E28.78744
G1 X161.44 Y149.169 E28.84401
G1 X161.579 Y150.334 E28.90254
G1 X161.6 Y150.949 E28.93324
G1 X161.486 Y152.613 E29.01645
G1 X161.278 Y153.568 E29.06522
G1 X160.812 Y154.822 E29.13196
G1 X159.893 Y155.918 E29.20332
G1 X159.308 Y156.353 E29.23969
G1 X158.448 Y156.76 E29.28715
G1 X157.333 Y157.1 E29.34531
G1 X144.807 Y157.07 E29.97024
G1 X143.892 Y156.923 E30.01647
G1 X142.736 Y156.41 E30.07957
G1 X141.887 Y155.699 E30.13482
G1 X141.463 Y155.211 E30.16707
G1 X140.769 Y153.867 E30.24253
G1 X140.525 Y152.59 E30.3074
G1 X140.411 Y150.717 E30.40101
G1 X140.512 Y149.493 E30.46229
G1 X140.72 Y148.457 E30.515
G1 X141.141 Y147.255 E30.57854
G1 X142.103 Y146.057 E30.6552
G0 F3600 X142.415 Y146.308
G1 F1800 X142.533 Y146.209 E30.66288
G1 X143.521 Y145.663 E30.7192
G1 X144.727 Y145.3 E30.78203
G1 X156.988 Y145.312 E31.39374
G1 X158.121 Y145.483 E31.4509
G1 X159.26 Y146.086 E31.5152
G1 X159.757 Y146.527 E31.54835
G1 X160.28 Y147.17 E31.5897
G1 X160.829 Y148.197 E31.6478
G1 X161.048 Y149.25 E31.70146
G1 X161.179 Y150.348 E31.75663
G1 X161.2 Y150.963 E31.78733
G1 X161.095 Y152.528 E31.86558
G1 X160.887 Y153.483 E31.91434
G1 X160.461 Y154.618 E31.97482
G1 X159.618 Y155.623 E32.04027
G1 X159.101 Y156.008 E32.07243
G1 X158.331 Y156.377 E32.11503
G1 X157.272 Y156.7 E32.17026
G1 X144.871 Y156.675 E32.78895
G1 X144.007 Y156.536 E32.83261
G1 X142.95 Y156.067 E32.8903
G1 X142.144 Y155.392 E32.94275
G1 X141.796 Y154.984 E32.96951
G1 X141.151 Y153.736 E33.03959
G1 X140.918 Y152.515 E33.10161
G1 X140.81 Y150.75 E33.18983
G1 X140.911 Y149.526 E33.2511
G1 X141.098 Y148.589 E33.29877
G1 X141.496 Y147.452 E33.35887
G1 X142.415 Y146.308 E33.43208
G0 F3600 X142.727 Y146.559
G1 F1800 X143.678 Y146.033 E33.4863
G1 X144.785 Y145.7 E33.54398
G1 X156.928 Y145.708 E34.14979
G1 X157.994 Y145.869 E34.20358
G1 X159.033 Y146.419 E34.26223
G1 X159.447 Y146.78 E34.28963
G1 X159.946 Y147.393 E34.32907
G1 X160.448 Y148.333 E34.38223
G1 X160.656 Y149.332 E34.43314
G1 X160.779 Y150.362 E34.48489
G1 X160.8 Y150.977 E34.51559
G1 X160.704 Y152.444 E34.58894
G1 X160.512 Y153.342 E34.63475
G1 X160.109 Y154.416 E34.69198
G1 X159.344 Y155.328 E34.75137
G1 X158.893 Y155.664 E34.77943
G1 X158.214 Y155.994 E34.81709
G1 X157.211 Y156.3 E34.86941
G1 X144.935 Y156.28 E35.48186
G1 X144.122 Y156.149 E35.52295
G1 X143.164 Y155.724 E35.57523
G1 X142.401 Y155.085 E35.62489
G1 X142.129 Y154.759 E35.64607
G1 X141.534 Y153.606 E35.7108
G1 X141.311 Y152.44 E35.77003
G1 X141.209 Y150.782 E35.8529
G1 X141.304 Y149.603 E35.91191
G1 X141.476 Y148.721 E35.95674
G1 X141.851 Y147.649 E36.0134
G1 X142.727 Y146.559 E36.08317
G0 F3600 X142.99 Y146.871
G1 F1800 X143.835 Y146.403 E36.13136
G1 X144.843 Y146.1 E36.18387
G1 X156.868 Y146.104 E36.7838
G1 X157.867 Y146.255 E36.83421
G1 X158.806 Y146.752 E36.88721
G1 X159.137 Y147.033 E36.90888
G1 X159.612 Y147.616 E36.94639
G1 X160.067 Y148.469 E36.99463
G1 X160.264 Y149.414 E37.04278
G1 X160.379 Y150.376 E37.09112
G1 X160.4 Y150.991 E37.12182
G1 X160.312 Y152.362 E37.19036
G1 X160.137 Y153.202 E37.23317
G1 X159.758 Y154.213 E37.28704
G1 X159.069 Y155.034 E37.34051
G1 X158.716 Y155.305 E37.36271
G1 X158.097 Y155.611 E37.39716
G1 X157.15 Y155.9 E37.44656
G1 X144.999 Y155.885 E38.05277
G1 X144.237 Y155.762 E38.09128
G1 X143.378 Y155.381 E38.13816
G1 X142.658 Y154.778 E38.18502
G1 X142.484 Y154.575 E38.19836
G1 X141.916 Y153.475 E38.26012
G1 X141.704 Y152.365 E38.3165
G1 X141.608 Y150.813 E38.39408
G1 X141.697 Y149.68 E38.45078
G1 X141.869 Y148.798 E38.49561
G1 X142.206 Y147.847 E38.54595
G1 X142.99 Y146.871 E38.6084
G0 F3600 X143.252 Y147.183
G1 F1800 X143.992 Y146.773 E38.65061
G1 X144.901 Y146.5 E38.69796
G1 X156.808 Y146.5 E39.292
G1 X157.743 Y146.641 E39.33918
G1 X158.581 Y147.085 E39.38649
G1 X158.827 Y147.286 E39.40234
G1 X159.278 Y147.839 E39.43794
G1 X159.687 Y148.606 E39.48131
G1 X159.872 Y149.495 E39.52661
G1 X159.979 Y150.39 E39.57158
G1 X160 Y151.005 E39.60228
G1 X159.92 Y152.28 E39.66602
G1 X159.745 Y153.12 E39.70882
G1 X159.407 Y154.01 E39.75632
G1 X158.789 Y154.746 E39.80427
G1 X158.539 Y154.946 E39.82024
G1 X157.92 Y155.252 E39.85469
G1 X157.091 Y155.5 E39.89786
G1 X145.063 Y155.49 E40.49794
G1 X144.352 Y155.375 E40.53387
G1 X143.592 Y155.038 E40.57535
G1 X142.915 Y154.471 E40.61941
G1 X142.816 Y154.347 E40.62732
G1 X142.299 Y153.345 E40.68357
G1 X142.097 Y152.29 E40.73716
G1 X142.007 Y150.844 E40.80945
G1 X142.096 Y149.711 E40.86614
G1 X142.261 Y148.876 E40.90861
G1 X142.56 Y148.045 E40.95267
G1 X143.252 Y147.183 E41.00782
G0 F3600 X143.514 Y147.495
G1 F1800 X144.149 Y147.143 E41.04404
G1 X144.959 Y146.9 E41.08623
G1 X156.808 Y146.9 E41.67738
G1 X157.614 Y147.026 E41.71808
G1 X158.394 Y147.439 E41.76211
G1 X158.517 Y147.539 E41.77002
G1 X158.942 Y148.061 E41.8036
G1 X159.307 Y148.744 E41.84224
G1 X159.48 Y149.576 E41.88464
G1 X159.579 Y150.404 E41.92624
G1 X159.6 Y151.019 E41.95694
G1 X159.528 Y152.198 E42.01587
G1 X159.353 Y153.038 E42.05868
G1 X159.057 Y153.805 E42.09969
G1 X158.483 Y154.489 E42.14424
G1 X158.358 Y154.589 E42.15223
G1 X157.805 Y154.869 E42.18315
G1 X157.033 Y155.1 E42.22336
G1 X145.127 Y155.095 E42.81735
G1 X144.467 Y154.988 E42.85071
G1 X143.806 Y154.695 E42.88678
G1 X143.172 Y154.164 E42.92804
G1 X142.681 Y153.212 E42.98148
G1 X142.49 Y152.215 E43.03212
G1 X142.406 Y150.874 E43.09916
G1 X142.489 Y149.786 E43.15359
G1 X142.637 Y149.012 E43.19291
G1 X142.914 Y148.243 E43.23369
G1 X143.514 Y147.495 E43.28153
G0 F3600 X143.776 Y147.807
G1 F1800 X144.306 Y147.513 E43.31177
G1 X145.017 Y147.3 E43.34879
G1 X156.808 Y147.3 E43.93705
G1 X157.488 Y147.411 E43.97142
G1 X158.207 Y147.792 E44.01202
G1 X158.608 Y148.284 E44.04369
G1 X158.926 Y148.88 E44.07739
G1 X159.088 Y149.658 E44.11704
G1 X159.179 Y150.418 E44.15522
G1 X159.2 Y151.033 E44.18592
G1 X159.136 Y152.116 E44.24005
G1 X158.961 Y152.956 E44.28286
G1 X158.708 Y153.599 E44.31733
G1 X158.177 Y154.232 E44.35855
G1 X157.624 Y154.512 E44.38947
G1 X156.976 Y154.7 E44.42314
G1 X145.191 Y154.7 E45.01109
G1 X144.582 Y154.601 E45.04187
G1 X144.02 Y154.352 E45.07254
G1 X143.49 Y153.908 E45.10704
G1 X143.063 Y153.081 E45.15347
G1 X142.883 Y152.14 E45.20127
G1 X142.805 Y150.903 E45.2631
G1 X142.882 Y149.861 E45.31523
G1 X143.03 Y149.087 E45.35455
G1 X143.267 Y148.442 E45.38883
G1 X143.776 Y147.807 E45.42943
G0 F3600 X144.038 Y148.119
G1 F1800 X144.463 Y147.883 E45.45368
G1 X145.075 Y147.7 E45.48555
G1 X156.808 Y147.7 E46.07091
G1 X157.357 Y147.795 E46.09871
G1 X157.95 Y148.109 E46.13219
G1 X158.255 Y148.472 E46.15584
G1 X158.545 Y149.016 E46.1866
G1 X158.696 Y149.74 E46.2235
G1 X158.779 Y150.432 E46.25827
G1 X158.8 Y151.047 E46.28897
G1 X158.744 Y152.034 E46.33829
G1 X158.569 Y152.874 E46.3811
G1 X158.36 Y153.393 E46.40901
G1 X157.924 Y153.912 E46.44283
G1 X157.513 Y154.128 E46.46599
G1 X156.92 Y154.3 E46.4968
G1 X145.191 Y154.3 E47.08196
G1 X144.699 Y154.215 E47.10687
