;FLAVOR:Marlin
;TIME:561
;Filament used: 0.244256m
;Layer height: 0.15
;MINX:140.211
;MINY:144.7
;MINZ:0.3
;MAXX:161.804
;MAXY:157.3
;MAXZ:19.95
;TARGET_MACHINE.NAME:Unknown
;Generated with Cura_SteamEngine 5.7.2
M140 S60
M105
M190 S60
M104 S200
M105
M109 S200
M82 ;absolute extrusion mode
; Script based on an original created by tjjfvi (https://github.com/tjjfvi)
; An up-to-date version of the tjjfvi's original script can be found
; here:  https://csi.t6.fyi/
; Note - This script will only work in Cura V4.2 and above!
; --- Global Settings
; layer_height = 0.15
; smooth_spiralized_contours = True
; magic_mesh_surface_mode = normal
; machine_extruder_count = 1
; --- Single Extruder Settings
; speed_z_hop = 10
; retraction_amount = 6.5
; retraction_hop = 1
; retraction_hop_enabled = False
; retraction_enable = True
; retraction_speed = 25
; retraction_retract_speed = 25
; retraction_prime_speed = 25
; speed_travel = 120

G28 ;Home
G1 Z15.0 F6000 ;Move the platform down 15mm
;Prime the extruder
G92 E0
G1 F200 E3
G92 E0
G92 E0
G92 E0
G1 F1500 E-6.5
;LAYER_COUNT:132
;LAYER:0
M107
G0 F3600 X142.048 Y145.895 Z0.3
;TYPE:SKIRT
G1 F1500 E0
G1 F1800 X142.708 Y145.41 E0.04086
G1 X143.268 Y145.12 E0.07232
G1 X144.048 Y144.854 E0.11344
G1 X144.805 Y144.723 E0.15177
G1 X145.716 Y144.7 E0.19723
G1 X156.174 Y144.7 E0.71898
G1 X156.943 Y144.714 E0.75736
G1 X157.762 Y144.81 E0.7985
G1 X158.425 Y144.996 E0.83285
G1 X159.103 Y145.301 E0.86994
G1 X159.635 Y145.641 E0.90144
G1 X160.26 Y146.189 E0.94291
G1 X160.811 Y146.878 E0.98692
G1 X161.146 Y147.455 E1.02021
G1 X161.457 Y148.365 E1.06819
G1 X161.725 Y149.639 E1.13314
G1 X161.804 Y150.706 E1.18652
G1 X161.779 Y151.487 E1.2255
G1 X161.706 Y152.498 E1.27607
G1 X161.463 Y153.619 E1.3333
G1 X161.297 Y154.163 E1.36167
G1 X160.885 Y155.007 E1.40853
G1 X160.557 Y155.472 E1.43692
G1 X159.892 Y156.157 E1.48455
G1 X159.338 Y156.56 E1.51873
G1 X158.782 Y156.858 E1.5502
G1 X157.934 Y157.148 E1.59491
G1 X157.122 Y157.281 E1.63596
G1 X156.137 Y157.3 E1.68512
G1 X145.826 Y157.3 E2.19953
G1 X145.057 Y157.286 E2.2379
G1 X144.238 Y157.19 E2.27904
G1 X143.575 Y157.004 E2.3134
G1 X142.897 Y156.699 E2.35049
G1 X142.365 Y156.359 E2.38199
G1 X141.692 Y155.761 E2.4269
G1 X141.254 Y155.217 E2.46175
G1 X140.825 Y154.461 E2.50511
G1 X140.554 Y153.767 E2.54228
G1 X140.258 Y152.113 E2.62611
G1 X140.211 Y151.004 E2.68149
G1 X140.311 Y149.435 E2.75993
G1 X140.507 Y148.498 E2.80769
G1 X140.745 Y147.732 E2.84771
G1 X141.083 Y147.049 E2.88572
G1 X141.56 Y146.386 E2.92647
G1 X142.048 Y145.895 E2.96101
G0 F3600 X142.287 Y146.216
G1 F1800 X142.895 Y145.764 E2.99881
G1 X143.397 Y145.499 E3.02713
G1 X144.177 Y145.233 E3.06824
G1 X144.87 Y145.118 E3.10329
G1 X145.724 Y145.1 E3.14591
G1 X156.167 Y145.1 E3.66691
G1 X156.936 Y145.114 E3.70528
G1 X157.656 Y145.196 E3.74143
G1 X158.263 Y145.362 E3.77283
G1 X158.89 Y145.64 E3.80705
G1 X159.371 Y145.942 E3.83538
G1 X159.996 Y146.49 E3.87685
G1 X160.465 Y147.079 E3.91441
G1 X160.78 Y147.621 E3.94569
G1 X161.078 Y148.494 E3.99171
G1 X161.326 Y149.669 E4.05162
G1 X161.404 Y150.693 E4.10286
G1 X161.38 Y151.46 E4.14114
G1 X161.315 Y152.414 E4.18885
G1 X161.08 Y153.502 E4.24438
G1 X160.914 Y154.046 E4.27276
G1 X160.556 Y154.779 E4.31346
G1 X160.268 Y155.195 E4.3387
G1 X159.655 Y155.835 E4.38291
G1 X159.149 Y156.207 E4.41424
G1 X158.593 Y156.505 E4.44572
G1 X157.869 Y156.753 E4.4839
G1 X157.057 Y156.886 E4.52495
G1 X156.131 Y156.9 E4.57115
G1 X145.833 Y156.9 E5.08492
G1 X145.064 Y156.886 E5.12329
G1 X144.344 Y156.804 E5.15945
G1 X143.737 Y156.638 E5.19084
G1 X143.11 Y156.36 E5.22506
G1 X142.629 Y156.058 E5.25339
G1 X142.004 Y155.51 E5.29486
G1 X141.566 Y154.966 E5.32971
G1 X141.198 Y154.315 E5.36702
G1 X140.941 Y153.657 E5.40226
G1 X140.658 Y152.096 E5.48141
G1 X140.611 Y150.987 E5.53679
G1 X140.703 Y149.517 E5.61027
G1 X140.899 Y148.58 E5.65803
G1 X141.127 Y147.851 E5.69613
G1 X141.44 Y147.229 E5.73087
G1 X141.846 Y146.666 E5.7655
G1 X142.287 Y146.216 E5.79694
G0 F3600 X142.573 Y146.496
G1 F1800 X143.082 Y146.118 E5.82857
G1 X143.584 Y145.853 E5.85689
G1 X144.242 Y145.628 E5.89158
G1 X144.935 Y145.513 E5.92663
G1 X145.731 Y145.5 E5.96635
G1 X156.16 Y145.5 E6.48665
G1 X156.893 Y145.512 E6.52323
G1 X157.553 Y145.583 E6.55634
G1 X158.103 Y145.729 E6.58473
G1 X158.677 Y145.979 E6.61597
G1 X159.158 Y146.281 E6.6443
G1 X159.73 Y146.789 E6.68247
G1 X160.119 Y147.28 E6.71372
G1 X160.414 Y147.787 E6.74299
G1 X160.699 Y148.623 E6.78705
G1 X160.927 Y149.7 E6.84198
G1 X161.004 Y150.681 E6.89107
G1 X160.981 Y151.435 E6.9287
G1 X160.924 Y152.33 E6.97345
G1 X160.697 Y153.385 E7.02728
G1 X160.531 Y153.929 E7.05566
G1 X160.227 Y154.551 E7.0902
G1 X159.939 Y154.967 E7.11544
G1 X159.416 Y155.514 E7.1532
G1 X158.96 Y155.854 E7.18158
G1 X158.404 Y156.152 E7.21305
G1 X157.802 Y156.359 E7.24481
G1 X157.051 Y156.486 E7.28281
G1 X156.125 Y156.5 E7.32901
G1 X145.84 Y156.5 E7.84213
G1 X145.107 Y156.488 E7.87871
G1 X144.447 Y156.417 E7.91182
G1 X143.897 Y156.271 E7.94021
G1 X143.323 Y156.021 E7.97145
G1 X142.842 Y155.719 E7.99978
G1 X142.27 Y155.211 E8.03795
G1 X141.88 Y154.718 E8.06931
G1 X141.571 Y154.17 E8.1007
G1 X141.327 Y153.544 E8.13422
G1 X141.058 Y152.079 E8.20853
G1 X141.011 Y150.97 E8.26391
G1 X141.095 Y149.599 E8.33244
G1 X141.291 Y148.662 E8.38019
G1 X141.486 Y148.028 E8.41329
G1 X141.766 Y147.461 E8.44484
G1 X142.132 Y146.946 E8.47636
G1 X142.573 Y146.496 E8.50779
G0 F3600 X142.814 Y146.815
G1 F1800 X143.269 Y146.472 E8.53622
G1 X143.771 Y146.207 E8.56454
G1 X144.31 Y146.022 E8.59297
G1 X144.942 Y145.913 E8.62497
G1 X145.738 Y145.9 E8.66468
G1 X156.154 Y145.9 E9.18434
G1 X156.853 Y145.91 E9.21922
G1 X157.45 Y145.97 E9.24915
G1 X158 Y146.116 E9.27754
G1 X158.464 Y146.318 E9.30279
G1 X158.945 Y146.62 E9.33112
G1 X159.418 Y147.039 E9.36265
G1 X159.773 Y147.481 E9.39093
G1 X160.048 Y147.953 E9.41819
G1 X160.32 Y148.752 E9.46029
G1 X160.528 Y149.732 E9.51028
G1 X160.604 Y150.669 E9.55718
G1 X160.582 Y151.412 E9.59426
G1 X160.533 Y152.246 E9.63594
G1 X160.314 Y153.268 E9.68809
G1 X160.148 Y153.812 E9.71646
G1 X159.898 Y154.323 E9.74484
G1 X159.61 Y154.739 E9.77009
G1 X159.174 Y155.195 E9.80156
G1 X158.771 Y155.501 E9.82681
G1 X158.215 Y155.799 E9.85828
G1 X157.675 Y155.98 E9.88669
G1 X157.045 Y156.086 E9.91857
G1 X156.119 Y156.1 E9.96477
G1 X145.846 Y156.1 E10.47729
G1 X145.147 Y156.09 E10.51217
G1 X144.55 Y156.03 E10.5421
G1 X144 Y155.884 E10.57049
G1 X143.536 Y155.682 E10.59574
G1 X143.055 Y155.38 E10.62408
G1 X142.582 Y154.961 E10.6556
G1 X142.227 Y154.519 E10.68388
G1 X141.944 Y154.025 E10.71229
G1 X141.713 Y153.432 E10.74404
G1 X141.458 Y152.062 E10.81356
G1 X141.411 Y150.953 E10.86894
G1 X141.487 Y149.68 E10.93256
G1 X141.674 Y148.777 E10.97857
G1 X141.846 Y148.202 E11.00851
G1 X142.094 Y147.69 E11.03689
G1 X142.42 Y147.224 E11.06527
G1 X142.814 Y146.815 E11.0936
G0 F3600 X143.058 Y147.132
G1 F1800 X143.459 Y146.824 E11.11883
G1 X143.904 Y146.584 E11.14405
G1 X144.381 Y146.416 E11.16928
G1 X144.949 Y146.313 E11.19808
G1 X145.745 Y146.3 E11.2378
G1 X156.148 Y146.3 E11.75681
G1 X156.847 Y146.31 E11.79168
G1 X157.35 Y146.357 E11.81689
G1 X157.84 Y146.483 E11.84213
G1 X158.304 Y146.685 E11.86738
G1 X158.73 Y146.957 E11.89259
G1 X159.108 Y147.292 E11.91779
G1 X159.428 Y147.683 E11.943
G1 X159.683 Y148.12 E11.96824
G1 X159.929 Y148.836 E12.00601
G1 X160.129 Y149.765 E12.05342
G1 X160.204 Y150.658 E12.09813
G1 X160.183 Y151.391 E12.13472
G1 X160.142 Y152.163 E12.17328
G1 X159.931 Y153.154 E12.22383
G1 X159.787 Y153.639 E12.24907
G1 X159.569 Y154.095 E12.27429
G1 X159.281 Y154.511 E12.29953
G1 X158.932 Y154.876 E12.32473
G1 X158.529 Y155.182 E12.34997
G1 X158.084 Y155.421 E12.37517
G1 X157.606 Y155.586 E12.4004
G1 X157.039 Y155.686 E12.42913
G1 X156.113 Y155.7 E12.47533
G1 X145.852 Y155.7 E12.98725
G1 X145.153 Y155.69 E13.02213
G1 X144.65 Y155.643 E13.04733
G1 X144.16 Y155.517 E13.07258
G1 X143.696 Y155.315 E13.09782
G1 X143.27 Y155.043 E13.12304
G1 X142.892 Y154.708 E13.14824
G1 X142.572 Y154.317 E13.17345
G1 X142.317 Y153.88 E13.19869
G1 X142.099 Y153.32 E13.22867
G1 X141.858 Y152.045 E13.2934
G1 X141.811 Y150.936 E13.34878
G1 X141.879 Y149.761 E13.4075
G1 X142.066 Y148.858 E13.45351
G1 X142.208 Y148.373 E13.47872
G1 X142.424 Y147.916 E13.50394
G1 X142.71 Y147.499 E13.52917
G1 X143.058 Y147.132 E13.5544
G1 F1500 E7.0544
;MESH:Antenna Mount-Body.stl
G0 F3600 X144.473 Y149.712
G0 X145.534 Y149.915
G0 X145.901 Y150.995
G0 X145.602 Y151
;TYPE:WALL-INNER
G1 F1500 E13.5544
G1 F1800 X145.645 Y151.681 E13.58844
G1 X145.686 Y151.9 E13.59956
G1 X156.322 Y151.9 E14.13019
G1 X156.37 Y151.68 E14.14142
G1 X156.406 Y150.775 E14.18661
G1 X156.321 Y150.099 E14.2206
G1 X145.686 Y150.1 E14.75118
G1 X145.645 Y150.316 E14.76215
G1 X145.602 Y151 E14.79634
G0 F3600 X145.201 Y151
;TYPE:WALL-OUTER
G1 F1800 X145.247 Y151.731 E14.83289
G1 X145.354 Y152.3 E14.86177
G1 X156.646 Y152.3 E15.42513
G1 X156.768 Y151.73 E15.45421
G1 X156.807 Y150.757 E15.5028
G1 X156.712 Y150.01 E15.54036
G1 X156.646 Y149.7 E15.55618
G1 X145.354 Y149.7 E16.11954
G1 X145.247 Y150.266 E16.14827
G1 X145.201 Y151 E16.18497
G0 F3600 X145.213 Y151.199
G0 X145.911 Y151.155
G0 X155.992 Y151.52
;TYPE:SKIN
G1 F1800 X146.019 Y151.52 E16.68252
G1 X145.981 Y151.004 E16.70833
G1 X146.019 Y150.48 E16.73454
G1 X155.983 Y150.476 E17.23165
G1 X156.023 Y150.797 E17.24779
G1 X155.992 Y151.52 E17.28389
G0 F3600 X155.768 Y150.677
G1 F1800 X155.827 Y150.736 E17.28806
G0 F3600 X155.802 Y151.277
G1 F1800 X155.202 Y150.677 E17.33039
G0 F3600 X154.636 Y150.677
G1 F1800 X155.28 Y151.32 E17.37579
G0 F3600 X154.714 Y151.32
G1 F1800 X154.071 Y150.677 E17.42116
G0 F3600 X153.506 Y150.677
G1 F1800 X154.149 Y151.32 E17.46653
G0 F3600 X153.583 Y151.32
G1 F1800 X152.94 Y150.677 E17.51189
G0 F3600 X152.374 Y150.677
G1 F1800 X153.017 Y151.32 E17.55726
G0 F3600 X152.452 Y151.32
G1 F1800 X151.809 Y150.678 E17.60259
G0 F3600 X151.244 Y150.678
G1 F1800 X151.886 Y151.32 E17.64789
G0 F3600 X151.32 Y151.32
G1 F1800 X150.678 Y150.678 E17.69318
G0 F3600 X150.112 Y150.678
G1 F1800 X150.754 Y151.32 E17.73848
G0 F3600 X150.189 Y151.32
G1 F1800 X149.547 Y150.679 E17.78374
G0 F3600 X148.982 Y150.679
G1 F1800 X149.623 Y151.32 E17.82897
G0 F3600 X149.057 Y151.32
G1 F1800 X148.416 Y150.679 E17.87419
G0 F3600 X147.851 Y150.68
G1 F1800 X148.492 Y151.32 E17.91939
G0 F3600 X147.926 Y151.32
G1 F1800 X147.285 Y150.68 E17.96458
G0 F3600 X146.72 Y150.68
G1 F1800 X147.36 Y151.32 E18.00973
G0 F3600 X146.795 Y151.32
G1 F1800 X146.205 Y150.73 E18.05136
G1 X146.135 Y150.66
G0 F3600 X146.222 Y150.7
G1 F1500 E11.55136
;MESH:NONMESH
G0 F600 X146.222 Y150.7 Z0.45
G0 F3600 X145.534 Y149.915
G0 X144.473 Y149.712
G0 X143.058 Y147.132
;TIME_ELAPSED:19.112869
;LAYER:1
M106 S255
;TYPE:SKIRT
G1 F1500 E18.05136
G1 F1800 X143.459 Y146.824 E18.06397
G1 X143.904 Y146.584 E18.07658
G1 X144.381 Y146.416 E18.0892
G1 X144.949 Y146.313 E18.1036
G1 X145.745 Y146.3 E18.12346
G1 X156.148 Y146.3 E18.38296
G1 X156.847 Y146.31 E18.4004
G1 X157.35 Y146.357 E18.413
G1 X157.84 Y146.483 E18.42562
G1 X158.304 Y146.685 E18.43825
G1 X158.73 Y146.957 E18.45086
G1 X159.108 Y147.292 E18.46346
G1 X159.428 Y147.683 E18.47606
G1 X159.683 Y148.12 E18.48868
G1 X159.929 Y148.836 E18.50757
G1 X160.129 Y149.765 E18.53127
G1 X160.204 Y150.658 E18.55362
G1 X160.183 Y151.391 E18.57192
G1 X160.142 Y152.163 E18.5912
G1 X159.931 Y153.154 E18.61648
G1 X159.787 Y153.639 E18.6291
G1 X159.569 Y154.095 E18.6417
G1 X159.281 Y154.511 E18.65433
G1 X158.932 Y154.876 E18.66692
G1 X158.529 Y155.182 E18.67955
G1 X158.084 Y155.421 E18.69215
G1 X157.606 Y155.586 E18.70476
G1 X157.039 Y155.686 E18.71912
G1 X156.113 Y155.7 E18.74222
G1 X145.852 Y155.7 E18.99819
G1 X145.153 Y155.69 E19.01562
G1 X144.65 Y155.643 E19.02823
G1 X144.16 Y155.517 E19.04085
G1 X143.696 Y155.315 E19.05347
G1 X143.27 Y155.043 E19.06608
G1 X142.892 Y154.708 E19.07868
G1 X142.572 Y154.317 E19.09128
G1 X142.317 Y153.88 E19.1039
G1 X142.099 Y153.32 E19.11889
G1 X141.858 Y152.045 E19.15126
G1 X141.811 Y150.936 E19.17895
G1 X141.879 Y149.761 E19.20831
G1 X142.066 Y148.858 E19.23131
G1 X142.208 Y148.373 E19.24392
G1 X142.424 Y147.916 E19.25653
G1 X142.71 Y147.499 E19.26914
G1 X143.058 Y147.132 E19.28176
G1 F1500 E12.78176
;MESH:Antenna Mount-Body.stl
G0 F5400 X144.473 Y149.712
G0 X145.534 Y149.915
G0 X145.901 Y150.99
G0 X145.601 Y150.994
;TYPE:WALL-INNER
G1 F1500 E19.28176
G1 F3300 X145.645 Y151.677 E19.29883
G1 X145.687 Y151.9 E19.30449
G1 X156.319 Y151.899 E19.56971
G1 X156.381 Y151.433 E19.58144
G1 X156.406 Y150.786 E19.59759
G1 X156.321 Y150.101 E19.61481
G1 X145.685 Y150.1 E19.88012
G1 X145.642 Y150.323 E19.88579
G1 X145.601 Y150.994 E19.90256
G0 F5400 X145.201 Y150.995
;TYPE:WALL-OUTER
G1 F2100 X145.247 Y151.727 E19.92085
G1 X145.355 Y152.3 E19.9354
G1 X156.645 Y152.299 E20.21703
G1 X156.714 Y151.97 E20.22541
G1 X156.78 Y151.467 E20.23807
G1 X156.807 Y150.769 E20.25549
G1 X156.712 Y150.011 E20.27455
G1 X156.645 Y149.7 E20.28248
G1 X145.354 Y149.7 E20.56414
G1 X145.244 Y150.273 E20.57869
G1 X145.201 Y150.995 E20.59674
G0 F5400 X145.213 Y151.194
G0 X145.911 Y151.151
G0 X155.995 Y151.516
;TYPE:SKIN
G1 F1800 X146.019 Y151.52 E20.84559
G1 X145.981 Y151 E20.85859
G1 X146.016 Y150.48 E20.8716
G1 X155.982 Y150.481 E21.1202
G1 X156.023 Y150.809 E21.12844
G1 X155.995 Y151.516 E21.14609
G0 F5400 X155.484 Y150.998
G1 F1130.3 X146.522 Y151 E21.50211
G1 F1500 E15.00211
;MESH:NONMESH
G0 F600 X146.522 Y151 Z0.6
G0 F5400 X145.534 Y149.915
G0 X144.473 Y149.712
G0 X143.058 Y147.132
;TIME_ELAPSED:24.783544
;LAYER:2
;TYPE:SKIRT
G1 F1500 E21.50211
G1 F1800 X143.459 Y146.824 E21.51472
G1 X143.904 Y146.584 E21.52734
G1 X144.381 Y146.416 E21.53995
G1 X144.949 Y146.313 E21.55435
G1 X145.745 Y146.3 E21.57421
G1 X156.148 Y146.3 E21.83371
G1 X156.847 Y146.31 E21.85115
G1 X157.35 Y146.357 E21.86375
G1 X157.84 Y146.483 E21.87637
G1 X158.304 Y146.685 E21.889
G1 X158.73 Y146.957 E21.90161
G1 X159.108 Y147.292 E21.91421
G1 X159.428 Y147.683 E21.92681
G1 X159.683 Y148.12 E21.93943
G1 X159.929 Y148.836 E21.95832
G1 X160.129 Y149.765 E21.98202
G1 X160.204 Y150.658 E22.00438
G1 X160.183 Y151.391 E22.02267
G1 X160.142 Y152.163 E22.04195
G1 X159.931 Y153.154 E22.06723
G1 X159.787 Y153.639 E22.07985
G1 X159.569 Y154.095 E22.09246
G1 X159.281 Y154.511 E22.10508
G1 X158.932 Y154.876 E22.11767
G1 X158.529 Y155.182 E22.1303
G1 X158.084 Y155.421 E22.1429
G1 X157.606 Y155.586 E22.15551
G1 X157.039 Y155.686 E22.16987
G1 X156.113 Y155.7 E22.19298
G1 X145.852 Y155.7 E22.44894
G1 X145.153 Y155.69 E22.46638
G1 X144.65 Y155.643 E22.47898
G1 X144.16 Y155.517 E22.4916
G1 X143.696 Y155.315 E22.50422
G1 X143.27 Y155.043 E22.51683
G1 X142.892 Y154.708 E22.52943
G1 X142.572 Y154.317 E22.54203
G1 X142.317 Y153.88 E22.55465
G1 X142.099 Y153.32 E22.56964
G1 X141.858 Y152.045 E22.60201
G1 X141.811 Y150.936 E22.6297
G1 X141.879 Y149.761 E22.65906
G1 X142.066 Y148.858 E22.68206
G1 X142.208 Y148.373 E22.69467
G1 X142.424 Y147.916 E22.70728
G1 X142.71 Y147.499 E22.71989
G1 X143.058 Y147.132 E22.73251
G1 F1500 E16.23251
;MESH:Antenna Mount-Body.stl
G0 F7200 X144.473 Y149.713
G0 X145.534 Y149.915
G0 X156.099 Y151.001
G0 X156.399 Y150.996
;TYPE:WALL-INNER
G1 F1500 E22.73251
G1 F4800 X156.367 Y150.306 E22.74974
G1 X156.323 Y150.1 E22.75499
G1 X145.684 Y150.1 E23.02039
G1 X145.641 Y150.327 E23.02615
G1 X145.602 Y150.99 E23.04272
G1 X145.645 Y151.673 E23.05979
G1 X145.687 Y151.9 E23.06555
G1 X156.321 Y151.9 E23.33081
G1 X156.366 Y151.687 E23.33624
G1 X156.399 Y150.996 E23.3535
G0 F7200 X156.799 Y150.996
;TYPE:WALL-OUTER
G1 F2400 X156.765 Y150.254 E23.37203
G1 X156.646 Y149.7 E23.38616
G1 X145.354 Y149.7 E23.66784
G1 X145.243 Y150.277 E23.6825
G1 X145.201 Y150.991 E23.70034
G1 X145.247 Y151.723 E23.71864
G1 X145.355 Y152.3 E23.73328
G1 X156.645 Y152.3 E24.01491
G1 X156.764 Y151.738 E24.02924
G1 X156.799 Y150.996 E24.04777
G0 F7200 X156.79 Y150.797
G0 X156.092 Y150.827
G0 X146.522 Y151
;TYPE:SKIN
G1 F1125 X155.476 Y151 E24.40514
G0 F7200 X155.986 Y151.52
G1 F1800 X146.019 Y151.52 E24.65377
G1 X145.981 Y150.994 E24.66693
G1 X146.013 Y150.48 E24.67977
